;FLAVOR:UltiGCode
;TIME:1385
;MATERIAL:1209
;MATERIAL2:0
;NOZZLE_DIAMETER:0.4

;Generated with Cura_SteamEngine 2.1.3
;LAYER_COUNT:28
;LAYER:0
M107
G10
G0 F7200.000000 X84.496 Y91.929 Z0.270
;TYPE:SKIRT
G11
G1 F1200.000 X84.840 Y91.618 E0.04382
G1 X85.012 Y91.482 E0.06454
G1 X85.019 Y91.477 E0.06536
G1 X85.487 Y91.161 E0.11872
G1 X85.677 Y91.055 E0.13928
G1 X85.716 Y91.036 E0.14338
G1 X85.983 Y90.919 E0.17093
G1 X86.306 Y90.793 E0.20369
G1 X86.424 Y90.752 E0.21550
G1 X86.927 Y90.602 E0.26510
G1 X87.054 Y90.576 E0.27735
G1 X87.330 Y90.531 E0.30378
G1 X87.496 Y90.511 E0.31958
G1 X87.801 Y90.490 E0.34847
G1 X88.739 Y90.476 E0.43712
G1 X90.793 Y90.476 E0.63122
G1 X91.499 Y90.486 E0.69795
G1 X91.656 Y90.493 E0.71280
G1 X92.032 Y90.526 E0.74846
G1 X92.040 Y90.527 E0.74923
G1 X92.465 Y90.602 E0.79001
G1 X93.680 Y90.840 E0.90701
G1 X96.469 Y91.304 E1.17419
G1 X99.271 Y91.690 E1.44148
G1 X102.083 Y91.995 E1.70877
G1 X104.903 Y92.222 E1.97613
G1 X107.727 Y92.368 E2.24335
G1 X110.555 Y92.435 E2.51067
G1 X113.383 Y92.421 E2.77792
G1 X116.210 Y92.328 E3.04522
G1 X119.033 Y92.154 E3.31250
G1 X121.850 Y91.901 E3.57978
G1 X124.659 Y91.568 E3.84708
G1 X127.457 Y91.156 E4.11435
G1 X130.545 Y90.607 E4.41074
G1 X130.746 Y90.568 E4.43009
G1 X130.771 Y90.564 E4.43248
G1 X130.997 Y90.533 E4.45404
G1 X131.483 Y90.488 E4.50016
G1 X131.522 Y90.486 E4.50385
G1 X131.625 Y90.482 E4.51359
G1 X132.110 Y90.477 E4.55943
G1 X134.425 Y90.480 E4.77819
G1 X134.934 Y90.488 E4.82630
G1 X135.467 Y90.514 E4.87673
G1 X135.642 Y90.533 E4.89336
G1 X136.047 Y90.606 E4.93225
G1 X136.450 Y90.706 E4.97149
G1 X136.739 Y90.806 E5.00039
G1 X136.966 Y90.892 E5.02333
G1 X137.054 Y90.932 E5.03246
G1 X137.585 Y91.210 E5.08911
G1 X137.981 Y91.477 E5.13424
G1 X138.038 Y91.519 E5.14093
G1 X138.308 Y91.744 E5.17414
G1 X138.569 Y91.995 E5.20836
G1 X138.882 Y92.340 E5.25238
G1 X138.924 Y92.393 E5.25877
G1 X139.151 Y92.705 E5.29523
G1 X139.327 Y92.969 E5.32522
G1 X139.334 Y92.981 E5.32653
G1 X139.539 Y93.400 E5.37061
G1 X139.621 Y93.586 E5.38982
G1 X139.707 Y93.806 E5.41214
G1 X139.748 Y93.924 E5.42395
G1 X139.898 Y94.427 E5.47355
G1 X139.924 Y94.554 E5.48580
G1 X139.934 Y94.612 E5.49136
G1 X140.006 Y95.277 E5.55457
G1 X140.025 Y96.370 E5.65788
G1 X140.019 Y126.941 E8.54684
G1 X140.011 Y127.496 E8.59929
G1 X139.992 Y127.915 E8.63893
G1 X139.990 Y127.950 E8.64224
G1 X139.965 Y128.188 E8.66485
G1 X139.938 Y128.352 E8.68056
G1 X139.799 Y128.914 E8.73527
G1 X139.697 Y129.234 E8.76701
G1 X139.649 Y129.356 E8.77940
G1 X139.562 Y129.555 E8.79992
G1 X139.348 Y129.995 E8.84616
G1 X139.327 Y130.031 E8.85010
G1 X139.151 Y130.295 E8.88008
G1 X138.926 Y130.605 E8.91628
G1 X138.756 Y130.808 E8.94130
G1 X138.504 Y131.071 E8.97572
G1 X138.164 Y131.379 E9.01907
G1 X137.988 Y131.518 E9.04027
G1 X137.981 Y131.523 E9.04108
G1 X137.513 Y131.839 E9.09444
G1 X137.323 Y131.945 E9.11500
G1 X137.284 Y131.964 E9.11910
G1 X137.017 Y132.081 E9.14665
G1 X136.694 Y132.207 E9.17942
G1 X136.576 Y132.248 E9.19122
G1 X136.073 Y132.398 E9.24082
G1 X135.946 Y132.424 E9.25307
G1 X135.670 Y132.469 E9.27950
G1 X135.483 Y132.491 E9.29729
G1 X135.218 Y132.509 E9.32239
G1 X134.265 Y132.524 E9.41246
G1 X88.571 Y132.519 E13.73055
G1 X88.094 Y132.512 E13.77563
G1 X87.526 Y132.486 E13.82936
G1 X87.357 Y132.467 E13.84543
G1 X86.953 Y132.394 E13.88423
G1 X86.550 Y132.294 E13.92347
G1 X86.261 Y132.194 E13.95236
G1 X86.030 Y132.106 E13.97572
G1 X85.946 Y132.068 E13.98444
G1 X85.415 Y131.790 E14.04108
G1 X85.019 Y131.523 E14.08621
G1 X84.962 Y131.481 E14.09290
G1 X84.692 Y131.256 E14.12611
G1 X84.429 Y131.004 E14.16054
G1 X84.118 Y130.660 E14.20436
G1 X84.076 Y130.607 E14.21075
G1 X83.849 Y130.295 E14.24721
G1 X83.673 Y130.031 E14.27720
G1 X83.666 Y130.019 E14.27851
G1 X83.460 Y129.598 E14.32280
G1 X83.378 Y129.411 E14.34210
G1 X83.291 Y129.188 E14.36472
G1 X83.252 Y129.076 E14.37592
G1 X83.102 Y128.573 E14.42553
G1 X83.076 Y128.446 E14.43778
G1 X83.066 Y128.388 E14.44334
G1 X82.994 Y127.723 E14.50655
G1 X82.975 Y126.626 E14.61023
G1 X82.981 Y96.038 E17.50080
G1 X82.989 Y95.500 E17.55164
G1 X83.008 Y95.085 E17.59090
G1 X83.010 Y95.050 E17.59421
G1 X83.036 Y94.805 E17.61750
G1 X83.062 Y94.648 E17.63254
G1 X83.201 Y94.085 E17.68734
G1 X83.303 Y93.766 E17.71899
G1 X83.354 Y93.637 E17.73209
G1 X83.438 Y93.445 E17.75190
G1 X83.652 Y93.005 E17.79814
G1 X83.677 Y92.964 E17.80267
G1 X83.849 Y92.705 E17.83205
G1 X84.074 Y92.395 E17.86825
G1 X84.244 Y92.192 E17.89327
G1 X84.496 Y91.929 E17.92769
G0 F7200.00000 X84.747 Y92.172
G1 F1200.000 X85.081 Y91.869 E17.97031
G1 X85.420 Y91.615 E18.01034
G1 X85.438 Y91.602 E18.01244
G1 X85.624 Y91.486 E18.03315
G1 X85.691 Y91.448 E18.04043
G1 X86.006 Y91.295 E18.07353
G1 X86.179 Y91.219 E18.09138
G1 X86.468 Y91.107 E18.12067
G1 X86.561 Y91.074 E18.13000
G1 X86.990 Y90.947 E18.17228
G1 X87.128 Y90.917 E18.18562
G1 X87.368 Y90.879 E18.20859
G1 X87.547 Y90.858 E18.22562
G1 X87.702 Y90.847 E18.24030
G1 X87.941 Y90.837 E18.26291
G1 X88.693 Y90.826 E18.33398
G1 X90.793 Y90.826 E18.53243
G1 X91.499 Y90.836 E18.59915
G1 X91.617 Y90.841 E18.61031
G1 X91.683 Y90.846 E18.61657
G1 X91.989 Y90.874 E18.64561
G1 X93.024 Y91.061 E18.74500
G1 X93.684 Y91.190 E18.80855
G1 X96.474 Y91.655 E19.07584
G1 X99.275 Y92.041 E19.34303
G1 X102.087 Y92.347 E19.61034
G1 X104.906 Y92.574 E19.87760
G1 X107.731 Y92.721 E20.14492
G1 X110.559 Y92.787 E20.41224
G1 X113.387 Y92.774 E20.67949
G1 X116.214 Y92.681 E20.94678
G1 X119.037 Y92.508 E21.21406
G1 X121.854 Y92.255 E21.48133
G1 X124.663 Y91.923 E21.74863
G1 X127.461 Y91.512 E22.01588
G1 X130.246 Y91.021 E22.28312
G1 X130.635 Y90.943 E22.32061
G1 X130.979 Y90.881 E22.35365
G1 X131.446 Y90.840 E22.39795
G1 X131.517 Y90.836 E22.40467
G1 X131.825 Y90.827 E22.43379
G1 X131.903 Y90.827 E22.44116
G1 X134.424 Y90.830 E22.67939
G1 X134.927 Y90.838 E22.72693
G1 X135.431 Y90.862 E22.77461
G1 X135.597 Y90.881 E22.79040
G1 X135.981 Y90.949 E22.82726
G1 X136.354 Y91.042 E22.86358
G1 X136.620 Y91.134 E22.89018
G1 X136.823 Y91.211 E22.91070
G1 X136.895 Y91.243 E22.91814
G1 X137.388 Y91.502 E22.97077
G1 X137.763 Y91.747 E23.01310
G1 X138.114 Y92.041 E23.05637
G1 X138.323 Y92.242 E23.08377
G1 X138.580 Y92.525 E23.11990
G1 X138.716 Y92.697 E23.14062
G1 X138.773 Y92.774 E23.14967
G1 X139.036 Y93.167 E23.19436
G1 X139.204 Y93.509 E23.23037
G1 X139.292 Y93.708 E23.25093
G1 X139.393 Y93.968 E23.27729
G1 X139.426 Y94.061 E23.28661
G1 X139.553 Y94.490 E23.32889
G1 X139.583 Y94.628 E23.34224
G1 X139.591 Y94.679 E23.34712
G1 X139.658 Y95.287 E23.40492
G1 X139.675 Y96.333 E23.50378
G1 X139.669 Y126.941 E26.39624
G1 X139.661 Y127.528 E26.45171
G1 X139.646 Y127.868 E26.48387
G1 X139.614 Y128.171 E26.51267
G1 X139.593 Y128.295 E26.52455
G1 X139.463 Y128.822 E26.57585
G1 X139.377 Y129.091 E26.60253
G1 X139.341 Y129.184 E26.61196
G1 X139.209 Y129.484 E26.64293
G1 X139.051 Y129.809 E26.67708
G1 X139.037 Y129.832 E26.67962
G1 X138.780 Y130.216 E26.72329
G1 X138.695 Y130.332 E26.73688
G1 X138.457 Y130.616 E26.77190
G1 X138.258 Y130.823 E26.79903
G1 X137.919 Y131.131 E26.84231
G1 X137.580 Y131.385 E26.88234
G1 X137.565 Y131.396 E26.88410
G1 X137.376 Y131.514 E26.90516
G1 X137.309 Y131.552 E26.91244
G1 X136.994 Y131.705 E26.94553
G1 X136.829 Y131.778 E26.96258
G1 X136.532 Y131.893 E26.99268
G1 X136.439 Y131.926 E27.00200
G1 X136.010 Y132.053 E27.04428
G1 X135.872 Y132.083 E27.05763
G1 X135.632 Y132.121 E27.08059
G1 X135.458 Y132.142 E27.09715
G1 X135.276 Y132.155 E27.11440
G1 X135.078 Y132.163 E27.13312
G1 X134.310 Y132.174 E27.20570
G1 X88.571 Y132.169 E31.52804
G1 X88.100 Y132.162 E31.57255
G1 X87.562 Y132.137 E31.62345
G1 X87.400 Y132.119 E31.63885
G1 X87.019 Y132.051 E31.67543
G1 X86.646 Y131.958 E31.71175
G1 X86.378 Y131.865 E31.73856
G1 X86.174 Y131.788 E31.75917
G1 X86.105 Y131.757 E31.76632
G1 X85.612 Y131.498 E31.81894
G1 X85.237 Y131.253 E31.86127
G1 X84.884 Y130.957 E31.90481
G1 X84.677 Y130.758 E31.93194
G1 X84.420 Y130.475 E31.96807
G1 X84.283 Y130.302 E31.98892
G1 X84.220 Y130.216 E31.99900
G1 X83.964 Y129.833 E32.04253
G1 X83.795 Y129.489 E32.07875
G1 X83.703 Y129.280 E32.10033
G1 X83.607 Y129.032 E32.12546
G1 X83.572 Y128.931 E32.13556
G1 X83.447 Y128.510 E32.17706
G1 X83.417 Y128.372 E32.19041
G1 X83.409 Y128.319 E32.19547
G1 X83.342 Y127.709 E32.25346
G1 X83.342 Y127.706 E32.25375
G1 X83.325 Y126.667 E32.35195
G1 X83.331 Y96.059 E35.24440
G1 X83.339 Y95.472 E35.29988
G1 X83.355 Y95.125 E35.33271
G1 X83.386 Y94.828 E35.36092
G1 X83.407 Y94.705 E35.37272
G1 X83.537 Y94.178 E35.42401
G1 X83.623 Y93.909 E35.45070
G1 X83.659 Y93.816 E35.46012
G1 X83.793 Y93.511 E35.49160
G1 X83.949 Y93.191 E35.52525
G1 X83.963 Y93.168 E35.52779
G1 X84.227 Y92.774 E35.57261
G1 X84.305 Y92.668 E35.58505
G1 X84.543 Y92.384 E35.62006
G1 X84.747 Y92.172 E35.64786
G10
G0 F7200.00000 X85.891 Y93.316
G0 X87.352 Y94.778
G0 X87.379 Y94.807
G0 X87.606 Y95.019
;TYPE:WALL-INNER
G11
G1 F1200.000 X87.687 Y94.962 E35.65722
G1 X87.787 Y94.915 E35.66767
G1 X87.898 Y94.884 E35.67856
G1 X90.625 Y94.877 E35.93626
G1 X90.625 Y124.859 E38.76956
G1 X92.640 Y126.874 E39.03885
G1 X130.360 Y126.874 E42.60339
G1 X132.375 Y124.859 E42.87268
G1 X132.375 Y94.878 E45.70588
G1 X135.075 Y94.881 E45.96103
G1 X135.214 Y94.916 E45.97458
G1 X135.317 Y94.965 E45.98536
G1 X135.395 Y95.018 E45.99427
G1 X135.499 Y95.122 E46.00817
G1 X135.564 Y95.239 E46.02082
G1 X135.605 Y95.348 E46.03182
G1 X135.625 Y95.519 E46.04809
G1 X135.615 Y127.596 E49.07937
G1 X135.582 Y127.715 E49.09104
G1 X135.532 Y127.825 E49.10246
G1 X135.487 Y127.888 E49.10977
G1 X135.394 Y127.981 E49.12220
G1 X135.313 Y128.038 E49.13156
G1 X135.213 Y128.085 E49.14200
G1 X135.102 Y128.116 E49.15289
G1 X87.904 Y128.114 E53.61311
G1 X87.786 Y128.083 E53.62464
G1 X87.683 Y128.035 E53.63537
G1 X87.605 Y127.982 E53.64429
G1 X87.504 Y127.880 E53.65785
G1 X87.433 Y127.756 E53.67135
G1 X87.397 Y127.658 E53.68122
G1 X87.375 Y127.481 E53.69807
G1 X87.385 Y95.405 E56.72926
G1 X87.421 Y95.275 E56.74200
G1 X87.463 Y95.185 E56.75139
G1 X87.516 Y95.108 E56.76022
G1 X87.606 Y95.019 E56.77218
G0 F7200.00000 X87.912 Y94.530
G1 F1200.000 X90.975 Y94.526 E57.06164
G1 X90.975 Y124.715 E59.91450
G1 X92.784 Y126.524 E60.15626
G1 X130.216 Y126.524 E63.69358
G1 X132.025 Y124.715 E63.93534
G1 X132.025 Y94.527 E66.78811
G1 X135.091 Y94.531 E67.07785
G1 X135.162 Y94.541 E67.08462
G1 X135.331 Y94.586 E67.10115
G1 X135.493 Y94.661 E67.11802
G1 X135.621 Y94.751 E67.13281
G1 X135.753 Y94.882 E67.15038
G1 X135.796 Y94.939 E67.15713
G1 X135.883 Y95.091 E67.17368
G1 X135.941 Y95.249 E67.18958
G1 X135.958 Y95.325 E67.19694
G1 X135.975 Y95.497 E67.21328
G1 X135.969 Y127.586 E70.24569
G1 X135.961 Y127.658 E70.25253
G1 X135.912 Y127.836 E70.26998
G1 X135.837 Y127.999 E70.28694
G1 X135.753 Y128.117 E70.30062
G1 X135.619 Y128.251 E70.31853
G1 X135.490 Y128.342 E70.33345
G1 X135.333 Y128.415 E70.34981
G1 X135.174 Y128.459 E70.36540
G1 X135.088 Y128.470 E70.37360
G1 X87.908 Y128.469 E74.83211
G1 X87.838 Y128.459 E74.83879
G1 X87.669 Y128.414 E74.85531
G1 X87.507 Y128.339 E74.87218
G1 X87.379 Y128.249 E74.88697
G1 X87.247 Y128.118 E74.90455
G1 X87.204 Y128.061 E74.91129
G1 X87.116 Y127.908 E74.92797
G1 X87.059 Y127.749 E74.94393
G1 X87.042 Y127.674 E74.95120
G1 X87.025 Y127.503 E74.96744
G1 X87.031 Y95.413 E77.99995
G1 X87.039 Y95.343 E78.00660
G1 X87.091 Y95.154 E78.02513
G1 X87.159 Y95.008 E78.04035
G1 X87.247 Y94.883 E78.05479
G1 X87.381 Y94.749 E78.07270
G1 X87.510 Y94.658 E78.08762
G1 X87.667 Y94.585 E78.10398
G1 X87.826 Y94.541 E78.11957
G1 X87.912 Y94.530 E78.12777
G0 F7200.00000 X88.008 Y94.176
;TYPE:WALL-OUTER
G1 F1200.000 X91.325 Y94.176 E78.44122
G1 X91.325 Y124.571 E81.31355
G1 X92.928 Y126.174 E81.52778
G1 X130.072 Y126.174 E85.03789
G1 X131.675 Y124.571 E85.25212
G1 X131.675 Y94.176 E88.12445
G1 X135.114 Y94.181 E88.44943
G1 X135.230 Y94.196 E88.46048
G1 X135.450 Y94.255 E88.48201
G1 X135.667 Y94.356 E88.50463
G1 X135.846 Y94.481 E88.52526
G1 X136.019 Y94.654 E88.54838
G1 X136.089 Y94.746 E88.55930
G1 X136.197 Y94.934 E88.57979
G1 X136.238 Y95.032 E88.58983
G1 X136.277 Y95.151 E88.60167
G1 X136.304 Y95.270 E88.61320
G1 X136.320 Y95.393 E88.62492
G1 X136.325 Y95.501 E88.63514
G1 X136.319 Y127.607 E91.66915
G1 X136.304 Y127.729 E91.68077
G1 X136.244 Y127.953 E91.70268
G1 X136.143 Y128.169 E91.72522
G1 X136.089 Y128.254 E91.73473
G1 X136.019 Y128.346 E91.74566
G1 X135.846 Y128.519 E91.76878
G1 X135.665 Y128.646 E91.78967
G1 X135.460 Y128.741 E91.81102
G1 X135.344 Y128.778 E91.82253
G1 X135.230 Y128.804 E91.83358
G1 X135.111 Y128.819 E91.84491
G1 X134.993 Y128.824 E91.85608
G1 X87.885 Y128.819 E96.30778
G1 X87.770 Y128.804 E96.31874
G1 X87.550 Y128.745 E96.34027
G1 X87.333 Y128.644 E96.36288
G1 X87.154 Y128.519 E96.38352
G1 X86.981 Y128.346 E96.40664
G1 X86.911 Y128.254 E96.41756
G1 X86.803 Y128.066 E96.43805
G1 X86.759 Y127.960 E96.44890
G1 X86.722 Y127.844 E96.46040
G1 X86.696 Y127.730 E96.47145
G1 X86.680 Y127.607 E96.48317
G1 X86.675 Y127.499 E96.49339
G1 X86.681 Y95.392 E99.52750
G1 X86.696 Y95.271 E99.53902
G1 X86.757 Y95.045 E99.56114
G1 X86.796 Y94.950 E99.57085
G1 X86.857 Y94.831 E99.58349
G1 X86.911 Y94.746 E99.59300
G1 X86.981 Y94.654 E99.60393
G1 X87.154 Y94.481 E99.62705
G1 X87.335 Y94.354 E99.64794
G1 X87.540 Y94.259 E99.66929
G1 X87.656 Y94.222 E99.68080
G1 X87.770 Y94.196 E99.69185
G1 X87.889 Y94.181 E99.70318
G1 X88.008 Y94.176 E99.71444
G0 F7200.00000 X88.008 Y94.630
G0 X88.093 Y95.023
;TYPE:SKIN
G1 F1200.000 X90.484 Y97.414 E100.03398
G0 X90.545 Y97.475
G0 F7200.000 X90.484 Y97.909
G1 F1200.000 X87.699 Y95.124 E100.40618
G0 X87.638 Y95.063
G0 F7200.000 X87.524 Y95.443
G1 F1200.000 X90.484 Y98.404 E100.80183
G0 X90.545 Y98.465
G0 F7200.000 X90.484 Y98.899
G1 F1200.000 X87.524 Y95.938 E101.19748
G0 X87.463 Y95.877
G0 F7200.000 X87.524 Y96.433
G1 F1200.000 X90.484 Y99.394 E101.59313
G0 X90.545 Y99.455
G0 F7200.000 X90.484 Y99.889
G1 F1200.000 X87.524 Y96.928 E101.98878
G0 X87.463 Y96.867
G0 F7200.000 X87.524 Y97.423
G1 F1200.000 X90.484 Y100.384 E102.38443
G0 X90.545 Y100.445
G0 F7200.000 X90.484 Y100.879
G1 F1200.000 X87.523 Y97.918 E102.78015
G0 X87.462 Y97.857
G0 F7200.000 X87.523 Y98.413
G1 F1200.000 X90.484 Y101.374 E103.17586
G0 X90.545 Y101.435
G0 F7200.000 X90.484 Y101.869
G1 F1200.000 X87.523 Y98.907 E103.57165
G0 X87.462 Y98.846
G0 F7200.000 X87.523 Y99.402
G1 F1200.000 X90.484 Y102.364 E103.96743
G0 X90.545 Y102.425
G0 F7200.000 X90.484 Y102.859
G1 F1200.000 X87.523 Y99.897 E104.36322
G0 X87.462 Y99.836
G0 F7200.000 X87.522 Y100.392
G1 F1200.000 X90.484 Y103.354 E104.75907
G0 X90.545 Y103.415
G0 F7200.000 X90.484 Y103.849
G1 F1200.000 X87.522 Y100.887 E105.15492
G0 X87.461 Y100.826
G0 F7200.000 X87.522 Y101.382
G1 F1200.000 X90.484 Y104.344 E105.55077
G0 X90.545 Y104.405
G0 F7200.000 X90.484 Y104.839
G1 F1200.000 X87.522 Y101.877 E105.94662
G0 X87.461 Y101.816
G0 F7200.000 X87.522 Y102.371
G1 F1200.000 X90.484 Y105.334 E106.34254
G0 X90.545 Y105.395
G0 F7200.000 X90.484 Y105.829
G1 F1200.000 X87.522 Y102.866 E106.73846
G0 X87.461 Y102.805
G0 F7200.000 X87.522 Y103.361
G1 F1200.000 X90.484 Y106.324 E107.13438
G0 X90.545 Y106.385
G0 F7200.000 X90.484 Y106.819
G1 F1200.000 X87.522 Y103.856 E107.53029
G0 X87.461 Y103.795
G0 F7200.000 X87.522 Y104.351
G1 F1200.000 X90.484 Y107.314 E107.92621
G0 X90.545 Y107.375
G0 F7200.000 X90.484 Y107.809
G1 F1200.000 X87.521 Y104.845 E108.32226
G0 X87.460 Y104.784
G0 F7200.000 X87.521 Y105.340
G1 F1200.000 X90.484 Y108.304 E108.71831
G0 X90.545 Y108.365
G0 F7200.000 X90.484 Y108.798
G1 F1200.000 X87.521 Y105.835 E109.11430
G0 X87.460 Y105.774
G0 F7200.000 X87.521 Y106.330
G1 F1200.000 X90.484 Y109.293 E109.51028
G0 X90.545 Y109.354
G0 F7200.000 X90.484 Y109.788
G1 F1200.000 X87.521 Y106.825 E109.90627
G0 X87.460 Y106.764
G0 F7200.000 X87.520 Y107.319
G1 F1200.000 X90.484 Y110.283 E110.30239
G0 X90.545 Y110.344
G0 F7200.000 X90.484 Y110.778
G1 F1200.000 X87.520 Y107.814 E110.69851
G0 X87.459 Y107.753
G0 F7200.000 X87.520 Y108.309
G1 F1200.000 X90.484 Y111.273 E111.09462
G0 X90.545 Y111.334
G0 F7200.000 X90.484 Y111.768
