;FLAVOR:UltiGCode
;TIME:1737
;MATERIAL:3777
;MATERIAL2:0
;NOZZLE_DIAMETER:0.4

;Generated with Cura_SteamEngine 2.1.3
;LAYER_COUNT:7
;LAYER:0
M107
G10
G0 F9000.000000 X84.758 Y68.561 Z0.270
G0 X84.752 Y68.569
;TYPE:SKIRT
G11
G1 F1800.000 X84.758 Y68.561 E0.00094
G1 X84.921 Y68.372 E0.02453
G1 X85.116 Y68.166 E0.05134
G1 X85.306 Y67.982 E0.07633
G1 X85.491 Y67.817 E0.09976
G1 X85.582 Y67.743 E0.11084
G1 X86.159 Y67.319 E0.17851
G1 X86.162 Y67.318 E0.17880
G1 X86.367 Y67.191 E0.20159
G1 X86.439 Y67.151 E0.20938
G1 X86.946 Y66.902 E0.26275
G1 X87.357 Y66.720 E0.30523
G1 X87.591 Y66.638 E0.32866
G1 X87.677 Y66.613 E0.33713
G1 X88.410 Y66.434 E0.40843
G1 X88.652 Y66.394 E0.43161
G1 X88.919 Y66.363 E0.45701
G1 X89.126 Y66.348 E0.47662
G1 X90.377 Y66.326 E0.59486
G1 X132.560 Y66.329 E4.58115
G1 X134.035 Y66.360 E4.72057
G1 X134.261 Y66.383 E4.74204
G1 X134.512 Y66.419 E4.76600
G1 X134.601 Y66.436 E4.77456
G1 X135.338 Y66.616 E4.84626
G1 X135.537 Y66.681 E4.86604
G1 X135.590 Y66.702 E4.87143
G1 X136.117 Y66.923 E4.92543
G1 X136.433 Y67.079 E4.95874
G1 X136.518 Y67.124 E4.96782
G1 X136.598 Y67.172 E4.97664
G1 X137.063 Y67.484 E5.02956
G1 X137.444 Y67.763 E5.07418
G1 X137.628 Y67.921 E5.09710
G1 X137.826 Y68.108 E5.12284
G1 X138.012 Y68.299 E5.14803
G1 X138.183 Y68.491 E5.17233
G1 X138.257 Y68.582 E5.18341
G1 X138.681 Y69.159 E5.25108
G1 X138.682 Y69.162 E5.25138
G1 X138.809 Y69.367 E5.27417
G1 X138.846 Y69.433 E5.28132
G1 X139.098 Y69.946 E5.33533
G1 X139.280 Y70.357 E5.37781
G1 X139.362 Y70.591 E5.40124
G1 X139.387 Y70.677 E5.40970
G1 X139.566 Y71.410 E5.48100
G1 X139.572 Y71.442 E5.48408
G1 X139.652 Y72.170 E5.55329
G1 X139.675 Y73.425 E5.67191
G1 X139.672 Y149.939 E12.90248
G1 X139.661 Y150.729 E12.97714
G1 X139.658 Y150.771 E12.98112
G1 X139.571 Y151.563 E13.05642
G1 X139.564 Y151.601 E13.06007
G1 X139.386 Y152.331 E13.13108
G1 X139.319 Y152.537 E13.15155
G1 X139.266 Y152.676 E13.16560
G1 X139.098 Y153.054 E13.20469
G1 X138.845 Y153.570 E13.25900
G1 X138.728 Y153.767 E13.28065
G1 X138.671 Y153.854 E13.29048
G1 X138.250 Y154.428 E13.35775
G1 X138.242 Y154.439 E13.35904
G1 X138.079 Y154.628 E13.38262
G1 X137.892 Y154.826 E13.40836
G1 X137.694 Y155.018 E13.43442
G1 X137.509 Y155.183 E13.45785
G1 X137.438 Y155.241 E13.46651
G1 X137.063 Y155.516 E13.51046
G1 X136.637 Y155.802 E13.55895
G1 X135.993 Y156.134 E13.62741
G1 X135.826 Y156.207 E13.64464
G1 X135.660 Y156.274 E13.66155
G1 X135.409 Y156.362 E13.68669
G1 X135.323 Y156.387 E13.69515
G1 X134.590 Y156.566 E13.76646
G1 X134.348 Y156.606 E13.78964
G1 X134.081 Y156.637 E13.81504
G1 X133.874 Y156.652 E13.83465
G1 X132.623 Y156.674 E13.95289
G1 X90.440 Y156.671 E17.93918
G1 X88.965 Y156.640 E18.07860
G1 X88.739 Y156.617 E18.10007
G1 X88.488 Y156.581 E18.12403
G1 X88.399 Y156.564 E18.13259
G1 X87.662 Y156.384 E18.20429
G1 X87.463 Y156.319 E18.22407
G1 X87.324 Y156.266 E18.23813
G1 X86.946 Y156.098 E18.27722
G1 X86.429 Y155.844 E18.33165
G1 X86.233 Y155.728 E18.35317
G1 X86.146 Y155.671 E18.36300
G1 X85.569 Y155.248 E18.43061
G1 X85.561 Y155.241 E18.43162
G1 X85.372 Y155.079 E18.45514
G1 X85.172 Y154.890 E18.48114
G1 X84.982 Y154.694 E18.50694
G1 X84.809 Y154.500 E18.53150
G1 X84.743 Y154.418 E18.54145
G1 X84.319 Y153.841 E18.60912
G1 X84.318 Y153.838 E18.60942
G1 X84.191 Y153.633 E18.63220
G1 X84.151 Y153.561 E18.63999
G1 X83.902 Y153.054 E18.69337
G1 X83.720 Y152.643 E18.73584
G1 X83.638 Y152.409 E18.75927
G1 X83.613 Y152.323 E18.76774
G1 X83.434 Y151.590 E18.83904
G1 X83.427 Y151.547 E18.84316
G1 X83.348 Y150.830 E18.91133
G1 X83.325 Y149.575 E19.02994
G1 X83.328 Y73.061 E26.26052
G1 X83.339 Y72.271 E26.33518
G1 X83.342 Y72.229 E26.33916
G1 X83.429 Y71.437 E26.41445
G1 X83.436 Y71.399 E26.41810
G1 X83.616 Y70.662 E26.48980
G1 X83.681 Y70.463 E26.50958
G1 X83.734 Y70.324 E26.52364
G1 X83.902 Y69.946 E26.56273
G1 X84.156 Y69.429 E26.61716
G1 X84.272 Y69.233 E26.63868
G1 X84.329 Y69.146 E26.64851
G1 X84.752 Y68.569 E26.71612
G10
G0 F9000.00000 X86.007 Y69.597
G0 X87.607 Y70.907
G0 X87.637 Y70.932
G0 X87.876 Y71.131
;TYPE:WALL-INNER
G11
G1 F1800.000 X87.997 Y70.997 E26.73318
G1 X88.131 Y70.876 E26.75025
G1 X88.272 Y70.768 E26.76703
G1 X88.449 Y70.655 E26.78687
G1 X88.594 Y70.579 E26.80235
G1 X88.772 Y70.505 E26.82056
G1 X88.956 Y70.447 E26.83879
G1 X89.134 Y70.408 E26.85601
G1 X89.303 Y70.384 E26.87214
G1 X89.540 Y70.376 E26.89455
G1 X133.460 Y70.376 E31.04499
G1 X133.697 Y70.384 E31.06740
G1 X133.866 Y70.408 E31.08353
G1 X134.044 Y70.447 E31.10075
G1 X134.227 Y70.505 E31.11889
G1 X134.397 Y70.574 E31.13623
G1 X134.563 Y70.663 E31.15403
G1 X134.718 Y70.761 E31.17136
G1 X134.871 Y70.878 E31.18956
G1 X135.003 Y70.997 E31.20636
G1 X135.124 Y71.131 E31.22342
G1 X135.232 Y71.272 E31.24020
G1 X135.345 Y71.449 E31.26005
G1 X135.421 Y71.594 E31.27552
G1 X135.499 Y71.782 E31.29475
G1 X135.547 Y71.935 E31.30991
G1 X135.590 Y72.124 E31.32822
G1 X135.618 Y72.340 E31.34881
G1 X135.625 Y72.493 E31.36328
G1 X135.625 Y150.477 E38.73277
G1 X135.618 Y150.675 E38.75149
G1 X135.591 Y150.875 E38.77056
G1 X135.553 Y151.044 E38.78693
G1 X135.492 Y151.237 E38.80606
G1 X135.426 Y151.396 E38.82233
G1 X135.344 Y151.555 E38.83923
G1 X135.237 Y151.723 E38.85806
G1 X135.124 Y151.870 E38.87558
G1 X135.009 Y151.996 E38.89170
G1 X134.870 Y152.123 E38.90949
G1 X134.702 Y152.251 E38.92945
G1 X134.578 Y152.330 E38.94334
G1 X134.391 Y152.427 E38.96325
G1 X134.233 Y152.494 E38.97947
G1 X134.044 Y152.553 E38.99818
G1 X133.866 Y152.592 E39.01540
G1 X133.697 Y152.616 E39.03153
G1 X133.460 Y152.624 E39.05394
G1 X89.540 Y152.624 E43.20438
G1 X89.303 Y152.616 E43.22679
G1 X89.134 Y152.592 E43.24292
G1 X88.956 Y152.553 E43.26014
G1 X88.772 Y152.495 E43.27837
G1 X88.598 Y152.423 E43.29617
G1 X88.447 Y152.344 E43.31227
G1 X88.271 Y152.231 E43.33204
G1 X88.128 Y152.122 E43.34903
G1 X88.003 Y152.007 E43.36508
G1 X87.871 Y151.864 E43.38347
G1 X87.763 Y151.723 E43.40025
G1 X87.656 Y151.555 E43.41908
G1 X87.574 Y151.396 E43.43598
G1 X87.508 Y151.237 E43.45225
G1 X87.447 Y151.044 E43.47138
G1 X87.409 Y150.875 E43.48775
G1 X87.382 Y150.675 E43.50682
G1 X87.375 Y150.484 E43.52488
G1 X87.375 Y72.501 E50.89427
G1 X87.382 Y72.340 E50.90950
G1 X87.410 Y72.126 E50.92990
G1 X87.453 Y71.935 E50.94840
G1 X87.501 Y71.782 E50.96355
G1 X87.579 Y71.594 E50.98279
G1 X87.655 Y71.449 E50.99826
G1 X87.768 Y71.272 E51.01810
G1 X87.876 Y71.131 E51.03489
G0 F9000.00000 X93.125 Y75.626
G1 F1800.000 X93.125 Y99.876 E53.32651
G1 X129.875 Y99.876 E56.79939
G1 X129.875 Y75.626 E59.09101
G1 X93.125 Y75.626 E62.56389
G0 F9000.00000 X91.738 Y100.537
G1 F1800.000 X91.397 Y100.523 E62.59614
G1 X91.071 Y100.570 E62.62726
G1 X90.759 Y100.667 E62.65814
G1 X90.466 Y100.816 E62.68920
G1 X90.210 Y101.004 E62.71922
G1 X90.063 Y101.142 E62.73827
G1 X89.859 Y101.397 E62.76913
G1 X89.698 Y101.685 E62.80031
G1 X89.584 Y102.020 E62.83375
G1 X89.529 Y102.347 E62.86509
G1 X89.531 Y120.690 E64.59850
G1 X89.592 Y121.027 E64.63086
G1 X89.709 Y121.338 E64.66226
G1 X89.884 Y121.641 E64.69533
G1 X90.108 Y121.903 E64.72791
G1 X90.381 Y122.128 E64.76134
G1 X90.668 Y122.294 E64.79267
G1 X91.008 Y122.414 E64.82674
G1 X91.347 Y122.470 E64.85921
G1 X91.694 Y122.469 E64.89200
G1 X92.028 Y122.408 E64.92409
G1 X92.339 Y122.291 E64.95549
G1 X92.642 Y122.116 E64.98855
G1 X92.904 Y121.892 E65.02113
G1 X93.129 Y121.619 E65.05456
G1 X93.295 Y121.332 E65.08589
G1 X93.415 Y120.992 E65.11996
G1 X93.468 Y120.674 E65.15043
G1 X93.476 Y120.516 E65.16538
G1 X93.471 Y102.313 E66.88556
G1 X93.411 Y101.990 E66.91661
G1 X93.302 Y101.677 E66.94793
G1 X93.133 Y101.385 E66.97981
G1 X92.930 Y101.132 E67.01046
G1 X92.673 Y100.907 E67.04274
G1 X92.386 Y100.730 E67.07461
G1 X92.071 Y100.607 E67.10656
G1 X91.738 Y100.537 E67.13872
G0 F9000.00000 X92.704 Y101.348
G0 X93.018 Y101.809
G0 X93.160 Y102.344
G0 X93.125 Y123.124
G1 F1800.000 X93.125 Y147.374 E69.43035
G1 X129.875 Y147.374 E72.90322
G1 X129.875 Y123.124 E75.19485
G1 X93.125 Y123.124 E78.66772
G0 F9000.00000 X129.530 Y120.690
G1 F1800.000 X129.591 Y121.027 E78.70008
G1 X129.708 Y121.338 E78.73148
G1 X129.883 Y121.641 E78.76455
G1 X130.107 Y121.903 E78.79713
G1 X130.380 Y122.128 E78.83056
G1 X130.667 Y122.294 E78.86189
G1 X131.007 Y122.414 E78.89596
G1 X131.346 Y122.470 E78.92843
G1 X131.693 Y122.469 E78.96122
G1 X132.027 Y122.408 E78.99331
G1 X132.338 Y122.291 E79.02471
G1 X132.641 Y122.116 E79.05777
G1 X132.903 Y121.892 E79.09035
G1 X133.128 Y121.619 E79.12378
G1 X133.294 Y121.332 E79.15511
G1 X133.414 Y120.992 E79.18918
G1 X133.470 Y120.655 E79.22147
G1 X133.470 Y102.313 E80.95479
G1 X133.410 Y101.990 E80.98583
G1 X133.301 Y101.677 E81.01715
G1 X133.132 Y101.385 E81.04903
G1 X132.929 Y101.132 E81.07969
G1 X132.672 Y100.907 E81.11197
G1 X132.385 Y100.730 E81.14383
G1 X132.070 Y100.607 E81.17579
G1 X131.737 Y100.537 E81.20794
G1 X131.396 Y100.523 E81.24020
G1 X131.070 Y100.570 E81.27132
G1 X130.758 Y100.667 E81.30220
G1 X130.465 Y100.816 E81.33326
G1 X130.209 Y101.004 E81.36327
G1 X130.062 Y101.142 E81.38233
G1 X129.858 Y101.397 E81.41319
G1 X129.697 Y101.685 E81.44437
G1 X129.583 Y102.020 E81.47781
G1 X129.528 Y102.347 E81.50914
G1 X129.530 Y120.690 E83.24256
G0 F9000.00000 X129.880 Y120.656
G1 F1800.000 X129.931 Y120.934 E83.26927
G1 X130.025 Y121.187 E83.29477
G1 X130.172 Y121.441 E83.32251
G1 X130.351 Y121.651 E83.34858
G1 X130.581 Y121.840 E83.37671
G1 X130.814 Y121.975 E83.40216
G1 X131.094 Y122.074 E83.43023
G1 X131.373 Y122.120 E83.45695
G1 X131.658 Y122.119 E83.48388
G1 X131.934 Y122.068 E83.51040
G1 X132.187 Y121.974 E83.53591
G1 X132.441 Y121.827 E83.56364
G1 X132.651 Y121.648 E83.58972
G1 X132.840 Y121.418 E83.61785
G1 X132.975 Y121.185 E83.64330
G1 X133.074 Y120.905 E83.67136
G1 X133.120 Y120.627 E83.69799
G1 X133.120 Y102.347 E85.42545
G1 X133.071 Y102.080 E85.45110
G1 X132.981 Y101.825 E85.47666
G1 X132.840 Y101.580 E85.50337
G1 X132.675 Y101.375 E85.52824
G1 X132.465 Y101.191 E85.55462
G1 X132.228 Y101.045 E85.58093
G1 X131.967 Y100.943 E85.60741
G1 X131.694 Y100.886 E85.63376
G1 X131.416 Y100.874 E85.66006
G1 X131.144 Y100.913 E85.68603
G1 X130.889 Y100.992 E85.71125
G1 X130.649 Y101.115 E85.73674
G1 X130.435 Y101.272 E85.76182
G1 X130.319 Y101.381 E85.77686
G1 X130.150 Y101.592 E85.80241
G1 X130.017 Y101.830 E85.82817
G1 X129.923 Y102.105 E85.85564
G1 X129.878 Y102.375 E85.88151
G1 X129.880 Y120.656 E87.60906
G0 F9000.00000 X129.781 Y120.665
G0 X129.525 Y123.474
G1 F1800.000 X93.475 Y123.474 E91.01579
G1 X93.475 Y147.024 E93.24126
G1 X129.525 Y147.024 E96.64799
G1 X129.525 Y123.474 E98.87346
G0 F9000.00000 X129.595 Y99.596
G0 X129.525 Y99.526
G1 F1800.000 X129.525 Y75.976 E101.09894
G1 X93.475 Y75.976 E104.50566
G1 X93.475 Y99.526 E106.73114
G1 X129.525 Y99.526 E110.13786
G0 F9000.00000 X129.595 Y99.596
G0 X93.220 Y102.338
G0 X93.121 Y102.347
G1 F1800.000 X93.072 Y102.080 E110.16351
G1 X92.982 Y101.825 E110.18907
G1 X92.841 Y101.580 E110.21578
G1 X92.676 Y101.375 E110.24065
G1 X92.466 Y101.191 E110.26703
G1 X92.229 Y101.045 E110.29334
G1 X91.968 Y100.943 E110.31982
G1 X91.695 Y100.886 E110.34617
G1 X91.417 Y100.874 E110.37247
G1 X91.145 Y100.913 E110.39844
G1 X90.890 Y100.992 E110.42366
G1 X90.650 Y101.115 E110.44915
G1 X90.436 Y101.272 E110.47423
G1 X90.320 Y101.381 E110.48927
G1 X90.151 Y101.592 E110.51482
G1 X90.018 Y101.830 E110.54058
G1 X89.924 Y102.105 E110.56805
G1 X89.879 Y102.375 E110.59391
G1 X89.881 Y120.656 E112.32147
G1 X89.932 Y120.934 E112.34818
G1 X90.026 Y121.187 E112.37368
G1 X90.173 Y121.441 E112.40142
G1 X90.352 Y121.651 E112.42749
G1 X90.582 Y121.840 E112.45563
G1 X90.815 Y121.975 E112.48107
G1 X91.095 Y122.074 E112.50914
G1 X91.374 Y122.120 E112.53586
G1 X91.659 Y122.119 E112.56279
G1 X91.935 Y122.068 E112.58932
G1 X92.188 Y121.974 E112.61482
G1 X92.442 Y121.827 E112.64255
G1 X92.652 Y121.648 E112.66863
G1 X92.841 Y121.418 E112.69676
G1 X92.976 Y121.185 E112.72221
G1 X93.075 Y120.905 E112.75027
G1 X93.119 Y120.640 E112.77566
G1 X93.126 Y120.510 E112.78796
G1 X93.121 Y102.347 E114.50437
G0 F9000.00000 X93.220 Y102.338
G0 X87.124 Y72.507
G0 X87.025 Y72.505
G1 F1800.000 X87.034 Y72.303 E114.52347
G1 X87.065 Y72.062 E114.54644
G1 X87.112 Y71.853 E114.56668
G1 X87.175 Y71.654 E114.58641
G1 X87.261 Y71.448 E114.60750
G1 X87.351 Y71.275 E114.62593
G1 X87.481 Y71.071 E114.64879
G1 X87.607 Y70.907 E114.66833
G1 X87.750 Y70.750 E114.68840
G1 X87.907 Y70.607 E114.70847
G1 X88.071 Y70.481 E114.72801
G1 X88.275 Y70.351 E114.75087
G1 X88.448 Y70.261 E114.76930
G1 X88.654 Y70.175 E114.79040
G1 X88.860 Y70.110 E114.81081
G1 X89.069 Y70.064 E114.83103
G1 X89.281 Y70.035 E114.85125
G1 X89.524 Y70.026 E114.87423
G1 X133.476 Y70.026 E119.02770
G1 X133.719 Y70.035 E119.05068
G1 X133.931 Y70.064 E119.07090
G1 X134.140 Y70.110 E119.09112
G1 X134.346 Y70.175 E119.11153
G1 X134.542 Y70.256 E119.13157
G1 X134.740 Y70.360 E119.15271
G1 X134.917 Y70.472 E119.17250
G1 X135.093 Y70.607 E119.19346
G1 X135.250 Y70.750 E119.21353
G1 X135.393 Y70.907 E119.23360
G1 X135.519 Y71.071 E119.25314
G1 X135.649 Y71.275 E119.27600
G1 X135.739 Y71.448 E119.29443
G1 X135.825 Y71.654 E119.31553
G1 X135.888 Y71.853 E119.33525
G1 X135.935 Y72.062 E119.35550
G1 X135.966 Y72.302 E119.37837
G1 X135.975 Y72.497 E119.39681
G1 X135.975 Y150.494 E126.76753
G1 X135.967 Y150.696 E126.78663
G1 X135.934 Y150.941 E126.81000
G1 X135.890 Y151.140 E126.82925
G1 X135.825 Y151.346 E126.84967
G1 X135.740 Y151.551 E126.87064
G1 X135.647 Y151.730 E126.88970
G1 X135.523 Y151.925 E126.91154
G1 X135.395 Y152.092 E126.93142
G1 X135.250 Y152.250 E126.95169
G1 X135.098 Y152.389 E126.97115
G1 X134.907 Y152.535 E126.99387
G1 X134.749 Y152.636 E127.01159
G1 X134.541 Y152.744 E127.03374
G1 X134.346 Y152.825 E127.05369
G1 X134.140 Y152.890 E127.07411
G1 X133.931 Y152.936 E127.09433
G1 X133.719 Y152.965 E127.11455
G1 X133.476 Y152.974 E127.13753
G1 X89.524 Y152.974 E131.29100
G1 X89.281 Y152.965 E131.31397
G1 X89.069 Y152.936 E131.33419
G1 X88.860 Y152.890 E131.35442
G1 X88.654 Y152.825 E131.37483
G1 X88.448 Y152.739 E131.39593
G1 X88.274 Y152.649 E131.41444
G1 X88.070 Y152.518 E131.43735
G1 X87.907 Y152.393 E131.45676
G1 X87.751 Y152.250 E131.47676
G1 X87.605 Y152.092 E131.49709
G1 X87.477 Y151.925 E131.51697
G1 X87.353 Y151.730 E131.53881
G1 X87.260 Y151.551 E131.55787
G1 X87.175 Y151.346 E131.57884
G1 X87.110 Y151.140 E131.59926
G1 X87.066 Y150.941 E131.61852
G1 X87.033 Y150.696 E131.64188
G1 X87.025 Y150.502 E131.66023
G1 X87.025 Y72.505 E139.03094
G0 F9000.00000 X86.675 Y72.509
;TYPE:WALL-OUTER
G1 F1800.000 X86.686 Y72.262 E139.05431
G1 X86.720 Y72.003 E139.07899
G1 X86.774 Y71.762 E139.10233
G1 X86.846 Y71.533 E139.12502
G1 X86.943 Y71.301 E139.14878
G1 X87.050 Y71.095 E139.17072
G1 X87.191 Y70.874 E139.19549
G1 X87.336 Y70.685 E139.21800
G1 X87.503 Y70.503 E139.24134
G1 X87.685 Y70.336 E139.26469
G1 X87.874 Y70.191 E139.28720
G1 X88.095 Y70.050 E139.31197
G1 X88.301 Y69.943 E139.33391
G1 X88.533 Y69.846 E139.35767
G1 X88.766 Y69.773 E139.38074
G1 X89.007 Y69.720 E139.40406
G1 X89.258 Y69.686 E139.42800
G1 X89.507 Y69.676 E139.45155
G1 X133.493 Y69.676 E143.60823
G1 X133.742 Y69.686 E143.63178
G1 X133.993 Y69.720 E143.65571
G1 X134.234 Y69.773 E143.67903
G1 X134.467 Y69.846 E143.70210
G1 X134.687 Y69.938 E143.72464
G1 X134.920 Y70.058 E143.74941
G1 X135.114 Y70.182 E143.77116
G1 X135.315 Y70.336 E143.79509
G1 X135.497 Y70.503 E143.81843
G1 X135.664 Y70.685 E143.84178
G1 X135.809 Y70.874 E143.86429
G1 X135.950 Y71.095 E143.88906
G1 X136.057 Y71.301 E143.91100
G1 X136.154 Y71.533 E143.93476
G1 X136.226 Y71.762 E143.95745
G1 X136.280 Y72.003 E143.98078
G1 X136.314 Y72.262 E144.00547
G1 X136.325 Y72.501 E144.02808
G1 X136.325 Y150.491 E151.39813
G1 X136.314 Y150.738 E151.42150
G1 X136.280 Y150.993 E151.44581
G1 X136.227 Y151.234 E151.46913
G1 X136.154 Y151.467 E151.49220
G1 X136.058 Y151.697 E151.51576
G1 X135.950 Y151.905 E151.53790
G1 X135.810 Y152.125 E151.56255
G1 X135.664 Y152.315 E151.58519
G1 X135.497 Y152.497 E151.60853
G1 X135.315 Y152.664 E151.63187
G1 X135.117 Y152.816 E151.65546
G1 X134.920 Y152.942 E151.67756
G1 X134.687 Y153.062 E151.70233
