;FLAVOR:UltiGCode
;TIME:1179
;MATERIAL:1032
;MATERIAL2:0
;NOZZLE_DIAMETER:0.4

;Generated with Cura_SteamEngine 2.1.3
;LAYER_COUNT:28
;LAYER:0
M107
G10
G0 F7200.000000 X84.840 Y95.118 Z0.270
G0 X85.019 Y94.977
;TYPE:SKIRT
G11
G1 F1200.000 X85.487 Y94.661 E0.05336
G1 X85.677 Y94.555 E0.07392
G1 X85.716 Y94.536 E0.07802
G1 X85.983 Y94.419 E0.10557
G1 X86.306 Y94.293 E0.13833
G1 X86.424 Y94.252 E0.15014
G1 X86.927 Y94.102 E0.19974
G1 X87.054 Y94.076 E0.21199
G1 X87.330 Y94.031 E0.23842
G1 X87.496 Y94.011 E0.25422
G1 X87.801 Y93.990 E0.28311
G1 X88.739 Y93.976 E0.37176
G1 X90.793 Y93.976 E0.56586
G1 X91.499 Y93.986 E0.63259
G1 X91.656 Y93.993 E0.64744
G1 X92.032 Y94.026 E0.68311
G1 X92.040 Y94.027 E0.68387
G1 X92.465 Y94.102 E0.72465
G1 X93.680 Y94.340 E0.84165
G1 X96.469 Y94.804 E1.10883
G1 X99.271 Y95.190 E1.37612
G1 X102.083 Y95.495 E1.64342
G1 X104.903 Y95.722 E1.91077
G1 X107.727 Y95.868 E2.17799
G1 X110.555 Y95.935 E2.44531
G1 X113.383 Y95.921 E2.71256
G1 X116.210 Y95.828 E2.97986
G1 X119.033 Y95.654 E3.24714
G1 X121.850 Y95.401 E3.51442
G1 X124.659 Y95.068 E3.78173
G1 X127.457 Y94.656 E4.04899
G1 X130.545 Y94.107 E4.34538
G1 X130.746 Y94.068 E4.36473
G1 X130.771 Y94.064 E4.36712
G1 X130.997 Y94.033 E4.38868
G1 X131.483 Y93.988 E4.43480
G1 X131.522 Y93.986 E4.43849
G1 X131.625 Y93.982 E4.44823
G1 X132.110 Y93.977 E4.49407
G1 X134.425 Y93.980 E4.71284
G1 X134.934 Y93.988 E4.76094
G1 X135.467 Y94.014 E4.81137
G1 X135.642 Y94.033 E4.82801
G1 X136.047 Y94.106 E4.86690
G1 X136.450 Y94.206 E4.90613
G1 X136.739 Y94.306 E4.93503
G1 X136.966 Y94.392 E4.95797
G1 X137.054 Y94.432 E4.96711
G1 X137.585 Y94.710 E5.02375
G1 X137.981 Y94.977 E5.06888
G1 X138.038 Y95.019 E5.07557
G1 X138.308 Y95.244 E5.10878
G1 X138.569 Y95.495 E5.14300
G1 X138.882 Y95.840 E5.18702
G1 X138.924 Y95.893 E5.19342
G1 X139.151 Y96.205 E5.22988
G1 X139.327 Y96.469 E5.25986
G1 X139.334 Y96.481 E5.26117
G1 X139.539 Y96.900 E5.30525
G1 X139.621 Y97.086 E5.32446
G1 X139.705 Y97.301 E5.34628
G1 X139.748 Y97.424 E5.35859
G1 X139.898 Y97.927 E5.40819
G1 X139.924 Y98.054 E5.42044
G1 X139.934 Y98.112 E5.42600
G1 X140.006 Y98.779 E5.48940
G1 X140.025 Y99.837 E5.58940
G1 X140.025 Y123.292 E7.80590
G1 X140.013 Y124.113 E7.88349
G1 X139.997 Y124.386 E7.90933
G1 X139.984 Y124.516 E7.92168
G1 X139.981 Y124.542 E7.92415
G1 X139.924 Y124.898 E7.95822
G1 X139.878 Y125.136 E7.98113
G1 X139.841 Y125.283 E7.99545
G1 X139.697 Y125.734 E8.04019
G1 X139.649 Y125.856 E8.05258
G1 X139.562 Y126.055 E8.07311
G1 X139.348 Y126.495 E8.11934
G1 X139.327 Y126.531 E8.12328
G1 X139.151 Y126.795 E8.15327
G1 X138.926 Y127.105 E8.18946
G1 X138.756 Y127.308 E8.21449
G1 X138.504 Y127.571 E8.24891
G1 X138.164 Y127.879 E8.29226
G1 X137.988 Y128.018 E8.31345
G1 X137.981 Y128.023 E8.31427
G1 X137.513 Y128.339 E8.36763
G1 X137.323 Y128.445 E8.38819
G1 X137.284 Y128.464 E8.39229
G1 X137.017 Y128.581 E8.41984
G1 X136.694 Y128.707 E8.45260
G1 X136.576 Y128.748 E8.46441
G1 X136.073 Y128.898 E8.51401
G1 X135.946 Y128.924 E8.52626
G1 X135.670 Y128.969 E8.55269
G1 X135.483 Y128.991 E8.57048
G1 X135.218 Y129.009 E8.59558
G1 X134.265 Y129.024 E8.68565
G1 X88.571 Y129.019 E13.00373
G1 X88.094 Y129.012 E13.04881
G1 X87.526 Y128.986 E13.10254
G1 X87.357 Y128.967 E13.11862
G1 X86.953 Y128.894 E13.15741
G1 X86.550 Y128.794 E13.19665
G1 X86.261 Y128.694 E13.22555
G1 X86.030 Y128.606 E13.24891
G1 X85.946 Y128.568 E13.25762
G1 X85.415 Y128.290 E13.31426
G1 X85.019 Y128.023 E13.35940
G1 X84.962 Y127.981 E13.36609
G1 X84.692 Y127.756 E13.39930
G1 X84.429 Y127.504 E13.43372
G1 X84.118 Y127.160 E13.47754
G1 X84.076 Y127.107 E13.48394
G1 X83.849 Y126.795 E13.52040
G1 X83.673 Y126.531 E13.55038
G1 X83.666 Y126.519 E13.55169
G1 X83.460 Y126.098 E13.59599
G1 X83.378 Y125.911 E13.61528
G1 X83.291 Y125.688 E13.63790
G1 X83.252 Y125.576 E13.64911
G1 X83.102 Y125.073 E13.69871
G1 X83.076 Y124.946 E13.71096
G1 X83.066 Y124.888 E13.71652
G1 X82.994 Y124.223 E13.77973
G1 X82.975 Y123.093 E13.88653
G1 X82.981 Y99.538 E16.11248
G1 X82.989 Y99.000 E16.16333
G1 X83.008 Y98.578 E16.20325
G1 X83.010 Y98.550 E16.20590
G1 X83.036 Y98.305 E16.22918
G1 X83.062 Y98.148 E16.24422
G1 X83.201 Y97.585 E16.29902
G1 X83.303 Y97.266 E16.33067
G1 X83.354 Y97.137 E16.34378
G1 X83.438 Y96.945 E16.36358
G1 X83.652 Y96.505 E16.40982
G1 X83.677 Y96.464 E16.41436
G1 X83.849 Y96.205 E16.44374
G1 X84.074 Y95.895 E16.47994
G1 X84.244 Y95.692 E16.50496
G1 X84.496 Y95.429 E16.53938
G1 X84.840 Y95.118 E16.58320
G1 X85.012 Y94.982 E16.60393
G1 X85.019 Y94.977 E16.60474
G0 F7200.00000 X85.420 Y95.115
G1 F1200.000 X85.438 Y95.102 E16.60684
G1 X85.624 Y94.986 E16.62755
G1 X85.691 Y94.948 E16.63483
G1 X86.006 Y94.795 E16.66792
G1 X86.179 Y94.719 E16.68578
G1 X86.468 Y94.607 E16.71507
G1 X86.561 Y94.574 E16.72440
G1 X86.990 Y94.447 E16.76668
G1 X87.128 Y94.417 E16.78002
G1 X87.368 Y94.379 E16.80298
G1 X87.547 Y94.358 E16.82001
G1 X87.702 Y94.347 E16.83470
G1 X87.941 Y94.337 E16.85730
G1 X88.693 Y94.326 E16.92838
G1 X90.793 Y94.326 E17.12683
G1 X91.499 Y94.336 E17.19355
G1 X91.617 Y94.341 E17.20471
G1 X91.683 Y94.346 E17.21097
G1 X91.989 Y94.374 E17.24000
G1 X93.024 Y94.561 E17.33939
G1 X93.684 Y94.690 E17.40294
G1 X96.474 Y95.155 E17.67024
G1 X99.275 Y95.541 E17.93743
G1 X102.087 Y95.847 E18.20474
G1 X104.906 Y96.074 E18.47199
G1 X107.731 Y96.221 E18.73932
G1 X110.559 Y96.287 E19.00664
G1 X113.387 Y96.274 E19.27388
G1 X116.214 Y96.181 E19.54118
G1 X119.037 Y96.008 E19.80845
G1 X121.854 Y95.755 E20.07573
G1 X124.663 Y95.423 E20.34303
G1 X127.461 Y95.012 E20.61028
G1 X130.246 Y94.521 E20.87752
G1 X130.635 Y94.443 E20.91501
G1 X130.979 Y94.381 E20.94804
G1 X131.446 Y94.340 E20.99235
G1 X131.517 Y94.336 E20.99907
G1 X131.825 Y94.327 E21.02818
G1 X131.903 Y94.327 E21.03556
G1 X134.424 Y94.330 E21.27379
G1 X134.927 Y94.338 E21.32133
G1 X135.431 Y94.362 E21.36901
G1 X135.597 Y94.381 E21.38480
G1 X135.981 Y94.449 E21.42165
G1 X136.354 Y94.542 E21.45798
G1 X136.620 Y94.634 E21.48458
G1 X136.823 Y94.711 E21.50510
G1 X136.895 Y94.743 E21.51254
G1 X137.388 Y95.002 E21.56517
G1 X137.763 Y95.247 E21.60750
G1 X138.114 Y95.541 E21.65077
G1 X138.323 Y95.742 E21.67817
G1 X138.580 Y96.025 E21.71429
G1 X138.716 Y96.197 E21.73501
G1 X138.773 Y96.274 E21.74407
G1 X139.036 Y96.667 E21.78876
G1 X139.204 Y97.009 E21.82476
G1 X139.292 Y97.208 E21.84533
G1 X139.393 Y97.468 E21.87168
G1 X139.426 Y97.561 E21.88101
G1 X139.553 Y97.990 E21.92329
G1 X139.583 Y98.128 E21.93664
G1 X139.591 Y98.179 E21.94151
G1 X139.658 Y98.789 E21.99951
G1 X139.675 Y99.828 E22.09770
G1 X139.675 Y123.288 E24.31467
G1 X139.664 Y124.091 E24.39056
G1 X139.648 Y124.370 E24.41697
G1 X139.636 Y124.484 E24.42781
G1 X139.570 Y124.895 E24.46714
G1 X139.538 Y125.057 E24.48275
G1 X139.504 Y125.194 E24.49609
G1 X139.377 Y125.591 E24.53548
G1 X139.341 Y125.684 E24.54490
G1 X139.209 Y125.984 E24.57587
G1 X139.051 Y126.309 E24.61002
G1 X139.037 Y126.332 E24.61257
G1 X138.780 Y126.716 E24.65623
G1 X138.699 Y126.827 E24.66922
G1 X138.457 Y127.116 E24.70484
G1 X138.258 Y127.323 E24.73197
G1 X137.919 Y127.631 E24.77526
G1 X137.580 Y127.885 E24.81529
G1 X137.565 Y127.896 E24.81704
G1 X137.376 Y128.014 E24.83810
G1 X137.309 Y128.052 E24.84538
G1 X136.994 Y128.205 E24.87847
G1 X136.829 Y128.278 E24.89552
G1 X136.532 Y128.393 E24.92562
G1 X136.439 Y128.426 E24.93495
G1 X136.010 Y128.553 E24.97723
G1 X135.872 Y128.583 E24.99057
G1 X135.632 Y128.621 E25.01353
G1 X135.458 Y128.642 E25.03010
G1 X135.276 Y128.655 E25.04734
G1 X135.078 Y128.663 E25.06606
G1 X134.310 Y128.674 E25.13865
G1 X88.571 Y128.669 E29.46098
G1 X88.100 Y128.662 E29.50550
G1 X87.562 Y128.637 E29.55639
G1 X87.400 Y128.619 E29.57180
G1 X87.019 Y128.551 E29.60837
G1 X86.646 Y128.458 E29.64470
G1 X86.378 Y128.365 E29.67151
G1 X86.174 Y128.288 E29.69211
G1 X86.105 Y128.257 E29.69926
G1 X85.612 Y127.998 E29.75189
G1 X85.237 Y127.753 E29.79422
G1 X84.884 Y127.457 E29.83775
G1 X84.677 Y127.258 E29.86489
G1 X84.420 Y126.975 E29.90101
G1 X84.283 Y126.802 E29.92186
G1 X84.220 Y126.716 E29.93194
G1 X83.964 Y126.333 E29.97547
G1 X83.795 Y125.989 E30.01169
G1 X83.703 Y125.780 E30.03327
G1 X83.607 Y125.532 E30.05840
G1 X83.572 Y125.431 E30.06850
G1 X83.447 Y125.010 E30.11000
G1 X83.417 Y124.872 E30.12335
G1 X83.409 Y124.819 E30.12842
G1 X83.342 Y124.209 E30.18641
G1 X83.342 Y124.206 E30.18669
G1 X83.325 Y123.136 E30.28782
G1 X83.331 Y99.556 E32.51613
G1 X83.339 Y98.981 E32.57047
G1 X83.355 Y98.625 E32.60415
G1 X83.386 Y98.328 E32.63237
G1 X83.407 Y98.205 E32.64416
G1 X83.537 Y97.678 E32.69545
G1 X83.623 Y97.409 E32.72214
G1 X83.663 Y97.308 E32.73241
G1 X83.793 Y97.011 E32.76304
G1 X83.949 Y96.691 E32.79669
G1 X83.963 Y96.668 E32.79923
G1 X84.227 Y96.274 E32.84405
G1 X84.305 Y96.168 E32.85649
G1 X84.543 Y95.884 E32.89150
G1 X84.747 Y95.672 E32.91930
G1 X85.081 Y95.369 E32.96192
G1 X85.420 Y95.115 E33.00195
G10
G0 F7200.00000 X86.339 Y96.454
G0 X87.510 Y98.158
G0 X87.530 Y98.192
G0 X87.606 Y98.519
;TYPE:WALL-INNER
G11
G1 F1200.000 X87.687 Y98.462 E33.01131
G1 X87.787 Y98.415 E33.02175
G1 X87.898 Y98.384 E33.03264
G1 X90.625 Y98.377 E33.29034
G1 X90.625 Y121.359 E35.46214
G1 X92.640 Y123.374 E35.73143
G1 X130.360 Y123.374 E39.29597
G1 X132.375 Y121.359 E39.56527
G1 X132.375 Y98.378 E41.73697
G1 X135.075 Y98.381 E41.99212
G1 X135.214 Y98.416 E42.00567
G1 X135.317 Y98.465 E42.01644
G1 X135.395 Y98.518 E42.02536
G1 X135.499 Y98.622 E42.03926
G1 X135.564 Y98.739 E42.05190
G1 X135.605 Y98.848 E42.06291
G1 X135.625 Y99.019 E42.07918
G1 X135.625 Y123.960 E44.43610
G1 X135.612 Y124.104 E44.44977
G1 X135.581 Y124.218 E44.46093
G1 X135.534 Y124.322 E44.47172
G1 X135.486 Y124.389 E44.47950
G1 X135.394 Y124.481 E44.49180
G1 X135.313 Y124.538 E44.50116
G1 X135.213 Y124.585 E44.51160
G1 X135.102 Y124.616 E44.52249
G1 X87.904 Y124.614 E48.98270
G1 X87.786 Y124.583 E48.99423
G1 X87.683 Y124.535 E49.00497
G1 X87.605 Y124.482 E49.01388
G1 X87.504 Y124.380 E49.02745
G1 X87.433 Y124.256 E49.04095
G1 X87.397 Y124.158 E49.05082
G1 X87.375 Y123.981 E49.06767
G1 X87.385 Y98.905 E51.43735
G1 X87.421 Y98.775 E51.45010
G1 X87.463 Y98.685 E51.45949
G1 X87.516 Y98.608 E51.46832
G1 X87.606 Y98.519 E51.48028
G0 F7200.00000 X87.912 Y98.030
G1 F1200.000 X90.975 Y98.026 E51.76973
G1 X90.975 Y121.215 E53.96110
G1 X92.784 Y123.024 E54.20286
G1 X130.216 Y123.024 E57.74018
G1 X132.025 Y121.215 E57.98194
G1 X132.025 Y98.027 E60.17321
G1 X135.091 Y98.031 E60.46294
G1 X135.162 Y98.041 E60.46972
G1 X135.331 Y98.086 E60.48625
G1 X135.493 Y98.161 E60.50312
G1 X135.621 Y98.251 E60.51790
G1 X135.753 Y98.382 E60.53548
G1 X135.796 Y98.439 E60.54222
G1 X135.883 Y98.591 E60.55878
G1 X135.941 Y98.749 E60.57468
G1 X135.958 Y98.825 E60.58204
G1 X135.975 Y98.997 E60.59837
G1 X135.975 Y123.982 E62.95946
G1 X135.958 Y124.167 E62.97701
G1 X135.913 Y124.335 E62.99345
G1 X135.837 Y124.499 E63.01053
G1 X135.753 Y124.617 E63.02422
G1 X135.619 Y124.751 E63.04212
G1 X135.490 Y124.842 E63.05704
G1 X135.333 Y124.915 E63.07340
G1 X135.174 Y124.959 E63.08900
G1 X135.088 Y124.970 E63.09719
G1 X87.908 Y124.969 E67.55570
G1 X87.838 Y124.959 E67.56238
G1 X87.669 Y124.914 E67.57891
G1 X87.507 Y124.839 E67.59578
G1 X87.379 Y124.749 E67.61056
G1 X87.247 Y124.618 E67.62814
G1 X87.204 Y124.561 E67.63489
G1 X87.116 Y124.408 E67.65157
G1 X87.059 Y124.249 E67.66753
G1 X87.042 Y124.174 E67.67479
G1 X87.025 Y124.003 E67.69103
G1 X87.031 Y98.913 E70.06204
G1 X87.039 Y98.843 E70.06870
G1 X87.091 Y98.654 E70.08722
G1 X87.159 Y98.508 E70.10244
G1 X87.247 Y98.383 E70.11689
G1 X87.381 Y98.249 E70.13480
G1 X87.510 Y98.158 E70.14971
G1 X87.667 Y98.085 E70.16608
G1 X87.826 Y98.041 E70.18167
G1 X87.912 Y98.030 E70.18986
G0 F7200.00000 X88.008 Y97.676
;TYPE:WALL-OUTER
G1 F1200.000 X91.325 Y97.676 E70.50332
G1 X91.325 Y121.071 E72.71414
G1 X92.928 Y122.674 E72.92837
G1 X130.072 Y122.674 E76.43848
G1 X131.675 Y121.071 E76.65271
G1 X131.675 Y97.676 E78.86354
G1 X135.114 Y97.681 E79.18852
G1 X135.230 Y97.696 E79.19958
G1 X135.450 Y97.755 E79.22110
G1 X135.667 Y97.856 E79.24372
G1 X135.846 Y97.981 E79.26435
G1 X136.019 Y98.154 E79.28747
G1 X136.089 Y98.246 E79.29840
G1 X136.197 Y98.434 E79.31889
G1 X136.238 Y98.532 E79.32893
G1 X136.277 Y98.651 E79.34076
G1 X136.304 Y98.770 E79.35229
G1 X136.320 Y98.893 E79.36401
G1 X136.325 Y99.001 E79.37423
G1 X136.325 Y123.999 E81.73654
G1 X136.304 Y124.228 E81.75827
G1 X136.244 Y124.453 E81.78028
G1 X136.143 Y124.669 E81.80281
G1 X136.089 Y124.754 E81.81233
G1 X136.019 Y124.846 E81.82325
G1 X135.846 Y125.019 E81.84637
G1 X135.665 Y125.146 E81.86727
G1 X135.460 Y125.241 E81.88862
G1 X135.344 Y125.278 E81.90012
G1 X135.230 Y125.304 E81.91117
G1 X135.111 Y125.319 E81.92251
G1 X134.993 Y125.324 E81.93367
G1 X87.885 Y125.319 E86.38537
G1 X87.770 Y125.304 E86.39633
G1 X87.550 Y125.245 E86.41786
G1 X87.333 Y125.144 E86.44048
G1 X87.154 Y125.019 E86.46111
G1 X86.981 Y124.846 E86.48423
G1 X86.911 Y124.754 E86.49515
G1 X86.803 Y124.566 E86.51564
G1 X86.759 Y124.460 E86.52649
G1 X86.722 Y124.344 E86.53800
G1 X86.696 Y124.230 E86.54904
G1 X86.680 Y124.107 E86.56077
G1 X86.675 Y123.999 E86.57098
G1 X86.681 Y98.892 E88.94359
G1 X86.696 Y98.771 E88.95512
G1 X86.757 Y98.545 E88.97724
G1 X86.796 Y98.450 E88.98694
G1 X86.857 Y98.331 E88.99958
G1 X86.911 Y98.246 E89.00910
G1 X86.981 Y98.154 E89.02002
G1 X87.154 Y97.981 E89.04314
G1 X87.335 Y97.854 E89.06404
G1 X87.540 Y97.759 E89.08539
G1 X87.656 Y97.722 E89.09689
G1 X87.770 Y97.696 E89.10794
G1 X87.889 Y97.681 E89.11928
G1 X88.008 Y97.676 E89.13053
G0 F7200.00000 X88.008 Y98.130
G0 X88.128 Y98.523
;TYPE:SKIN
G1 F1200.000 X90.484 Y100.879 E89.44540
G0 X90.545 Y100.940
G0 F7200.000 X90.484 Y101.374
G1 F1200.000 X87.720 Y98.609 E89.81485
G0 X87.659 Y98.548
G0 F7200.000 X87.527 Y98.912
G1 F1200.000 X90.484 Y101.869 E90.21004
G0 X90.545 Y101.930
G0 F7200.000 X90.484 Y102.364
G1 F1200.000 X87.524 Y99.403 E90.60569
G0 X87.463 Y99.342
G0 F7200.000 X87.524 Y99.898
G1 F1200.000 X90.484 Y102.859 E91.00134
G0 X90.545 Y102.920
G0 F7200.000 X90.484 Y103.354
G1 F1200.000 X87.524 Y100.393 E91.39699
G0 X87.463 Y100.332
G0 F7200.000 X87.523 Y100.887
G1 F1200.000 X90.484 Y103.849 E91.79277
G0 X90.545 Y103.910
G0 F7200.000 X90.484 Y104.344
G1 F1200.000 X87.523 Y101.382 E92.18856
G0 X87.462 Y101.321
G0 F7200.000 X87.523 Y101.877
G1 F1200.000 X90.484 Y104.839 E92.58434
G0 X90.545 Y104.900
G0 F7200.000 X90.484 Y105.334
G1 F1200.000 X87.523 Y102.372 E92.98012
G0 X87.462 Y102.311
G0 F7200.000 X87.522 Y102.867
G1 F1200.000 X90.484 Y105.829 E93.37598
G0 X90.545 Y105.890
G0 F7200.000 X90.484 Y106.324
G1 F1200.000 X87.522 Y103.362 E93.77183
G0 X87.461 Y103.301
G0 F7200.000 X87.522 Y103.857
G1 F1200.000 X90.484 Y106.819 E94.16768
G0 X90.545 Y106.880
G0 F7200.000 X90.484 Y107.314
G1 F1200.000 X87.522 Y104.351 E94.56360
G0 X87.461 Y104.290
G0 F7200.000 X87.522 Y104.846
G1 F1200.000 X90.484 Y107.809 E94.95951
G0 X90.545 Y107.870
G0 F7200.000 X90.484 Y108.304
G1 F1200.000 X87.522 Y105.341 E95.35543
G0 X87.461 Y105.280
G0 F7200.000 X87.522 Y105.836
G1 F1200.000 X90.484 Y108.798 E95.75128
G0 X90.545 Y108.859
G0 F7200.000 X90.484 Y109.293
G1 F1200.000 X87.521 Y106.330 E96.14727
G0 X87.460 Y106.269
G0 F7200.000 X87.521 Y106.825
G1 F1200.000 X90.484 Y109.788 E96.54325
G0 X90.545 Y109.849
G0 F7200.000 X90.484 Y110.283
G1 F1200.000 X87.521 Y107.320 E96.93924
G0 X87.460 Y107.259
G0 F7200.000 X87.521 Y107.815
G1 F1200.000 X90.484 Y110.778 E97.33522
G0 X90.545 Y110.839
G0 F7200.000 X90.484 Y111.273
G1 F1200.000 X87.520 Y108.309 E97.73134
G0 X87.459 Y108.248
G0 F7200.000 X87.520 Y108.804
G1 F1200.000 X90.484 Y111.768 E98.12746
G0 X90.545 Y111.829
G0 F7200.000 X90.484 Y112.263
G1 F1200.000 X87.520 Y109.299 E98.52358
G0 X87.459 Y109.238
G0 F7200.000 X87.520 Y109.793
G1 F1200.000 X90.484 Y112.758 E98.91976
G0 X90.545 Y112.819
G0 F7200.000 X90.484 Y113.253
G1 F1200.000 X87.520 Y110.288 E99.31595
G0 X87.459 Y110.227
G0 F7200.000 X87.520 Y110.783
G1 F1200.000 X90.484 Y113.748 E99.71213
G0 X90.545 Y113.809
G0 F7200.000 X90.484 Y114.243
G1 F1200.000 X87.520 Y111.278 E100.10832
G0 X87.459 Y111.217
G0 F7200.000 X87.519 Y111.773
