;FLAVOR:UltiGCode
;TIME:529
;MATERIAL:447
;MATERIAL2:0
;NOZZLE_DIAMETER:0.4

;Generated with Cura_SteamEngine 2.1.3
;LAYER_COUNT:23
;LAYER:0
M107
G10
G0 F7200.000000 X103.932 Y106.403 Z0.270
G0 X103.786 Y106.553
;TYPE:SKIRT
G11
G1 F1200.000 X103.932 Y106.403 E0.01978
G1 X104.198 Y106.154 E0.05421
G1 X104.209 Y106.145 E0.05556
G1 X104.307 Y106.067 E0.06739
G1 X104.511 Y105.921 E0.09110
G1 X104.669 Y105.815 E0.10908
G1 X104.681 Y105.807 E0.11044
G1 X104.829 Y105.720 E0.12666
G1 X105.154 Y105.546 E0.16150
G1 X105.182 Y105.533 E0.16442
G1 X105.305 Y105.480 E0.17708
G1 X105.443 Y105.429 E0.19098
G1 X105.782 Y105.313 E0.22484
G1 X105.893 Y105.283 E0.23570
G1 X106.237 Y105.205 E0.26904
G1 X106.672 Y105.161 E0.31035
G1 X106.811 Y105.152 E0.32352
G1 X108.019 Y105.127 E0.43770
G1 X115.327 Y105.126 E1.12830
G1 X116.036 Y105.136 E1.19531
G1 X116.141 Y105.144 E1.20526
G1 X116.394 Y105.168 E1.22928
G1 X116.822 Y105.221 E1.27003
G1 X117.535 Y105.414 E1.33984
G1 X117.538 Y105.415 E1.34014
G1 X117.644 Y105.458 E1.35095
G1 X117.912 Y105.581 E1.37881
G1 X118.018 Y105.633 E1.38997
G1 X118.030 Y105.640 E1.39128
G1 X118.205 Y105.739 E1.41028
G1 X118.517 Y105.935 E1.44510
G1 X118.527 Y105.942 E1.44625
G1 X118.628 Y106.018 E1.45820
G1 X118.867 Y106.215 E1.48747
G1 X118.919 Y106.260 E1.49397
G1 X118.947 Y106.286 E1.49758
G1 X119.097 Y106.432 E1.51736
G1 X119.341 Y106.693 E1.55112
G1 X119.351 Y106.703 E1.55246
G1 X119.433 Y106.807 E1.56497
G1 X119.579 Y107.011 E1.58868
G1 X119.680 Y107.161 E1.60577
G1 X119.686 Y107.170 E1.60679
G1 X119.780 Y107.329 E1.62425
G1 X119.954 Y107.654 E1.65908
G1 X119.956 Y107.657 E1.65942
G1 X120.020 Y107.805 E1.67466
G1 X120.071 Y107.943 E1.68857
G1 X120.184 Y108.274 E1.72162
G1 X120.217 Y108.393 E1.73329
G1 X120.301 Y108.763 E1.76914
G1 X120.305 Y108.784 E1.77116
G1 X120.355 Y109.240 E1.81451
G1 X120.373 Y109.772 E1.86482
G1 X120.374 Y109.871 E1.87417
G1 X120.375 Y112.789 E2.14992
G1 X120.369 Y113.217 E2.19037
G1 X120.364 Y115.515 E2.40753
G1 X120.374 Y116.594 E2.50950
G1 X120.375 Y119.389 E2.77363
G1 X120.370 Y119.743 E2.80709
G1 X120.364 Y121.933 E3.01404
G1 X120.374 Y123.152 E3.12924
G1 X120.375 Y125.989 E3.39734
G1 X120.370 Y126.343 E3.43080
G1 X120.364 Y128.533 E3.63775
G1 X120.374 Y129.752 E3.75295
G1 X120.375 Y132.630 E4.02492
G1 X120.366 Y133.273 E4.08569
G1 X120.366 Y133.274 E4.08579
G1 X120.341 Y133.635 E4.11998
G1 X120.310 Y133.945 E4.14942
G1 X120.291 Y134.064 E4.16081
G1 X120.276 Y134.141 E4.16822
G1 X120.241 Y134.306 E4.18416
G1 X120.164 Y134.598 E4.21270
G1 X119.950 Y135.140 E4.26777
G1 X119.911 Y135.230 E4.27704
G1 X119.899 Y135.257 E4.27983
G1 X119.860 Y135.331 E4.28773
G1 X119.759 Y135.508 E4.30699
G1 X119.565 Y135.817 E4.34147
G1 X119.559 Y135.826 E4.34249
G1 X119.482 Y135.928 E4.35457
G1 X119.285 Y136.167 E4.38384
G1 X119.240 Y136.219 E4.39034
G1 X119.214 Y136.247 E4.39395
G1 X119.068 Y136.397 E4.41373
G1 X118.804 Y136.644 E4.44789
G1 X118.800 Y136.648 E4.44843
G1 X118.793 Y136.653 E4.44924
G1 X118.693 Y136.733 E4.46134
G1 X118.489 Y136.879 E4.48505
G1 X118.331 Y136.985 E4.50303
G1 X118.320 Y136.992 E4.50426
G1 X118.171 Y137.080 E4.52061
G1 X117.846 Y137.254 E4.55545
G1 X117.828 Y137.262 E4.55731
G1 X117.699 Y137.318 E4.57060
G1 X117.557 Y137.371 E4.58493
G1 X117.218 Y137.487 E4.61879
G1 X117.107 Y137.517 E4.62965
G1 X116.763 Y137.595 E4.66298
G1 X116.328 Y137.639 E4.70430
G1 X116.189 Y137.648 E4.71746
G1 X114.981 Y137.673 E4.83165
G1 X107.673 Y137.674 E5.52225
G1 X106.964 Y137.664 E5.58926
G1 X106.859 Y137.656 E5.59921
G1 X106.606 Y137.632 E5.62323
G1 X106.178 Y137.579 E5.66398
G1 X105.465 Y137.386 E5.73378
G1 X105.462 Y137.385 E5.73408
G1 X105.356 Y137.342 E5.74489
G1 X105.078 Y137.214 E5.77381
G1 X104.982 Y137.167 E5.78392
G1 X104.965 Y137.158 E5.78573
G1 X104.792 Y137.059 E5.80457
G1 X104.483 Y136.865 E5.83905
G1 X104.468 Y136.855 E5.84075
G1 X104.372 Y136.782 E5.85215
G1 X104.129 Y136.582 E5.88189
G1 X104.081 Y136.540 E5.88792
G1 X104.053 Y136.514 E5.89153
G1 X103.903 Y136.368 E5.91131
G1 X103.654 Y136.102 E5.94574
G1 X103.652 Y136.100 E5.94601
G1 X103.647 Y136.093 E5.94682
G1 X103.567 Y135.993 E5.95892
G1 X103.421 Y135.789 E5.98263
G1 X103.314 Y135.630 E6.00074
G1 X103.307 Y135.619 E6.00197
G1 X103.218 Y135.468 E6.01854
G1 X103.044 Y135.143 E6.05337
G1 X103.038 Y135.128 E6.05490
G1 X102.980 Y134.995 E6.06861
G1 X102.929 Y134.857 E6.08251
G1 X102.813 Y134.518 E6.11637
G1 X102.783 Y134.407 E6.12724
G1 X102.699 Y134.037 E6.16309
G1 X102.695 Y134.016 E6.16511
G1 X102.645 Y133.556 E6.20884
G1 X102.629 Y133.083 E6.25356
G1 X102.626 Y132.764 E6.28371
G1 X102.626 Y129.969 E6.54784
G1 X102.631 Y129.603 E6.58243
G1 X102.636 Y127.322 E6.79798
G1 X102.626 Y126.228 E6.90137
G1 X102.626 Y123.369 E7.17155
G1 X102.631 Y123.003 E7.20614
G1 X102.636 Y120.722 E7.42169
G1 X102.626 Y119.628 E7.52508
G1 X102.626 Y116.769 E7.79525
G1 X102.631 Y116.403 E7.82984
G1 X102.636 Y114.122 E8.04540
G1 X102.626 Y113.028 E8.14879
G1 X102.626 Y110.148 E8.42095
G1 X102.636 Y109.470 E8.48503
G1 X102.646 Y109.322 E8.49904
G1 X102.665 Y109.134 E8.51690
G1 X102.721 Y108.678 E8.56032
G1 X102.914 Y107.965 E8.63012
G1 X102.915 Y107.962 E8.63042
G1 X102.958 Y107.856 E8.64123
G1 X103.085 Y107.580 E8.66994
G1 X103.140 Y107.469 E8.68164
G1 X103.142 Y107.465 E8.68207
G1 X103.241 Y107.292 E8.70090
G1 X103.435 Y106.983 E8.73538
G1 X103.445 Y106.968 E8.73709
G1 X103.522 Y106.867 E8.74909
G1 X103.718 Y106.629 E8.77822
G1 X103.769 Y106.571 E8.78552
G1 X103.786 Y106.553 E8.78786
G0 F7200.00000 X104.063 Y106.769
G1 F1200.000 X104.173 Y106.657 E8.80270
G1 X104.445 Y106.403 E8.83787
G1 X104.539 Y106.330 E8.84911
G1 X104.756 Y106.175 E8.87431
G1 X104.804 Y106.143 E8.87976
G1 X104.872 Y106.100 E8.88737
G1 X104.991 Y106.030 E8.90041
G1 X105.336 Y105.847 E8.93732
G1 X105.449 Y105.799 E8.94892
G1 X105.686 Y105.711 E8.97281
G1 X105.787 Y105.677 E8.98288
G1 X105.851 Y105.658 E8.98919
G1 X105.991 Y105.620 E9.00290
G1 X106.300 Y105.550 E9.03284
G1 X106.465 Y105.528 E9.04857
G1 X106.573 Y105.517 E9.05883
G1 X106.793 Y105.503 E9.07966
G1 X108.049 Y105.477 E9.19838
G1 X115.327 Y105.476 E9.88615
G1 X116.036 Y105.486 E9.95316
G1 X116.181 Y105.496 E9.96689
G1 X116.334 Y105.511 E9.98142
G1 X116.789 Y105.567 E10.02474
G1 X116.830 Y105.574 E10.02867
G1 X116.939 Y105.599 E10.03924
G1 X117.051 Y105.629 E10.05020
G1 X117.412 Y105.743 E10.08597
G1 X117.465 Y105.763 E10.09133
G1 X117.533 Y105.791 E10.09828
G1 X117.804 Y105.917 E10.12652
G1 X117.870 Y105.952 E10.13358
G1 X118.027 Y106.041 E10.15063
G1 X118.335 Y106.235 E10.18503
G1 X118.426 Y106.304 E10.19582
G1 X118.669 Y106.505 E10.22562
G1 X118.713 Y106.546 E10.23131
G1 X118.843 Y106.673 E10.24848
G1 X119.097 Y106.945 E10.28365
G1 X119.170 Y107.039 E10.29490
G1 X119.322 Y107.252 E10.31963
G1 X119.349 Y107.292 E10.32419
G1 X119.393 Y107.361 E10.33192
G1 X119.470 Y107.491 E10.34620
G1 X119.653 Y107.836 E10.38310
G1 X119.700 Y107.945 E10.39432
G1 X119.789 Y108.186 E10.41860
G1 X119.821 Y108.283 E10.42825
G1 X119.839 Y108.342 E10.43408
G1 X119.871 Y108.473 E10.44682
G1 X119.894 Y108.576 E10.45680
G1 X119.993 Y109.100 E10.50719
G1 X119.994 Y109.103 E10.50749
G1 X120.007 Y109.276 E10.52388
G1 X120.022 Y109.727 E10.56653
G1 X120.024 Y109.946 E10.58722
G1 X120.025 Y112.808 E10.85768
G1 X120.020 Y113.154 E10.89038
G1 X120.014 Y115.470 E11.10925
G1 X120.024 Y116.569 E11.21311
G1 X120.025 Y119.380 E11.47875
G1 X120.019 Y119.806 E11.51901
G1 X120.014 Y122.107 E11.73645
G1 X120.024 Y123.190 E11.83880
G1 X120.025 Y125.980 E12.10245
G1 X120.019 Y126.406 E12.14272
G1 X120.014 Y128.707 E12.36016
G1 X120.024 Y129.790 E12.46251
G1 X120.025 Y132.632 E12.73108
G1 X120.016 Y133.271 E12.79147
G1 X119.992 Y133.606 E12.82321
G1 X119.963 Y133.899 E12.85103
G1 X119.950 Y133.981 E12.85888
G1 X119.931 Y134.084 E12.86877
G1 X119.901 Y134.221 E12.88203
G1 X119.822 Y134.515 E12.91080
G1 X119.618 Y135.026 E12.96279
G1 X119.613 Y135.039 E12.96411
G1 X119.573 Y135.123 E12.97290
G1 X119.557 Y135.154 E12.97620
G1 X119.461 Y135.324 E12.99465
G1 X119.264 Y135.637 E13.02960
G1 X119.196 Y135.726 E13.04018
G1 X118.995 Y135.969 E13.06998
G1 X118.954 Y136.013 E13.07566
G1 X118.827 Y136.143 E13.09284
G1 X118.559 Y136.393 E13.12747
G1 X118.461 Y136.470 E13.13925
G1 X118.246 Y136.624 E13.16424
G1 X118.196 Y136.657 E13.16990
G1 X118.128 Y136.700 E13.17751
G1 X118.009 Y136.770 E13.19055
G1 X117.664 Y136.953 E13.22746
G1 X117.551 Y137.001 E13.23906
G1 X117.314 Y137.089 E13.26295
G1 X117.213 Y137.123 E13.27302
G1 X117.149 Y137.142 E13.27933
G1 X117.009 Y137.180 E13.29304
G1 X116.700 Y137.250 E13.32298
G1 X116.535 Y137.272 E13.33871
G1 X116.427 Y137.283 E13.34897
G1 X116.207 Y137.297 E13.36980
G1 X114.951 Y137.323 E13.48852
G1 X107.673 Y137.324 E14.17629
G1 X106.964 Y137.314 E14.24330
G1 X106.819 Y137.304 E14.25703
G1 X106.666 Y137.289 E14.27156
G1 X106.211 Y137.233 E14.31488
G1 X106.170 Y137.226 E14.31881
G1 X106.061 Y137.201 E14.32938
G1 X105.949 Y137.171 E14.34034
G1 X105.588 Y137.057 E14.37611
G1 X105.535 Y137.037 E14.38147
G1 X105.467 Y137.009 E14.38842
G1 X105.196 Y136.883 E14.41666
G1 X105.124 Y136.845 E14.42435
G1 X104.973 Y136.759 E14.44077
G1 X104.663 Y136.564 E14.47538
G1 X104.574 Y136.496 E14.48597
G1 X104.331 Y136.295 E14.51577
G1 X104.287 Y136.254 E14.52145
G1 X104.157 Y136.127 E14.53862
G1 X103.903 Y135.855 E14.57379
G1 X103.830 Y135.761 E14.58504
G1 X103.676 Y135.546 E14.61003
G1 X103.639 Y135.490 E14.61638
G1 X103.591 Y135.413 E14.62495
G1 X103.525 Y135.301 E14.63723
G1 X103.347 Y134.964 E14.67325
G1 X103.299 Y134.851 E14.68485
G1 X103.211 Y134.614 E14.70874
G1 X103.173 Y134.499 E14.72019
G1 X103.158 Y134.449 E14.72512
G1 X103.129 Y134.327 E14.73697
G1 X103.106 Y134.224 E14.74695
G1 X103.006 Y133.697 E14.79764
G1 X103.005 Y133.684 E14.79887
G1 X102.993 Y133.534 E14.81309
G1 X102.978 Y133.049 E14.85894
G1 X102.976 Y132.842 E14.87850
G1 X102.976 Y129.952 E15.15161
G1 X102.980 Y129.667 E15.17854
G1 X102.986 Y127.365 E15.39608
G1 X102.976 Y126.251 E15.50136
G1 X102.976 Y123.352 E15.77532
G1 X102.980 Y123.067 E15.80225
G1 X102.986 Y120.765 E16.01979
G1 X102.976 Y119.651 E16.12507
G1 X102.976 Y116.752 E16.39902
G1 X102.980 Y116.467 E16.42596
G1 X102.986 Y114.165 E16.64350
G1 X102.976 Y113.051 E16.74878
G1 X102.976 Y110.168 E17.02122
G1 X102.986 Y109.470 E17.08719
G1 X102.996 Y109.321 E17.10130
G1 X103.012 Y109.155 E17.11706
G1 X103.067 Y108.708 E17.15962
G1 X103.074 Y108.670 E17.16327
G1 X103.101 Y108.554 E17.17453
G1 X103.129 Y108.449 E17.18480
G1 X103.244 Y108.085 E17.22087
G1 X103.249 Y108.071 E17.22227
G1 X103.267 Y108.025 E17.22694
G1 X103.291 Y107.967 E17.23287
G1 X103.417 Y107.695 E17.26120
G1 X103.454 Y107.625 E17.26868
G1 X103.541 Y107.473 E17.28523
G1 X103.736 Y107.163 E17.31984
G1 X103.810 Y107.066 E17.33137
G1 X104.005 Y106.831 E17.36023
G1 X104.063 Y106.769 E17.36825
G0 F7200.00000 X104.307 Y107.021
G1 F1200.000 X104.418 Y106.907 E17.38329
G1 X104.689 Y106.656 E17.41820
G1 X104.695 Y106.651 E17.41893
G1 X104.756 Y106.604 E17.42621
G1 X104.973 Y106.451 E17.45130
G1 X105.063 Y106.394 E17.46137
G1 X105.180 Y106.325 E17.47421
G1 X105.495 Y106.159 E17.50785
G1 X105.609 Y106.111 E17.51954
G1 X105.812 Y106.037 E17.53996
G1 X105.881 Y106.014 E17.54683
G1 X105.945 Y105.995 E17.55314
G1 X106.287 Y105.921 E17.58621
G1 X106.647 Y105.855 E17.62080
G1 X106.687 Y105.852 E17.62459
G1 X107.954 Y105.827 E17.74434
G1 X115.327 Y105.826 E18.44109
G1 X116.036 Y105.836 E18.50810
G1 X116.172 Y105.846 E18.52098
G1 X116.307 Y105.859 E18.53380
G1 X116.706 Y105.907 E18.57178
G1 X116.759 Y105.917 E18.57688
G1 X116.864 Y105.941 E18.58705
G1 X116.903 Y105.952 E18.59088
G1 X117.004 Y105.981 E18.60081
G1 X117.203 Y106.045 E18.62057
G1 X117.687 Y106.251 E18.67028
G1 X117.710 Y106.263 E18.67273
G1 X117.846 Y106.340 E18.68750
G1 X118.153 Y106.536 E18.72192
G1 X118.223 Y106.589 E18.73021
G1 X118.441 Y106.772 E18.75711
G1 X118.479 Y106.807 E18.76199
G1 X118.593 Y106.918 E18.77703
G1 X118.834 Y107.179 E18.81060
G1 X118.849 Y107.195 E18.81267
G1 X118.896 Y107.256 E18.81995
G1 X119.049 Y107.473 E18.84504
G1 X119.099 Y107.552 E18.85388
G1 X119.175 Y107.680 E18.86794
G1 X119.341 Y107.995 E18.90159
G1 X119.389 Y108.109 E18.91328
G1 X119.459 Y108.300 E18.93250
G1 X119.477 Y108.353 E18.93779
G1 X119.506 Y108.448 E18.94718
G1 X119.532 Y108.554 E18.95749
G1 X119.564 Y108.700 E18.97162
G1 X119.641 Y109.110 E19.01104
G1 X119.645 Y109.134 E19.01334
G1 X119.656 Y109.281 E19.02727
G1 X119.672 Y109.746 E19.07124
G1 X119.674 Y109.905 E19.08627
G1 X119.675 Y112.770 E19.35701
G1 X119.669 Y113.179 E19.39566
G1 X119.664 Y115.621 E19.62643
G1 X119.674 Y116.613 E19.72018
G1 X119.675 Y119.414 E19.98488
G1 X119.670 Y119.773 E20.01880
G1 X119.664 Y121.953 E20.22482
G1 X119.674 Y123.162 E20.33907
G1 X119.675 Y126.014 E20.60858
G1 X119.670 Y126.373 E20.64251
G1 X119.664 Y128.553 E20.84852
G1 X119.674 Y129.762 E20.96278
G1 X119.675 Y132.596 E21.23059
G1 X119.666 Y133.260 E21.29334
G1 X119.640 Y133.630 E21.32840
G1 X119.621 Y133.821 E21.34653
G1 X119.605 Y133.921 E21.35610
G1 X119.586 Y134.024 E21.36600
G1 X119.560 Y134.143 E21.37751
G1 X119.485 Y134.419 E21.40454
G1 X119.285 Y134.916 E21.45517
G1 X119.268 Y134.951 E21.45884
G1 X119.238 Y135.009 E21.46502
G1 X119.160 Y135.146 E21.47991
G1 X118.964 Y135.453 E21.51433
G1 X118.911 Y135.523 E21.52263
G1 X118.728 Y135.741 E21.54953
G1 X118.693 Y135.779 E21.55441
G1 X118.586 Y135.889 E21.56891
G1 X118.311 Y136.144 E21.60435
G1 X118.305 Y136.149 E21.60509
G1 X118.244 Y136.196 E21.61237
G1 X118.027 Y136.349 E21.63746
G1 X117.937 Y136.406 E21.64753
G1 X117.822 Y136.474 E21.66015
G1 X117.505 Y136.641 E21.69401
G1 X117.391 Y136.689 E21.70570
G1 X117.188 Y136.763 E21.72612
G1 X117.125 Y136.784 E21.73239
G1 X117.055 Y136.805 E21.73930
G1 X116.713 Y136.879 E21.77237
G1 X116.353 Y136.945 E21.80695
G1 X116.313 Y136.948 E21.81074
G1 X115.046 Y136.973 E21.93050
G1 X107.673 Y136.974 E22.62725
G1 X106.964 Y136.964 E22.69425
G1 X106.828 Y136.954 E22.70714
G1 X106.693 Y136.941 E22.71996
G1 X106.294 Y136.893 E22.75793
G1 X106.241 Y136.883 E22.76303
G1 X106.136 Y136.859 E22.77321
G1 X106.097 Y136.848 E22.77704
G1 X105.996 Y136.819 E22.78697
G1 X105.797 Y136.755 E22.80672
G1 X105.313 Y136.549 E22.85643
G1 X105.279 Y136.531 E22.86007
G1 X105.154 Y136.460 E22.87365
G1 X104.847 Y136.264 E22.90807
G1 X104.777 Y136.211 E22.91637
G1 X104.559 Y136.028 E22.94327
G1 X104.519 Y135.991 E22.94842
G1 X104.407 Y135.882 E22.96318
G1 X104.156 Y135.611 E22.99809
G1 X104.151 Y135.604 E22.99890
G1 X104.104 Y135.544 E23.00611
G1 X103.951 Y135.327 E23.03120
G1 X103.892 Y135.234 E23.04161
G1 X103.825 Y135.120 E23.05410
G1 X103.659 Y134.805 E23.08775
G1 X103.609 Y134.686 E23.09995
G1 X103.535 Y134.483 E23.12037
G1 X103.513 Y134.415 E23.12712
G1 X103.494 Y134.352 E23.13334
G1 X103.468 Y134.245 E23.14374
G1 X103.436 Y134.100 E23.15778
G1 X103.358 Y133.684 E23.19777
G1 X103.355 Y133.666 E23.19950
G1 X103.343 Y133.508 E23.21447
G1 X103.328 Y133.063 E23.25655
G1 X103.326 Y132.828 E23.27876
G1 X103.326 Y129.991 E23.54685
G1 X103.331 Y129.641 E23.57993
G1 X103.336 Y127.216 E23.80909
G1 X103.326 Y126.211 E23.90407
G1 X103.326 Y123.391 E24.17056
G1 X103.331 Y123.041 E24.20364
G1 X103.336 Y120.616 E24.43280
G1 X103.326 Y119.611 E24.52778
G1 X103.326 Y116.791 E24.79427
G1 X103.331 Y116.441 E24.82735
G1 X103.336 Y114.016 E25.05651
G1 X103.326 Y113.011 E25.15149
G1 X103.326 Y110.168 E25.42015
G1 X103.336 Y109.470 E25.48612
G1 X103.351 Y109.263 E25.50573
G1 X103.355 Y109.222 E25.50963
G1 X103.409 Y108.783 E25.55142
G1 X103.417 Y108.741 E25.55546
G1 X103.441 Y108.636 E25.56564
G1 X103.452 Y108.597 E25.56947
G1 X103.486 Y108.481 E25.58089
G1 X103.545 Y108.297 E25.59915
G1 X103.752 Y107.811 E25.64907
G1 X103.770 Y107.777 E25.65271
G1 X103.840 Y107.654 E25.66608
G1 X104.036 Y107.347 E25.70050
G1 X104.097 Y107.267 E25.71001
G1 X104.272 Y107.059 E25.73570
G1 X104.307 Y107.021 E25.74058
G10
G0 F7200.00000 X104.992 Y113.900
G0 X105.282 Y115.025
G0 X107.026 Y129.330
G0 X107.054 Y129.358
G0 X110.136 Y129.678
;TYPE:WALL-INNER
G11
G1 F1200.000 X115.624 Y129.675 E26.25920
G1 X115.625 Y132.919 E26.56575
