;FLAVOR:UltiGCode
;TIME:1591
;MATERIAL:1043
;MATERIAL2:0
;NOZZLE_DIAMETER:0.4

;Generated with Cura_SteamEngine 2.1.3
;LAYER_COUNT:23
;LAYER:0
M107
G10
G0 F7200.000000 X106.083 Y102.967 Z0.270
G0 X105.938 Y103.154
;TYPE:SKIRT
G11
G1 F1200.000 X106.083 Y102.967 E0.02236
G1 X106.337 Y102.708 E0.05664
G1 X106.473 Y102.577 E0.07449
G1 X106.753 Y102.364 E0.10773
G1 X106.925 Y102.240 E0.12777
G1 X107.207 Y102.083 E0.15827
G1 X107.392 Y101.987 E0.17797
G1 X107.399 Y101.983 E0.17873
G1 X107.751 Y101.849 E0.21432
G1 X107.921 Y101.790 E0.23133
G1 X108.278 Y101.710 E0.26590
G1 X108.486 Y101.670 E0.28592
G1 X108.602 Y101.658 E0.29694
G1 X108.675 Y101.652 E0.30386
G1 X108.719 Y101.650 E0.30802
G1 X109.968 Y101.625 E0.42608
G1 X113.316 Y101.625 E0.74246
G1 X113.530 Y101.628 E0.76269
G1 X115.599 Y101.622 E0.95821
G1 X115.599 Y101.625 E0.95849
G1 X119.925 Y101.625 E1.36730
G1 X120.141 Y101.628 E1.38771
G1 X122.200 Y101.622 E1.58229
G1 X122.200 Y101.625 E1.58257
G1 X126.525 Y101.625 E1.99128
G1 X126.740 Y101.628 E2.01160
G1 X128.800 Y101.622 E2.20627
G1 X128.800 Y101.625 E2.20656
G1 X133.093 Y101.625 E2.61225
G1 X133.799 Y101.635 E2.67897
G1 X133.976 Y101.643 E2.69571
G1 X134.342 Y101.674 E2.73042
G1 X134.675 Y101.742 E2.76254
G1 X134.876 Y101.789 E2.78205
G1 X135.213 Y101.909 E2.81585
G1 X135.408 Y101.986 E2.83567
G1 X135.422 Y101.992 E2.83711
G1 X135.664 Y102.121 E2.86302
G1 X135.874 Y102.240 E2.88583
G1 X135.884 Y102.246 E2.88693
G1 X136.166 Y102.452 E2.91994
G1 X136.324 Y102.575 E2.93886
G1 X136.611 Y102.857 E2.97688
G1 X136.717 Y102.967 E2.99132
G1 X136.724 Y102.975 E2.99232
G1 X136.746 Y103.001 E2.99554
G1 X136.895 Y103.196 E3.01873
G1 X137.056 Y103.420 E3.04480
G1 X137.060 Y103.425 E3.04540
G1 X137.220 Y103.712 E3.07646
G1 X137.308 Y103.880 E3.09438
G1 X137.317 Y103.898 E3.09628
G1 X137.451 Y104.250 E3.13187
G1 X137.510 Y104.420 E3.14888
G1 X137.585 Y104.754 E3.18123
G1 X137.630 Y104.984 E3.20337
G1 X137.642 Y105.101 E3.21449
G1 X137.648 Y105.174 E3.22141
G1 X137.650 Y105.214 E3.22519
G1 X137.675 Y106.467 E3.34363
G1 X137.675 Y116.966 E4.33578
G1 X137.644 Y119.692 E4.59341
G1 X137.644 Y130.565 E5.62090
G1 X137.634 Y131.271 E5.68763
G1 X137.626 Y131.448 E5.70437
G1 X137.595 Y131.814 E5.73908
G1 X137.528 Y132.145 E5.77100
G1 X137.480 Y132.348 E5.79071
G1 X137.360 Y132.684 E5.82442
G1 X137.283 Y132.880 E5.84432
G1 X137.278 Y132.891 E5.84547
G1 X137.148 Y133.136 E5.87168
G1 X137.040 Y133.327 E5.89241
G1 X137.023 Y133.356 E5.89559
G1 X136.817 Y133.638 E5.92859
G1 X136.694 Y133.796 E5.94751
G1 X136.412 Y134.083 E5.98554
G1 X136.304 Y134.187 E5.99970
G1 X136.294 Y134.196 E6.00098
G1 X136.268 Y134.218 E6.00419
G1 X136.073 Y134.367 E6.02739
G1 X135.855 Y134.524 E6.05277
G1 X135.844 Y134.532 E6.05406
G1 X135.557 Y134.692 E6.08511
G1 X135.378 Y134.785 E6.10417
G1 X135.371 Y134.789 E6.10493
G1 X135.019 Y134.923 E6.14053
G1 X134.849 Y134.982 E6.15753
G1 X134.492 Y135.062 E6.19210
G1 X134.284 Y135.102 E6.21212
G1 X134.168 Y135.114 E6.22314
G1 X134.095 Y135.120 E6.23006
G1 X134.051 Y135.122 E6.23423
G1 X132.802 Y135.147 E6.35228
G1 X129.444 Y135.147 E6.66961
G1 X129.229 Y135.144 E6.68993
G1 X127.169 Y135.150 E6.88460
G1 X127.169 Y135.147 E6.88488
G1 X122.844 Y135.147 E7.29360
G1 X122.629 Y135.144 E7.31392
G1 X120.569 Y135.150 E7.50859
G1 X120.569 Y135.147 E7.50887
G1 X116.244 Y135.147 E7.91758
G1 X116.029 Y135.144 E7.93790
G1 X113.969 Y135.150 E8.13257
G1 X113.969 Y135.147 E8.13286
G1 X109.677 Y135.147 E8.53845
G1 X108.971 Y135.137 E8.60517
G1 X108.794 Y135.129 E8.62192
G1 X108.428 Y135.098 E8.65663
G1 X108.095 Y135.030 E8.68875
G1 X107.894 Y134.983 E8.70825
G1 X107.553 Y134.861 E8.74248
G1 X107.362 Y134.786 E8.76187
G1 X107.348 Y134.780 E8.76331
G1 X107.097 Y134.646 E8.79020
G1 X106.896 Y134.532 E8.81203
G1 X106.886 Y134.526 E8.81314
G1 X106.604 Y134.320 E8.84614
G1 X106.446 Y134.197 E8.86506
G1 X106.159 Y133.915 E8.90308
G1 X106.042 Y133.793 E8.91906
G1 X106.024 Y133.771 E8.92174
G1 X105.875 Y133.576 E8.94493
G1 X105.714 Y133.352 E8.97100
G1 X105.710 Y133.346 E8.97168
G1 X105.549 Y133.059 E9.00278
G1 X105.457 Y132.881 E9.02172
G1 X105.453 Y132.874 E9.02248
G1 X105.319 Y132.522 E9.05807
G1 X105.260 Y132.352 E9.07508
G1 X105.180 Y131.995 E9.10965
G1 X105.140 Y131.787 E9.12967
G1 X105.128 Y131.671 E9.14069
G1 X105.121 Y131.585 E9.14884
G1 X105.119 Y131.534 E9.15366
G1 X105.095 Y130.305 E9.26983
G1 X105.095 Y119.803 E10.26226
G1 X105.125 Y117.158 E10.51223
G1 X105.126 Y106.188 E11.54890
G1 X105.136 Y105.492 E11.61468
G1 X105.143 Y105.332 E11.62981
G1 X105.175 Y104.958 E11.66528
G1 X105.244 Y104.618 E11.69807
G1 X105.289 Y104.426 E11.71670
G1 X105.414 Y104.078 E11.75165
G1 X105.485 Y103.896 E11.77011
G1 X105.643 Y103.600 E11.80182
G1 X105.750 Y103.410 E11.82242
G1 X105.938 Y103.154 E11.85244
G0 F7200.00000 X106.067 Y103.570
G1 F1200.000 X106.397 Y103.144 E11.90336
G1 X106.781 Y102.780 E11.95336
G1 X107.207 Y102.482 E12.00249
G1 X107.695 Y102.241 E12.05392
G1 X108.163 Y102.091 E12.10037
G1 X108.176 Y102.088 E12.10163
G1 X108.898 Y101.994 E12.17043
G1 X108.990 Y101.986 E12.17916
G1 X109.168 Y101.979 E12.19599
G1 X109.544 Y101.975 E12.23153
G1 X113.322 Y101.975 E12.58855
G1 X115.851 Y101.979 E12.82754
G1 X116.204 Y101.975 E12.86090
G1 X119.924 Y101.975 E13.21244
G1 X122.449 Y101.979 E13.45105
G1 X122.802 Y101.975 E13.48441
G1 X126.525 Y101.975 E13.83623
G1 X129.052 Y101.979 E14.07504
G1 X129.405 Y101.975 E14.10840
G1 X133.093 Y101.975 E14.45691
G1 X133.799 Y101.985 E14.52364
G1 X133.956 Y101.992 E14.53849
G1 X134.264 Y102.019 E14.56771
G1 X134.782 Y102.128 E14.61773
G1 X134.785 Y102.129 E14.61803
G1 X135.263 Y102.308 E14.66626
G1 X135.743 Y102.575 E14.71817
G1 X136.143 Y102.885 E14.76599
G1 X136.149 Y102.890 E14.76673
G1 X136.521 Y103.280 E14.81766
G1 X136.818 Y103.706 E14.86674
G1 X137.059 Y104.194 E14.91817
G1 X137.207 Y104.656 E14.96401
G1 X137.212 Y104.675 E14.96587
G1 X137.306 Y105.397 E15.03467
G1 X137.314 Y105.489 E15.04340
G1 X137.321 Y105.667 E15.06024
G1 X137.325 Y106.043 E15.09577
G1 X137.325 Y116.966 E16.12799
G1 X137.294 Y119.692 E16.38562
G1 X137.294 Y130.565 E17.41312
G1 X137.284 Y131.271 E17.47984
G1 X137.277 Y131.428 E17.49469
G1 X137.250 Y131.736 E17.52391
G1 X137.141 Y132.254 E17.57393
G1 X137.140 Y132.257 E17.57423
G1 X136.961 Y132.735 E17.62246
G1 X136.694 Y133.215 E17.67437
G1 X136.384 Y133.615 E17.72219
G1 X136.381 Y133.619 E17.72266
G1 X135.989 Y133.993 E17.77386
G1 X135.563 Y134.290 E17.82294
G1 X135.075 Y134.531 E17.87437
G1 X134.607 Y134.681 E17.92081
G1 X134.594 Y134.684 E17.92208
G1 X133.872 Y134.778 E17.99088
G1 X133.780 Y134.786 E17.99961
G1 X133.602 Y134.793 E18.01644
G1 X133.226 Y134.797 E18.05197
G1 X129.444 Y134.797 E18.40937
G1 X126.917 Y134.793 E18.64818
G1 X126.564 Y134.797 E18.68154
G1 X122.844 Y134.797 E19.03308
G1 X120.317 Y134.793 E19.27188
G1 X119.964 Y134.797 E19.30524
G1 X116.244 Y134.797 E19.65678
G1 X113.717 Y134.793 E19.89558
G1 X113.364 Y134.797 E19.92894
G1 X109.677 Y134.797 E20.27736
G1 X108.971 Y134.787 E20.34409
G1 X108.814 Y134.780 E20.35894
G1 X108.506 Y134.753 E20.38816
G1 X107.988 Y134.644 E20.43818
G1 X107.985 Y134.643 E20.43848
G1 X107.507 Y134.464 E20.48671
G1 X107.027 Y134.197 E20.53862
G1 X106.627 Y133.887 E20.58644
G1 X106.621 Y133.882 E20.58718
G1 X106.249 Y133.492 E20.63811
G1 X105.952 Y133.066 E20.68718
G1 X105.711 Y132.578 E20.73862
G1 X105.561 Y132.110 E20.78506
G1 X105.558 Y132.097 E20.78632
G1 X105.464 Y131.375 E20.85513
G1 X105.455 Y131.272 E20.86490
G1 X105.449 Y131.105 E20.88069
G1 X105.445 Y130.729 E20.91622
G1 X105.445 Y119.803 E21.94873
G1 X105.475 Y117.158 E22.19870
G1 X105.476 Y106.203 E23.23395
G1 X105.486 Y105.492 E23.30114
G1 X105.492 Y105.352 E23.31438
G1 X105.520 Y105.035 E23.34446
G1 X105.626 Y104.534 E23.39285
G1 X105.629 Y104.519 E23.39429
G1 X105.815 Y104.022 E23.44444
G1 X106.067 Y103.570 E23.49335
G0 F7200.00000 X107.165 Y102.922
G1 F1200.000 X107.164 Y102.922 E23.49344
G1 X107.296 Y102.837 E23.50828
G1 X107.596 Y102.664 E23.54100
G1 X107.751 Y102.597 E23.55696
G1 X108.057 Y102.479 E23.58795
G1 X108.063 Y102.477 E23.58855
G1 X108.099 Y102.467 E23.59208
G1 X108.205 Y102.439 E23.60244
G1 X108.506 Y102.377 E23.63148
G1 X108.913 Y102.340 E23.67010
G1 X109.000 Y102.335 E23.67834
G1 X109.357 Y102.325 E23.71209
G1 X113.747 Y102.325 E24.12694
G1 X115.323 Y102.330 E24.27588
G1 X115.975 Y102.325 E24.33749
G1 X120.349 Y102.325 E24.75084
G1 X121.922 Y102.330 E24.89948
G1 X122.575 Y102.325 E24.96120
G1 X126.950 Y102.325 E25.37463
G1 X128.524 Y102.330 E25.52338
G1 X129.176 Y102.325 E25.58499
G1 X133.093 Y102.325 E25.95515
G1 X133.799 Y102.335 E26.02187
G1 X133.917 Y102.340 E26.03303
G1 X133.983 Y102.345 E26.03929
G1 X134.289 Y102.373 E26.06833
G1 X134.320 Y102.379 E26.07131
G1 X134.453 Y102.407 E26.08415
G1 X134.767 Y102.488 E26.11480
G1 X134.794 Y102.495 E26.11743
G1 X134.928 Y102.547 E26.13102
G1 X135.251 Y102.687 E26.16428
G1 X135.259 Y102.691 E26.16513
G1 X135.384 Y102.763 E26.17876
G1 X135.671 Y102.947 E26.21098
G1 X135.677 Y102.951 E26.21166
G1 X135.792 Y103.045 E26.22570
G1 X136.056 Y103.281 E26.25916
G1 X136.167 Y103.405 E26.27489
G1 X136.367 Y103.651 E26.30485
G1 X136.381 Y103.669 E26.30700
G1 X136.464 Y103.799 E26.32158
G1 X136.634 Y104.092 E26.35359
G1 X136.640 Y104.103 E26.35477
G1 X136.700 Y104.239 E26.36882
G1 X136.822 Y104.557 E26.40101
G1 X136.829 Y104.584 E26.40364
G1 X136.857 Y104.690 E26.41400
G1 X136.923 Y105.008 E26.44469
G1 X136.961 Y105.428 E26.48455
G1 X136.964 Y105.492 E26.49060
G1 X136.975 Y105.850 E26.52445
G1 X136.975 Y116.966 E27.57491
G1 X136.944 Y119.692 E27.83253
G1 X136.944 Y130.565 E28.86003
G1 X136.934 Y131.271 E28.92676
G1 X136.930 Y131.373 E28.93640
G1 X136.926 Y131.439 E28.94265
G1 X136.896 Y131.761 E28.97321
G1 X136.890 Y131.792 E28.97620
G1 X136.862 Y131.925 E28.98904
G1 X136.781 Y132.239 E29.01968
G1 X136.774 Y132.266 E29.02232
G1 X136.722 Y132.400 E29.03590
G1 X136.582 Y132.723 E29.06917
G1 X136.506 Y132.856 E29.08365
G1 X136.321 Y133.144 E29.11599
G1 X136.320 Y133.146 E29.11620
G1 X136.224 Y133.264 E29.13058
G1 X135.988 Y133.528 E29.16404
G1 X135.863 Y133.640 E29.17990
G1 X135.609 Y133.846 E29.21081
G1 X135.608 Y133.847 E29.21094
G1 X135.592 Y133.858 E29.21278
G1 X135.470 Y133.936 E29.22646
G1 X135.175 Y134.107 E29.25868
G1 X135.161 Y134.114 E29.26016
G1 X135.030 Y134.172 E29.27370
G1 X134.712 Y134.294 E29.30589
G1 X134.685 Y134.301 E29.30852
G1 X134.579 Y134.329 E29.31888
G1 X134.261 Y134.395 E29.34958
G1 X133.841 Y134.433 E29.38943
G1 X133.771 Y134.437 E29.39605
G1 X133.410 Y134.447 E29.43018
G1 X129.019 Y134.447 E29.84513
G1 X127.445 Y134.442 E29.99387
G1 X126.793 Y134.447 E30.05549
G1 X122.419 Y134.447 E30.46883
G1 X120.845 Y134.442 E30.61758
G1 X120.193 Y134.447 E30.67919
G1 X115.819 Y134.447 E31.09254
G1 X114.245 Y134.442 E31.24128
G1 X113.593 Y134.447 E31.30289
G1 X109.677 Y134.447 E31.67296
G1 X108.971 Y134.437 E31.73968
G1 X108.853 Y134.432 E31.75084
G1 X108.787 Y134.427 E31.75710
G1 X108.481 Y134.399 E31.78613
G1 X108.450 Y134.393 E31.78912
G1 X108.317 Y134.365 E31.80196
G1 X108.003 Y134.284 E31.83261
G1 X107.976 Y134.277 E31.83524
G1 X107.842 Y134.225 E31.84883
G1 X107.519 Y134.085 E31.88209
G1 X107.511 Y134.081 E31.88294
G1 X107.385 Y134.008 E31.89670
G1 X107.097 Y133.823 E31.92905
G1 X107.092 Y133.820 E31.92960
G1 X106.978 Y133.727 E31.94350
G1 X106.714 Y133.491 E31.97696
G1 X106.602 Y133.366 E31.99282
G1 X106.396 Y133.112 E32.02373
G1 X106.393 Y133.108 E32.02420
G1 X106.384 Y133.095 E32.02570
G1 X106.306 Y132.973 E32.03938
G1 X106.135 Y132.678 E32.07160
G1 X106.128 Y132.664 E32.07308
G1 X106.070 Y132.533 E32.08662
G1 X105.948 Y132.215 E32.11881
G1 X105.941 Y132.188 E32.12144
G1 X105.913 Y132.082 E32.13180
G1 X105.847 Y131.764 E32.16249
G1 X105.809 Y131.344 E32.20235
G1 X105.805 Y131.272 E32.20916
G1 X105.795 Y130.906 E32.24376
G1 X105.795 Y119.803 E33.29299
G1 X105.825 Y117.158 E33.54296
G1 X105.826 Y106.203 E34.57821
G1 X105.836 Y105.492 E34.64541
G1 X105.841 Y105.369 E34.65704
G1 X105.844 Y105.334 E34.66036
G1 X105.874 Y105.011 E34.69101
G1 X105.885 Y104.953 E34.69659
G1 X105.904 Y104.865 E34.70510
G1 X105.997 Y104.504 E34.74033
G1 X106.050 Y104.365 E34.75439
G1 X106.192 Y104.042 E34.78773
G1 X106.196 Y104.036 E34.78841
G1 X106.270 Y103.908 E34.80238
G1 X106.450 Y103.626 E34.83400
G1 X106.458 Y103.616 E34.83521
G1 X106.467 Y103.604 E34.83663
G1 X106.540 Y103.514 E34.84758
G1 X106.782 Y103.244 E34.88184
G1 X106.912 Y103.128 E34.89831
G1 X107.162 Y102.923 E34.92886
G1 X107.165 Y102.922 E34.92916
G10
G0 F7200.00000 X108.545 Y103.974
G0 X129.294 Y119.797
G0 X129.322 Y119.825
G0 X129.644 Y120.147
;TYPE:WALL-INNER
G11
G1 F1200.000 X132.894 Y120.147 E35.23628
G1 X132.894 Y127.135 E35.89665
G1 X132.715 Y127.218 E35.91529
G1 X132.487 Y127.027 E35.94340
G1 X132.172 Y126.845 E35.97778
G1 X131.829 Y126.721 E36.01225
G1 X131.647 Y126.681 E36.02985
G1 X131.456 Y126.657 E36.04805
G1 X131.242 Y126.645 E36.06830
G1 X130.907 Y126.674 E36.10008
G1 X130.534 Y126.776 E36.13662
G1 X130.228 Y126.918 E36.16850
G1 X130.033 Y127.041 E36.19029
G1 X129.822 Y127.216 E36.21619
G1 X129.644 Y127.132 E36.23479
G1 X129.644 Y120.147 E36.89487
G0 F7200.00000 X129.294 Y119.797
G1 F1200.000 X133.244 Y119.797 E37.26815
G1 X133.244 Y128.262 E38.06809
G1 X132.974 Y128.297 E38.09382
G1 X132.938 Y128.162 E38.10702
G1 X132.813 Y127.895 E38.13488
G1 X132.720 Y127.747 E38.15140
G1 X132.526 Y127.516 E38.17991
G1 X132.285 Y127.314 E38.20962
G1 X132.023 Y127.163 E38.23820
G1 X131.735 Y127.059 E38.26714
G1 X131.582 Y127.025 E38.28195
G1 X131.424 Y127.005 E38.29700
G1 X131.253 Y126.996 E38.31318
G1 X130.964 Y127.021 E38.34059
G1 X130.658 Y127.104 E38.37055
G1 X130.394 Y127.227 E38.39808
G1 X130.242 Y127.323 E38.41507
G1 X130.022 Y127.506 E38.44211
G1 X129.901 Y127.639 E38.45910
G1 X129.729 Y127.885 E38.48747
G1 X129.604 Y128.151 E38.51524
G1 X129.558 Y128.300 E38.52998
G1 X129.294 Y128.260 E38.55521
G1 X129.294 Y119.797 E39.35496
G10
G0 F7200.00000 X129.394 Y119.867
G0 X129.537 Y128.267
G0 X129.558 Y128.300
G0 X129.563 Y129.250
G0 X129.507 Y129.417
G0 X129.600 Y129.383
G11
G1 F1200.000 X129.729 Y129.659 E39.38375
G1 X129.905 Y129.912 E39.41288
G1 X130.129 Y130.136 E39.44281
G1 X130.382 Y130.312 E39.47194
G1 X130.648 Y130.437 E39.49971
G1 X130.798 Y130.484 E39.51457
G1 X130.758 Y130.747 E39.53971
G1 X129.294 Y130.747 E39.67805
G1 X129.294 Y129.286 E39.81612
G1 X129.563 Y129.250 E39.84176
G1 X129.600 Y129.383 E39.85481
G10
G0 F7200.00000 X129.507 Y129.417
G0 X129.322 Y130.719
G0 X130.765 Y130.505
G0 X130.798 Y130.484
G0 X131.746 Y130.478
G0 X131.779 Y130.500
G0 X131.913 Y130.534
G0 X131.879 Y130.441
G11
G1 F1200.000 X132.156 Y130.312 E39.88369
G1 X132.402 Y130.140 E39.91205
G1 X132.525 Y130.028 E39.92777
G1 X132.632 Y129.910 E39.94283
G1 X132.728 Y129.787 E39.95757
G1 X132.872 Y129.534 E39.98508
G1 X132.942 Y129.371 E40.00184
G1 X132.980 Y129.246 E40.01419
G1 X133.244 Y129.286 E40.03942
G1 X133.244 Y130.747 E40.17749
G1 X131.782 Y130.747 E40.31565
G1 X131.746 Y130.478 E40.34129
G1 X131.879 Y130.441 E40.35434
G0 F7200.00000 X131.756 Y130.112
;TYPE:WALL-OUTER
G1 F1200.000 X131.982 Y130.007 E40.37789
G1 X132.182 Y129.867 E40.40096
G1 X132.277 Y129.780 E40.41313
G1 X132.360 Y129.689 E40.42477
G1 X132.439 Y129.587 E40.43696
G1 X132.559 Y129.378 E40.45974
G1 X132.609 Y129.260 E40.47185
G1 X132.645 Y129.141 E40.48360
G1 X132.673 Y129.019 E40.49543
G1 X132.688 Y128.896 E40.50714
G1 X132.694 Y128.768 E40.51925
G1 X132.673 Y128.525 E40.54229
G1 X132.609 Y128.285 E40.56577
G1 X132.505 Y128.063 E40.58893
G1 X132.435 Y127.952 E40.60134
G1 X132.277 Y127.764 E40.62454
G1 X132.087 Y127.604 E40.64802
G1 X131.871 Y127.480 E40.67155
G1 X131.641 Y127.397 E40.69466
G1 X131.517 Y127.369 E40.70667
G1 X131.393 Y127.353 E40.71849
G1 X131.265 Y127.347 E40.73060
G1 X131.021 Y127.368 E40.75374
G1 X130.781 Y127.433 E40.77724
G1 X130.560 Y127.536 E40.80028
G1 X130.449 Y127.606 E40.81268
G1 X130.264 Y127.761 E40.83549
G1 X130.174 Y127.859 E40.84806
G1 X130.034 Y128.059 E40.87113
G1 X129.930 Y128.282 E40.89438
G1 X129.893 Y128.404 E40.90643
G1 X129.866 Y128.524 E40.91805
