;FLAVOR:UltiGCode
;TIME:300
;MATERIAL:475
;MATERIAL2:0
;NOZZLE_DIAMETER:0.4

;Generated with Cura_SteamEngine 2.1.3
;LAYER_COUNT:9
;LAYER:0
M107
G10
G0 F9000.000000 X105.196 Y105.268 Z0.270
;TYPE:SKIRT
G11
G1 F1800.000 X105.450 Y105.022 E0.03342
G1 X105.755 Y104.750 E0.07203
G1 X105.905 Y104.628 E0.09031
G1 X106.654 Y104.078 E0.17812
G1 X106.679 Y104.061 E0.18098
G1 X107.004 Y103.860 E0.21709
G1 X107.337 Y103.674 E0.25313
G1 X107.690 Y103.496 E0.29049
G1 X108.040 Y103.339 E0.32674
G1 X108.414 Y103.191 E0.36475
G1 X108.772 Y103.066 E0.40059
G1 X108.932 Y103.018 E0.41637
G1 X109.887 Y102.784 E0.50929
G1 X110.107 Y102.748 E0.53036
G1 X110.708 Y102.683 E0.58748
G1 X111.399 Y102.637 E0.65293
G1 X111.433 Y102.636 E0.65614
G1 X111.892 Y102.642 E0.69952
G1 X113.736 Y102.738 E0.87401
G1 X116.564 Y102.806 E1.14134
G1 X119.392 Y102.794 E1.40858
G1 X122.219 Y102.702 E1.67588
G1 X123.233 Y102.644 E1.77186
G1 X123.519 Y102.635 E1.79890
G1 X123.725 Y102.638 E1.81837
G1 X124.392 Y102.683 E1.88154
G1 X125.024 Y102.751 E1.94161
G1 X125.070 Y102.758 E1.94601
G1 X125.243 Y102.791 E1.96265
G1 X126.199 Y103.026 E2.05568
G1 X126.558 Y103.144 E2.09139
G1 X126.940 Y103.289 E2.13001
G1 X127.292 Y103.441 E2.16624
G1 X127.613 Y103.596 E2.19992
G1 X127.985 Y103.796 E2.23984
G1 X128.305 Y103.987 E2.27505
G1 X128.471 Y104.097 E2.29387
G1 X129.212 Y104.641 E2.38074
G1 X129.256 Y104.675 E2.38600
G1 X129.521 Y104.903 E2.41903
G1 X129.832 Y105.196 E2.45941
G1 X130.078 Y105.450 E2.49282
G1 X130.350 Y105.755 E2.53144
G1 X130.479 Y105.914 E2.55079
G1 X131.006 Y106.632 E2.63496
G1 X131.034 Y106.673 E2.63965
G1 X131.241 Y107.006 E2.67670
G1 X131.429 Y107.342 E2.71309
G1 X131.598 Y107.677 E2.74855
G1 X131.762 Y108.044 E2.78653
G1 X131.909 Y108.414 E2.82416
G1 X132.034 Y108.772 E2.85999
G1 X132.082 Y108.932 E2.87578
G1 X132.316 Y109.887 E2.96869
G1 X132.352 Y110.107 E2.98976
G1 X132.417 Y110.708 E3.04688
G1 X132.463 Y111.399 E3.11233
G1 X132.464 Y111.433 E3.11554
G1 X132.462 Y111.624 E3.13359
G1 X132.310 Y113.902 E3.34934
G1 X132.162 Y116.727 E3.61667
G1 X132.094 Y119.554 E3.88390
G1 X132.131 Y123.403 E4.24765
G1 X132.128 Y123.606 E4.26683
G1 X132.066 Y124.551 E4.35633
G1 X132.066 Y124.558 E4.35699
G1 X132.010 Y124.941 E4.39357
G1 X131.934 Y125.341 E4.43204
G1 X131.843 Y125.729 E4.46970
G1 X131.749 Y126.061 E4.50231
G1 X131.623 Y126.443 E4.54032
G1 X131.478 Y126.825 E4.57894
G1 X131.326 Y127.177 E4.61517
G1 X131.171 Y127.498 E4.64886
G1 X130.971 Y127.870 E4.68877
G1 X130.867 Y128.044 E4.70792
G1 X130.366 Y128.793 E4.79308
G1 X130.361 Y128.800 E4.79389
G1 X130.106 Y129.125 E4.83293
G1 X129.963 Y129.290 E4.85356
G1 X129.324 Y129.957 E4.94085
G1 X129.012 Y130.235 E4.98034
G1 X128.853 Y130.364 E4.99969
G1 X128.138 Y130.889 E5.08352
G1 X128.094 Y130.919 E5.08855
G1 X127.751 Y131.132 E5.12670
G1 X127.425 Y131.314 E5.16199
G1 X127.090 Y131.483 E5.19744
G1 X126.723 Y131.647 E5.23543
G1 X126.353 Y131.794 E5.27305
G1 X126.001 Y131.917 E5.30829
G1 X125.835 Y131.967 E5.32467
G1 X124.875 Y132.203 E5.41810
G1 X124.866 Y132.205 E5.41897
G1 X124.509 Y132.263 E5.45315
G1 X124.301 Y132.287 E5.47293
G1 X123.366 Y132.348 E5.56148
G1 X123.317 Y132.349 E5.56611
G1 X122.945 Y132.344 E5.60127
G1 X120.854 Y132.238 E5.79912
G1 X118.027 Y132.175 E6.06634
G1 X115.198 Y132.192 E6.33368
G1 X112.372 Y132.289 E6.60090
G1 X111.416 Y132.344 E6.69139
G1 X111.225 Y132.349 E6.70944
G1 X111.046 Y132.347 E6.72636
G1 X110.101 Y132.285 E6.81585
G1 X110.082 Y132.284 E6.81765
G1 X109.684 Y132.225 E6.85567
G1 X109.533 Y132.196 E6.87021
G1 X108.568 Y131.959 E6.96411
G1 X108.209 Y131.841 E6.99982
G1 X107.827 Y131.696 E7.03843
G1 X107.475 Y131.544 E7.07466
G1 X107.154 Y131.389 E7.10835
G1 X106.782 Y131.189 E7.14826
G1 X106.608 Y131.085 E7.16742
G1 X105.850 Y130.578 E7.25360
G1 X105.527 Y130.324 E7.29243
G1 X105.362 Y130.181 E7.31306
G1 X104.907 Y129.745 E7.37261
G1 X104.448 Y129.266 E7.43530
G1 X104.419 Y129.233 E7.43946
G1 X104.174 Y128.933 E7.47606
G1 X104.045 Y128.759 E7.49653
G1 X103.554 Y128.025 E7.57998
G1 X103.526 Y127.979 E7.58507
G1 X103.341 Y127.648 E7.62090
G1 X103.163 Y127.295 E7.65826
G1 X103.006 Y126.945 E7.69451
G1 X102.858 Y126.571 E7.73252
G1 X102.733 Y126.213 E7.76835
G1 X102.685 Y126.053 E7.78414
G1 X102.447 Y125.083 E7.87852
G1 X102.389 Y124.727 E7.91261
G1 X102.364 Y124.513 E7.93297
G1 X102.304 Y123.587 E8.02066
G1 X102.303 Y123.540 E8.02510
G1 X102.305 Y123.373 E8.04089
G1 X102.467 Y120.872 E8.27773
G1 X102.610 Y118.047 E8.54503
G1 X102.673 Y115.220 E8.81225
G1 X102.641 Y112.534 E9.06609
G1 X102.634 Y111.711 E9.14387
G1 X102.638 Y111.375 E9.17562
G1 X102.683 Y110.708 E9.23880
G1 X102.751 Y110.076 E9.29887
G1 X102.758 Y110.030 E9.30326
G1 X102.791 Y109.857 E9.31991
G1 X103.026 Y108.901 E9.41294
G1 X103.148 Y108.531 E9.44976
G1 X103.289 Y108.160 E9.48726
G1 X103.440 Y107.810 E9.52328
G1 X103.598 Y107.482 E9.55769
G1 X103.794 Y107.118 E9.59676
G1 X103.987 Y106.795 E9.63231
G1 X104.106 Y106.615 E9.65270
G1 X104.635 Y105.895 E9.73714
G1 X104.675 Y105.844 E9.74326
G1 X104.903 Y105.579 E9.77630
G1 X105.196 Y105.268 E9.81667
G0 F9000.00000 X105.448 Y105.512
G1 F1800.000 X105.687 Y105.280 E9.84815
G1 X105.991 Y105.009 E9.88664
G1 X106.131 Y104.895 E9.90370
G1 X106.857 Y104.363 E9.98875
G1 X106.859 Y104.361 E9.98902
G1 X107.184 Y104.159 E10.02518
G1 X107.501 Y103.983 E10.05945
G1 X107.677 Y103.895 E10.07804
G1 X108.210 Y103.661 E10.13305
G1 X108.886 Y103.397 E10.20163
G1 X109.047 Y103.349 E10.21751
G1 X109.945 Y103.129 E10.30488
G1 X109.968 Y103.124 E10.30710
G1 X110.297 Y103.071 E10.33859
G1 X110.532 Y103.044 E10.36095
G1 X111.374 Y102.988 E10.44069
G1 X111.439 Y102.986 E10.44684
G1 X111.873 Y102.992 E10.48785
G1 X113.744 Y103.090 E10.66490
G1 X116.571 Y103.157 E10.93213
G1 X119.400 Y103.145 E11.19947
G1 X122.226 Y103.052 E11.46668
G1 X123.254 Y102.994 E11.56398
G1 X123.525 Y102.986 E11.58960
G1 X123.736 Y102.989 E11.60954
G1 X124.596 Y103.045 E11.69098
G1 X124.644 Y103.050 E11.69554
G1 X125.008 Y103.102 E11.73029
G1 X125.186 Y103.137 E11.74743
G1 X126.087 Y103.357 E11.83508
G1 X126.248 Y103.411 E11.85113
G1 X126.890 Y103.661 E11.91623
G1 X127.456 Y103.909 E11.97463
G1 X127.820 Y104.105 E12.01370
G1 X128.109 Y104.277 E12.04548
G1 X128.280 Y104.390 E12.06485
G1 X128.989 Y104.910 E12.14793
G1 X129.032 Y104.944 E12.15312
G1 X129.287 Y105.164 E12.18494
G1 X129.588 Y105.448 E12.22405
G1 X129.820 Y105.687 E12.25553
G1 X130.085 Y105.984 E12.29314
G1 X130.321 Y106.273 E12.32840
G1 X130.411 Y106.394 E12.34265
G1 X130.936 Y107.179 E12.43189
G1 X130.948 Y107.199 E12.43410
G1 X131.117 Y107.501 E12.46680
G1 X131.212 Y107.688 E12.48662
G1 X131.431 Y108.189 E12.53829
G1 X131.703 Y108.886 E12.60900
G1 X131.751 Y109.047 E12.62487
G1 X131.967 Y109.928 E12.71059
G1 X131.976 Y109.968 E12.71447
G1 X132.029 Y110.292 E12.74549
G1 X132.056 Y110.527 E12.76785
G1 X132.112 Y111.374 E12.84806
G1 X132.114 Y111.439 E12.85421
G1 X132.112 Y111.621 E12.87141
G1 X131.957 Y113.957 E13.09265
G1 X131.810 Y116.781 E13.35988
G1 X131.744 Y119.609 E13.62719
G1 X131.782 Y123.385 E13.98404
G1 X131.776 Y123.772 E14.02062
G1 X131.752 Y124.193 E14.06047
G1 X131.719 Y124.517 E14.09125
G1 X131.693 Y124.693 E14.10806
G1 X131.509 Y125.617 E14.19709
G1 X131.504 Y125.640 E14.19931
G1 X131.413 Y125.963 E14.23103
G1 X131.356 Y126.133 E14.24797
G1 X131.106 Y126.775 E14.31308
G1 X130.857 Y127.342 E14.37160
G1 X130.662 Y127.705 E14.41054
G1 X130.490 Y127.994 E14.44232
G1 X130.345 Y128.214 E14.46722
G1 X129.914 Y128.801 E14.53604
G1 X129.824 Y128.916 E14.54984
G1 X129.710 Y129.048 E14.56632
G1 X129.076 Y129.709 E14.65287
G1 X128.783 Y129.970 E14.68995
G1 X128.494 Y130.206 E14.72521
G1 X128.373 Y130.296 E14.73946
G1 X127.588 Y130.821 E14.82871
G1 X127.568 Y130.833 E14.83091
G1 X127.266 Y131.002 E14.86361
G1 X127.079 Y131.097 E14.88344
G1 X126.578 Y131.316 E14.93511
G1 X125.881 Y131.588 E15.00581
G1 X125.720 Y131.636 E15.02169
G1 X125.124 Y131.782 E15.07967
G1 X124.452 Y131.917 E15.14445
G1 X124.448 Y131.918 E15.14484
G1 X124.068 Y131.962 E15.18099
G1 X123.719 Y131.988 E15.21406
G1 X123.311 Y132.000 E15.25263
G1 X122.929 Y131.994 E15.28873
G1 X120.253 Y131.877 E15.54186
G1 X117.425 Y131.833 E15.80914
G1 X114.597 Y131.869 E16.07640
G1 X112.114 Y131.967 E16.31123
G1 X111.816 Y131.982 E16.33943
G1 X111.220 Y132.000 E16.39577
G1 X110.880 Y131.995 E16.42791
G1 X110.459 Y131.971 E16.46776
G1 X110.135 Y131.938 E16.49853
G1 X109.950 Y131.910 E16.51621
G1 X109.310 Y131.782 E16.57789
G1 X108.680 Y131.628 E16.63918
G1 X108.519 Y131.574 E16.65523
G1 X107.877 Y131.324 E16.72033
G1 X107.310 Y131.075 E16.77885
G1 X106.947 Y130.880 E16.81779
G1 X106.658 Y130.708 E16.84958
G1 X106.438 Y130.563 E16.87448
G1 X105.847 Y130.129 E16.94377
G1 X105.736 Y130.042 E16.95709
G1 X105.604 Y129.928 E16.97358
G1 X105.155 Y129.497 E17.03239
G1 X104.711 Y129.034 E17.09301
G1 X104.680 Y128.999 E17.09743
G1 X104.535 Y128.821 E17.11913
G1 X104.074 Y128.193 E17.19274
G1 X104.031 Y128.130 E17.19995
G1 X103.826 Y127.801 E17.23658
G1 X103.651 Y127.487 E17.27056
G1 X103.562 Y127.308 E17.28945
G1 X103.328 Y126.775 E17.34446
G1 X103.064 Y126.099 E17.41304
G1 X103.016 Y125.938 E17.42891
G1 X102.870 Y125.342 E17.48690
G1 X102.735 Y124.670 E17.55167
G1 X102.734 Y124.666 E17.55206
G1 X102.688 Y124.267 E17.59002
G1 X102.664 Y123.949 E17.62015
G1 X102.652 Y123.527 E17.66005
G1 X102.657 Y123.200 E17.69095
G1 X102.693 Y122.568 E17.75077
G1 X102.709 Y122.372 E17.76936
G1 X102.894 Y119.550 E18.03661
G1 X102.999 Y116.724 E18.30385
G1 X103.025 Y113.895 E18.57120
G1 X102.984 Y111.662 E18.78226
G1 X102.989 Y111.364 E18.81042
G1 X103.045 Y110.504 E18.89186
G1 X103.050 Y110.456 E18.89642
G1 X103.103 Y110.088 E18.93156
G1 X103.137 Y109.914 E18.94831
G1 X103.357 Y109.013 E19.03596
G1 X103.411 Y108.852 E19.05201
G1 X103.669 Y108.189 E19.11924
G1 X103.906 Y107.649 E19.17497
G1 X104.098 Y107.293 E19.21319
G1 X104.178 Y107.159 E19.22794
G1 X104.703 Y106.373 E19.31726
G1 X104.944 Y106.068 E19.35399
G1 X105.164 Y105.813 E19.38582
G1 X105.448 Y105.512 E19.42493
G0 F9000.00000 X105.689 Y105.766
G1 F1800.000 X105.699 Y105.755 E19.42633
G1 X105.784 Y105.673 E19.43749
G1 X106.487 Y105.056 E19.52588
G1 X106.630 Y104.949 E19.54276
G1 X107.324 Y104.485 E19.62165
G1 X107.365 Y104.459 E19.62624
G1 X107.657 Y104.296 E19.65784
G1 X107.817 Y104.216 E19.67475
G1 X108.648 Y103.851 E19.76052
G1 X108.680 Y103.838 E19.76378
G1 X108.784 Y103.802 E19.77418
G1 X109.669 Y103.543 E19.86132
G1 X110.022 Y103.470 E19.89539
G1 X110.199 Y103.441 E19.91234
G1 X110.744 Y103.382 E19.96414
G1 X111.445 Y103.335 E20.03053
G1 X111.851 Y103.341 E20.06890
G1 X113.742 Y103.440 E20.24785
G1 X116.570 Y103.507 E20.51517
G1 X119.398 Y103.495 E20.78242
G1 X122.225 Y103.403 E21.04971
G1 X123.283 Y103.343 E21.14985
G1 X123.532 Y103.335 E21.17339
G1 X123.684 Y103.337 E21.18776
G1 X124.356 Y103.382 E21.25141
G1 X124.922 Y103.444 E21.30521
G1 X124.952 Y103.448 E21.30807
G1 X125.289 Y103.512 E21.34049
G1 X125.475 Y103.556 E21.35855
G1 X126.327 Y103.805 E21.44243
G1 X126.352 Y103.814 E21.44494
G1 X126.461 Y103.855 E21.45595
G1 X127.309 Y104.227 E21.54346
G1 X127.642 Y104.406 E21.57918
G1 X127.793 Y104.496 E21.59580
G1 X128.500 Y104.969 E21.67618
G1 X128.499 Y104.969 E21.67627
G1 X128.645 Y105.083 E21.69378
G1 X129.334 Y105.689 E21.78049
G1 X129.342 Y105.696 E21.78150
G1 X129.423 Y105.780 E21.79252
G1 X130.044 Y106.487 E21.88145
G1 X130.138 Y106.613 E21.89630
G1 X130.625 Y107.342 E21.97915
G1 X130.642 Y107.369 E21.98217
G1 X130.811 Y107.671 E22.01487
G1 X130.974 Y107.996 E22.04923
G1 X131.110 Y108.300 E22.08070
G1 X131.262 Y108.680 E22.11938
G1 X131.298 Y108.784 E22.12978
G1 X131.557 Y109.669 E22.21692
G1 X131.630 Y110.022 E22.25098
G1 X131.657 Y110.186 E22.26669
G1 X131.718 Y110.744 E22.31973
G1 X131.765 Y111.445 E22.38613
G1 X131.765 Y111.446 E22.38622
G1 X131.763 Y111.581 E22.39898
G1 X131.611 Y113.851 E22.61398
G1 X131.462 Y116.676 E22.88131
G1 X131.393 Y119.503 E23.14854
G1 X131.431 Y123.436 E23.52023
G1 X131.426 Y123.757 E23.55056
G1 X131.403 Y124.159 E23.58862
G1 X131.370 Y124.479 E23.61902
G1 X131.347 Y124.642 E23.63457
G1 X131.169 Y125.535 E23.72062
G1 X131.164 Y125.554 E23.72248
G1 X131.079 Y125.855 E23.75203
G1 X130.953 Y126.237 E23.79005
G1 X130.912 Y126.346 E23.80105
G1 X130.540 Y127.194 E23.88856
G1 X130.361 Y127.527 E23.92429
G1 X130.191 Y127.812 E23.95565
G1 X130.075 Y127.988 E23.97557
G1 X129.609 Y128.623 E24.05000
G1 X129.548 Y128.701 E24.05935
G1 X129.457 Y128.807 E24.07256
G1 X128.916 Y129.371 E24.14641
G1 X128.283 Y129.927 E24.22603
G1 X128.151 Y130.025 E24.24156
G1 X127.425 Y130.510 E24.32407
G1 X127.393 Y130.530 E24.32764
G1 X127.096 Y130.696 E24.35979
G1 X126.771 Y130.859 E24.39415
G1 X126.467 Y130.995 E24.42562
G1 X126.087 Y131.147 E24.46430
G1 X125.983 Y131.183 E24.47470
G1 X125.098 Y131.442 E24.56184
G1 X124.747 Y131.515 E24.59572
G1 X124.403 Y131.570 E24.62864
G1 X124.033 Y131.614 E24.66385
G1 X123.701 Y131.638 E24.69531
G1 X123.306 Y131.650 E24.73265
G1 X122.948 Y131.644 E24.76649
G1 X120.272 Y131.527 E25.01961
G1 X117.444 Y131.482 E25.28689
G1 X114.616 Y131.518 E25.55416
G1 X112.101 Y131.616 E25.79200
G1 X111.763 Y131.634 E25.82399
G1 X111.215 Y131.650 E25.87580
G1 X110.895 Y131.645 E25.90604
G1 X110.493 Y131.622 E25.94409
G1 X110.173 Y131.589 E25.97449
G1 X109.806 Y131.536 E26.00954
G1 X109.474 Y131.472 E26.04149
G1 X109.292 Y131.429 E26.05916
G1 X108.440 Y131.180 E26.14304
G1 X108.415 Y131.171 E26.14555
G1 X108.306 Y131.130 E26.15656
G1 X107.458 Y130.758 E26.24407
G1 X107.125 Y130.579 E26.27979
G1 X106.840 Y130.409 E26.31115
G1 X106.664 Y130.293 E26.33107
G1 X106.029 Y129.827 E26.40550
G1 X105.951 Y129.766 E26.41486
G1 X105.845 Y129.675 E26.42806
G1 X105.398 Y129.246 E26.48661
G1 X104.968 Y128.797 E26.54536
G1 X104.954 Y128.782 E26.54730
G1 X104.822 Y128.619 E26.56712
G1 X104.339 Y127.960 E26.64433
G1 X104.317 Y127.927 E26.64808
G1 X104.126 Y127.620 E26.68225
G1 X103.963 Y127.328 E26.71385
G1 X103.883 Y127.168 E26.73076
G1 X103.518 Y126.337 E26.81653
G1 X103.504 Y126.302 E26.82009
G1 X103.469 Y126.201 E26.83019
G1 X103.210 Y125.316 E26.91733
G1 X103.137 Y124.965 E26.95121
G1 X103.082 Y124.621 E26.98413
G1 X103.038 Y124.246 E27.01981
G1 X103.014 Y123.916 E27.05108
G1 X103.002 Y123.533 E27.08729
G1 X103.007 Y123.215 E27.11734
G1 X103.046 Y122.542 E27.18105
G1 X103.063 Y122.324 E27.20171
G1 X103.247 Y119.502 E27.46896
G1 X103.351 Y116.675 E27.73629
G1 X103.374 Y113.847 E28.00354
G1 X103.334 Y111.665 E28.20978
G1 X103.337 Y111.416 E28.23331
G1 X103.382 Y110.744 E28.29696
G1 X103.446 Y110.158 E28.35266
G1 X103.448 Y110.148 E28.35363
G1 X103.513 Y109.808 E28.38634
G1 X103.556 Y109.625 E28.40410
G1 X103.808 Y108.765 E28.48879
G1 X103.814 Y108.748 E28.49049
G1 X103.927 Y108.449 E28.52070
G1 X104.080 Y108.095 E28.55714
G1 X104.220 Y107.806 E28.58749
G1 X104.408 Y107.457 E28.62495
G1 X104.484 Y107.328 E28.63910
G1 X104.976 Y106.592 E28.72276
G1 X105.083 Y106.455 E28.73919
G1 X105.689 Y105.766 E28.82590
G10
G0 F9000.00000 X106.832 Y106.921
G0 X116.027 Y116.213
G0 X118.642 Y118.856
G0 X120.097 Y120.326
G0 X120.125 Y120.354
G0 X120.339 Y120.579
;TYPE:WALL-INNER
G11
G1 F1800.000 X120.620 Y120.320 E28.86201
G1 X120.899 Y120.108 E28.89513
G1 X121.209 Y119.910 E28.92989
G1 X121.523 Y119.746 E28.96336
G1 X121.847 Y119.611 E28.99653
G1 X122.210 Y119.497 E29.03249
G1 X122.531 Y119.427 E29.06354
G1 X122.928 Y119.375 E29.10137
G1 X123.266 Y119.360 E29.13335
G1 X123.605 Y119.375 E29.16541
G1 X124.002 Y119.427 E29.20325
G1 X124.323 Y119.497 E29.23430
G1 X124.686 Y119.611 E29.27025
G1 X125.005 Y119.745 E29.30295
G1 X125.330 Y119.914 E29.33757
G1 X125.625 Y120.102 E29.37062
G1 X125.928 Y120.335 E29.40674
G1 X126.190 Y120.573 E29.44019
G1 X126.421 Y120.826 E29.47257
G1 X126.643 Y121.117 E29.50716
G1 X126.834 Y121.417 E29.54076
G1 X127.007 Y121.748 E29.57606
G1 X127.141 Y122.068 E29.60884
G1 X127.249 Y122.411 E29.64283
G1 X127.326 Y122.757 E29.67632
G1 X127.375 Y123.130 E29.71187
G1 X127.389 Y123.485 E29.74545
G1 X127.375 Y123.837 E29.77874
G1 X127.324 Y124.222 E29.81544
G1 X127.254 Y124.541 E29.84630
G1 X127.140 Y124.904 E29.88226
