;FLAVOR:UltiGCode
;TIME:177
;MATERIAL:136
;MATERIAL2:0
;NOZZLE_DIAMETER:0.4

;Generated with Cura_SteamEngine 2.1.3
;LAYER_COUNT:23
;LAYER:0
M107
G10
G0 F7200.000000 X112.282 Y107.049 Z0.270
G0 X112.193 Y107.152
;TYPE:SKIRT
G11
G1 F1200.000 X112.282 Y107.049 E0.01286
G1 X112.628 Y106.689 E0.06005
G1 X113.012 Y106.320 E0.11038
G1 X113.247 Y106.128 E0.13905
G1 X113.464 Y105.966 E0.16464
G1 X113.611 Y105.866 E0.18144
G1 X114.043 Y105.605 E0.22914
G1 X114.522 Y105.342 E0.28078
G1 X114.786 Y105.223 E0.30815
G1 X115.039 Y105.122 E0.33389
G1 X115.357 Y105.011 E0.36572
G1 X115.611 Y104.935 E0.39077
G1 X115.734 Y104.904 E0.40276
G1 X116.286 Y104.796 E0.45591
G1 X116.788 Y104.718 E0.50392
G1 X116.934 Y104.707 E0.51776
G1 X117.442 Y104.697 E0.56577
G1 X118.420 Y104.717 E0.65821
G1 X122.507 Y104.717 E1.04443
G1 X123.486 Y104.697 E1.13697
G1 X124.029 Y104.708 E1.18829
G1 X124.168 Y104.722 E1.20150
G1 X124.643 Y104.796 E1.24692
G1 X125.215 Y104.909 E1.30202
G1 X125.497 Y104.988 E1.32970
G1 X125.742 Y105.069 E1.35408
G1 X126.081 Y105.198 E1.38836
G1 X126.307 Y105.295 E1.41160
G1 X126.429 Y105.354 E1.42441
G1 X126.886 Y105.605 E1.47368
G1 X127.345 Y105.882 E1.52434
G1 X127.612 Y106.075 E1.55547
G1 X127.838 Y106.254 E1.58272
G1 X127.941 Y106.343 E1.59558
G1 X128.301 Y106.689 E1.64277
G1 X128.670 Y107.073 E1.69309
G1 X128.862 Y107.308 E1.72177
G1 X129.024 Y107.525 E1.74736
G1 X129.124 Y107.672 E1.76416
G1 X129.385 Y108.104 E1.81186
G1 X129.644 Y108.575 E1.86265
G1 X129.766 Y108.845 E1.89065
G1 X129.868 Y109.100 E1.91661
G1 X129.979 Y109.418 E1.94844
G1 X130.055 Y109.672 E1.97349
G1 X130.086 Y109.795 E1.98548
G1 X130.194 Y110.347 E2.03863
G1 X130.273 Y110.857 E2.08740
G1 X130.283 Y110.990 E2.10000
G1 X130.293 Y111.491 E2.14736
G1 X130.274 Y112.441 E2.23715
G1 X130.274 Y116.464 E2.61732
G1 X130.293 Y117.436 E2.70920
G1 X130.282 Y117.976 E2.76024
G1 X130.268 Y118.115 E2.77344
G1 X130.194 Y118.593 E2.81915
G1 X130.081 Y119.165 E2.87425
G1 X130.003 Y119.445 E2.90171
G1 X129.921 Y119.692 E2.92631
G1 X129.797 Y120.020 E2.95944
G1 X129.702 Y120.242 E2.98226
G1 X129.557 Y120.542 E3.01375
G1 X129.417 Y120.803 E3.04174
G1 X129.262 Y121.062 E3.07026
G1 X129.116 Y121.284 E3.09537
G1 X128.916 Y121.561 E3.12766
G1 X128.736 Y121.788 E3.15504
G1 X128.652 Y121.885 E3.16716
G1 X128.301 Y122.251 E3.21508
G1 X127.917 Y122.620 E3.26541
G1 X127.682 Y122.812 E3.29409
G1 X127.465 Y122.974 E3.31968
G1 X127.318 Y123.074 E3.33648
G1 X126.891 Y123.332 E3.38363
G1 X126.407 Y123.598 E3.43582
G1 X126.145 Y123.716 E3.46297
G1 X125.890 Y123.818 E3.48892
G1 X125.573 Y123.928 E3.52063
G1 X125.318 Y124.005 E3.54580
G1 X125.195 Y124.036 E3.55779
G1 X124.643 Y124.144 E3.61094
G1 X124.144 Y124.222 E3.65867
G1 X123.808 Y124.247 E3.69051
G1 X123.581 Y124.254 E3.71197
G1 X121.865 Y124.230 E3.87415
G1 X121.865 Y124.237 E3.87481
G1 X120.893 Y124.218 E3.96669
G1 X118.238 Y124.252 E4.21760
G1 X117.686 Y124.256 E4.26977
G1 X117.160 Y124.249 E4.31948
G1 X116.923 Y124.235 E4.34192
G1 X116.763 Y124.218 E4.35712
G1 X116.286 Y124.144 E4.40274
G1 X115.714 Y124.031 E4.45784
G1 X115.432 Y123.952 E4.48551
G1 X115.187 Y123.871 E4.50989
G1 X114.848 Y123.742 E4.54417
G1 X114.622 Y123.645 E4.56741
G1 X114.497 Y123.584 E4.58056
G1 X114.038 Y123.332 E4.63004
G1 X113.584 Y123.058 E4.68015
G1 X113.317 Y122.865 E4.71128
G1 X113.091 Y122.686 E4.73853
G1 X112.988 Y122.597 E4.75139
G1 X112.628 Y122.251 E4.79858
G1 X112.259 Y121.867 E4.84890
G1 X112.067 Y121.632 E4.87758
G1 X111.892 Y121.398 E4.90519
G1 X111.714 Y121.136 E4.93513
G1 X111.570 Y120.903 E4.96101
G1 X111.411 Y120.617 E4.99193
G1 X111.287 Y120.371 E5.01797
G1 X111.161 Y120.091 E5.04698
G1 X111.061 Y119.840 E5.07251
G1 X110.950 Y119.522 E5.10434
G1 X110.874 Y119.268 E5.12940
G1 X110.843 Y119.145 E5.14139
G1 X110.735 Y118.593 E5.19454
G1 X110.656 Y118.083 E5.24331
G1 X110.646 Y117.950 E5.25591
G1 X110.636 Y117.436 E5.30449
G1 X110.655 Y116.464 E5.39637
G1 X110.655 Y112.441 E5.77654
G1 X110.636 Y111.491 E5.86633
G1 X110.647 Y110.964 E5.91614
G1 X110.661 Y110.825 E5.92935
G1 X110.735 Y110.347 E5.97506
G1 X110.848 Y109.775 E6.03015
G1 X110.927 Y109.493 E6.05783
G1 X111.008 Y109.248 E6.08221
G1 X111.137 Y108.909 E6.11649
G1 X111.234 Y108.683 E6.13973
G1 X111.298 Y108.552 E6.15351
G1 X111.544 Y108.104 E6.20181
G1 X111.821 Y107.645 E6.25247
G1 X112.014 Y107.378 E6.28360
G1 X112.193 Y107.152 E6.31085
G0 F7200.00000 X112.462 Y107.376
G1 F1200.000 X112.539 Y107.286 E6.32204
G1 X112.875 Y106.936 E6.36789
G1 X113.236 Y106.589 E6.41521
G1 X113.477 Y106.392 E6.44462
G1 X113.689 Y106.234 E6.46961
G1 X113.772 Y106.177 E6.47913
G1 X114.256 Y105.886 E6.53249
G1 X114.652 Y105.668 E6.57521
G1 X114.941 Y105.539 E6.60512
G1 X115.172 Y105.447 E6.62862
G1 X115.455 Y105.348 E6.65695
G1 X115.709 Y105.272 E6.68200
G1 X115.849 Y105.237 E6.69564
G1 X116.557 Y105.096 E6.76386
G1 X116.814 Y105.065 E6.78832
G1 X117.119 Y105.043 E6.81722
G1 X117.256 Y105.040 E6.83017
G1 X118.279 Y105.062 E6.92687
G1 X121.107 Y105.084 E7.19412
G1 X122.652 Y105.062 E7.34014
G1 X123.686 Y105.039 E7.43787
G1 X123.726 Y105.040 E7.44166
G1 X123.979 Y105.054 E7.46560
G1 X124.303 Y105.087 E7.49638
G1 X124.384 Y105.099 E7.50412
G1 X125.108 Y105.242 E7.57385
G1 X125.395 Y105.323 E7.60204
G1 X125.637 Y105.403 E7.62612
G1 X125.932 Y105.515 E7.65594
G1 X126.165 Y105.616 E7.67994
G1 X126.294 Y105.678 E7.69346
G1 X126.673 Y105.886 E7.73432
G1 X127.159 Y106.179 E7.78795
G1 X127.399 Y106.352 E7.81591
G1 X127.614 Y106.523 E7.84187
G1 X127.704 Y106.600 E7.85306
G1 X128.054 Y106.936 E7.89891
G1 X128.401 Y107.297 E7.94623
G1 X128.598 Y107.538 E7.97564
G1 X128.756 Y107.750 E8.00063
G1 X128.813 Y107.833 E8.01014
G1 X129.104 Y108.317 E8.06351
G1 X129.321 Y108.712 E8.10610
G1 X129.451 Y109.002 E8.13613
G1 X129.543 Y109.233 E8.15963
G1 X129.642 Y109.516 E8.18796
G1 X129.718 Y109.770 E8.21302
G1 X129.753 Y109.910 E8.22665
G1 X129.894 Y110.618 E8.29487
G1 X129.922 Y110.852 E8.31714
G1 X129.933 Y111.002 E8.33136
G1 X129.943 Y111.502 E8.37862
G1 X129.928 Y112.246 E8.44894
G1 X129.910 Y115.075 E8.71629
G1 X129.941 Y116.892 E8.88802
G1 X129.950 Y117.248 E8.92167
G1 X129.935 Y117.928 E8.98595
G1 X129.935 Y117.931 E8.98623
G1 X129.903 Y118.255 E9.01700
G1 X129.891 Y118.334 E9.02455
G1 X129.748 Y119.058 E9.09429
G1 X129.667 Y119.345 E9.12247
G1 X129.585 Y119.592 E9.14706
G1 X129.475 Y119.882 E9.17637
G1 X129.379 Y120.105 E9.19932
G1 X129.244 Y120.384 E9.22861
G1 X129.116 Y120.622 E9.25414
G1 X128.960 Y120.884 E9.28296
G1 X128.816 Y121.102 E9.30765
G1 X128.648 Y121.336 E9.33487
G1 X128.467 Y121.564 E9.36238
G1 X128.390 Y121.654 E9.37357
G1 X128.054 Y122.004 E9.41942
G1 X127.693 Y122.351 E9.46674
G1 X127.458 Y122.543 E9.49542
G1 X127.240 Y122.706 E9.52114
G1 X127.157 Y122.763 E9.53066
G1 X126.673 Y123.054 E9.58402
G1 X126.277 Y123.272 E9.62674
G1 X125.988 Y123.401 E9.65665
G1 X125.757 Y123.493 E9.68015
G1 X125.474 Y123.592 E9.70848
G1 X125.220 Y123.668 E9.73353
G1 X125.080 Y123.703 E9.74717
G1 X124.372 Y123.844 E9.81539
G1 X124.125 Y123.873 E9.83889
G1 X123.800 Y123.898 E9.86970
G1 X123.575 Y123.905 E9.89097
G1 X121.881 Y123.881 E10.05107
G1 X121.881 Y123.885 E10.05145
G1 X121.263 Y123.870 E10.10986
G1 X118.542 Y123.901 E10.36702
G1 X118.542 Y123.900 E10.36711
G1 X117.690 Y123.907 E10.44763
G1 X117.176 Y123.900 E10.49620
G1 X116.956 Y123.887 E10.51703
G1 X116.607 Y123.851 E10.55019
G1 X116.545 Y123.841 E10.55612
G1 X115.821 Y123.698 E10.62586
G1 X115.534 Y123.617 E10.65404
G1 X115.287 Y123.535 E10.67864
G1 X114.997 Y123.425 E10.70795
G1 X114.764 Y123.324 E10.73194
G1 X114.635 Y123.262 E10.74547
G1 X114.256 Y123.054 E10.78632
G1 X113.770 Y122.761 E10.83995
G1 X113.530 Y122.588 E10.86791
G1 X113.315 Y122.417 E10.89387
G1 X113.225 Y122.340 E10.90506
G1 X112.875 Y122.004 E10.95091
G1 X112.528 Y121.643 E10.99823
G1 X112.331 Y121.402 E11.02765
G1 X112.180 Y121.200 E11.05148
G1 X112.009 Y120.946 E11.08041
G1 X111.868 Y120.718 E11.10575
G1 X111.724 Y120.460 E11.13367
G1 X111.601 Y120.215 E11.15958
G1 X111.483 Y119.951 E11.18690
G1 X111.382 Y119.698 E11.21265
G1 X111.287 Y119.424 E11.24005
G1 X111.207 Y119.157 E11.26639
G1 X111.176 Y119.030 E11.27874
G1 X111.035 Y118.322 E11.34696
G1 X111.006 Y118.081 E11.36990
G1 X110.993 Y117.887 E11.38828
G1 X110.978 Y117.238 E11.44962
G1 X110.994 Y115.863 E11.57957
G1 X111.018 Y114.546 E11.70405
G1 X110.999 Y112.122 E11.93312
G1 X110.986 Y111.488 E11.99305
G1 X110.996 Y110.981 E12.04097
G1 X111.026 Y110.685 E12.06908
G1 X111.038 Y110.606 E12.07664
G1 X111.181 Y109.882 E12.14638
G1 X111.262 Y109.595 E12.17456
G1 X111.346 Y109.341 E12.19984
G1 X111.454 Y109.058 E12.22846
G1 X111.555 Y108.825 E12.25246
G1 X111.617 Y108.696 E12.26599
G1 X111.825 Y108.317 E12.30684
G1 X112.118 Y107.831 E12.36047
G1 X112.291 Y107.591 E12.38843
G1 X112.462 Y107.376 E12.41439
G0 F7200.00000 X112.739 Y107.590
G1 F1200.000 X112.800 Y107.520 E12.42316
G1 X113.128 Y107.179 E12.46787
G1 X113.473 Y106.847 E12.51312
G1 X113.685 Y106.674 E12.53898
G1 X113.884 Y106.526 E12.56241
G1 X113.989 Y106.454 E12.57445
G1 X114.330 Y106.248 E12.61209
G1 X114.845 Y105.965 E12.66763
G1 X115.069 Y105.864 E12.69085
G1 X115.101 Y105.851 E12.69411
G1 X115.854 Y105.596 E12.76924
G1 X115.943 Y105.574 E12.77790
G1 X116.589 Y105.445 E12.84015
G1 X116.600 Y105.444 E12.84120
G1 X116.825 Y105.417 E12.86261
G1 X116.970 Y105.406 E12.87635
G1 X117.438 Y105.397 E12.92059
G1 X118.442 Y105.417 E13.01548
G1 X122.488 Y105.417 E13.39783
G1 X123.491 Y105.397 E13.49263
G1 X123.982 Y105.407 E13.53904
G1 X124.274 Y105.436 E13.56677
G1 X124.350 Y105.447 E13.57403
G1 X125.016 Y105.580 E13.63821
G1 X125.081 Y105.598 E13.64458
G1 X125.831 Y105.852 E13.71941
G1 X126.028 Y105.937 E13.73969
G1 X126.079 Y105.962 E13.74506
G1 X126.599 Y106.248 E13.80114
G1 X126.963 Y106.468 E13.84133
G1 X127.170 Y106.617 E13.86543
G1 X127.390 Y106.792 E13.89200
G1 X127.468 Y106.859 E13.90171
G1 X127.801 Y107.179 E13.94536
G1 X128.143 Y107.534 E13.99194
G1 X128.316 Y107.746 E14.01780
G1 X128.464 Y107.945 E14.04123
G1 X128.536 Y108.050 E14.05327
G1 X128.740 Y108.388 E14.09057
G1 X129.025 Y108.906 E14.14644
G1 X129.126 Y109.130 E14.16966
G1 X129.139 Y109.162 E14.17293
G1 X129.393 Y109.913 E14.24785
G1 X129.415 Y109.999 E14.25624
G1 X129.545 Y110.650 E14.31897
G1 X129.546 Y110.661 E14.32001
G1 X129.575 Y110.898 E14.34258
G1 X129.584 Y111.024 E14.35452
G1 X129.594 Y111.501 E14.39960
G1 X129.575 Y112.426 E14.48703
G1 X129.574 Y116.479 E14.87004
G1 X129.594 Y117.450 E14.96182
G1 X129.584 Y117.932 E15.00738
G1 X129.555 Y118.215 E15.03426
G1 X129.543 Y118.300 E15.04237
G1 X129.410 Y118.966 E15.10655
G1 X129.392 Y119.031 E15.11293
G1 X129.138 Y119.781 E15.18776
G1 X129.056 Y119.970 E15.20723
G1 X128.936 Y120.219 E15.23335
G1 X128.911 Y120.266 E15.23838
G1 X128.499 Y120.944 E15.31335
G1 X128.369 Y121.125 E15.33441
G1 X128.198 Y121.340 E15.36037
G1 X128.131 Y121.418 E15.37009
G1 X127.806 Y121.756 E15.41440
G1 X127.456 Y122.093 E15.46031
G1 X127.250 Y122.261 E15.48543
G1 X127.045 Y122.414 E15.50961
G1 X126.940 Y122.486 E15.52164
G1 X126.599 Y122.692 E15.55928
G1 X126.084 Y122.975 E15.61482
G1 X125.865 Y123.074 E15.63753
G1 X125.828 Y123.089 E15.64130
G1 X125.077 Y123.343 E15.71622
G1 X124.986 Y123.366 E15.72509
G1 X124.340 Y123.495 E15.78734
G1 X124.329 Y123.496 E15.78839
G1 X124.082 Y123.526 E15.81190
G1 X123.793 Y123.548 E15.83929
G1 X123.569 Y123.555 E15.86047
G1 X121.897 Y123.531 E16.01849
G1 X121.897 Y123.538 E16.01915
G1 X120.884 Y123.518 E16.11490
G1 X118.078 Y123.554 E16.38008
G1 X117.694 Y123.557 E16.41637
G1 X117.192 Y123.550 E16.46382
G1 X116.959 Y123.536 E16.48588
G1 X116.675 Y123.507 E16.51285
G1 X116.579 Y123.493 E16.52202
G1 X115.913 Y123.360 E16.58620
G1 X115.848 Y123.342 E16.59257
G1 X115.098 Y123.088 E16.66740
G1 X114.901 Y123.003 E16.68768
G1 X114.850 Y122.978 E16.69305
G1 X114.330 Y122.692 E16.74913
G1 X113.966 Y122.472 E16.78932
G1 X113.759 Y122.323 E16.81342
G1 X113.539 Y122.148 E16.83999
G1 X113.461 Y122.081 E16.84971
G1 X113.123 Y121.756 E16.89402
G1 X112.786 Y121.406 E16.93993
G1 X112.613 Y121.194 E16.96579
G1 X112.465 Y120.995 E16.98923
G1 X112.429 Y120.943 E16.99520
G1 X112.014 Y120.258 E17.07089
G1 X111.925 Y120.082 E17.08953
G1 X111.802 Y119.808 E17.11791
G1 X111.790 Y119.778 E17.12096
G1 X111.536 Y119.027 E17.19588
G1 X111.513 Y118.936 E17.20475
G1 X111.384 Y118.290 E17.26700
G1 X111.383 Y118.279 E17.26805
G1 X111.354 Y118.039 E17.29089
G1 X111.345 Y117.916 E17.30255
G1 X111.335 Y117.450 E17.34659
G1 X111.355 Y116.479 E17.43837
G1 X111.354 Y112.426 E17.82138
G1 X111.335 Y111.501 E17.90881
G1 X111.345 Y111.008 E17.95541
G1 X111.374 Y110.725 E17.98229
G1 X111.386 Y110.640 E17.99040
G1 X111.519 Y109.974 E18.05458
G1 X111.541 Y109.896 E18.06224
G1 X111.791 Y109.159 E18.13579
G1 X111.876 Y108.962 E18.15606
G1 X111.901 Y108.911 E18.16143
G1 X112.189 Y108.388 E18.21785
G1 X112.407 Y108.027 E18.25770
G1 X112.556 Y107.820 E18.28181
G1 X112.739 Y107.590 E18.30958
G0 F7200.00000 X112.994 Y107.832
G1 F1200.000 X113.064 Y107.751 E18.31970
G1 X113.371 Y107.432 E18.36154
G1 X113.709 Y107.107 E18.40585
G1 X113.903 Y106.948 E18.42955
G1 X114.091 Y106.808 E18.45170
G1 X114.198 Y106.735 E18.46394
G1 X114.746 Y106.403 E18.52449
G1 X114.954 Y106.298 E18.54651
G1 X115.190 Y106.192 E18.57096
G1 X115.428 Y106.097 E18.59517
G1 X115.661 Y106.016 E18.61849
G1 X115.905 Y105.943 E18.64255
G1 X115.962 Y105.929 E18.64810
G1 X116.464 Y105.830 E18.69645
G1 X116.916 Y105.760 E18.73968
G1 X116.964 Y105.757 E18.74422
G1 X117.439 Y105.747 E18.78912
G1 X118.418 Y105.767 E18.88165
G1 X122.513 Y105.767 E19.26863
G1 X123.491 Y105.747 E19.36107
G1 X123.972 Y105.757 E19.40653
G1 X124.029 Y105.762 E19.41194
G1 X124.465 Y105.830 E19.45364
G1 X124.966 Y105.929 E19.50190
G1 X125.190 Y105.992 E19.52389
G1 X125.413 Y106.066 E19.54610
G1 X125.666 Y106.162 E19.57167
G1 X125.879 Y106.254 E19.59359
G1 X126.119 Y106.370 E19.61878
G1 X126.202 Y106.415 E19.62771
G1 X126.754 Y106.749 E19.68867
G1 X126.958 Y106.896 E19.71244
G1 X127.158 Y107.055 E19.73658
G1 X127.236 Y107.122 E19.74630
G1 X127.558 Y107.432 E19.78854
G1 X127.879 Y107.766 E19.83231
G1 X128.042 Y107.964 E19.85655
G1 X128.182 Y108.152 E19.87870
G1 X128.255 Y108.259 E19.89094
G1 X128.587 Y108.807 E19.95149
G1 X128.690 Y109.012 E19.97317
G1 X128.798 Y109.251 E19.99795
G1 X128.893 Y109.489 E20.02217
G1 X128.974 Y109.722 E20.04548
G1 X129.046 Y109.962 E20.06916
G1 X129.061 Y110.023 E20.07510
G1 X129.160 Y110.525 E20.12345
G1 X129.229 Y110.968 E20.16582
G1 X129.234 Y111.034 E20.17207
G1 X129.243 Y111.486 E20.21479
G1 X129.224 Y112.436 E20.30459
G1 X129.224 Y116.469 E20.68571
G1 X129.244 Y117.440 E20.77749
G1 X129.234 Y117.913 E20.82219
G1 X129.227 Y117.986 E20.82912
G1 X129.160 Y118.415 E20.87016
G1 X129.061 Y118.916 E20.91842
G1 X128.998 Y119.140 E20.94041
G1 X128.924 Y119.363 E20.96261
G1 X128.832 Y119.607 E20.98725
G1 X128.811 Y119.656 E20.99229
G1 X128.487 Y120.312 E21.06143
G1 X128.376 Y120.498 E21.08190
G1 X128.248 Y120.693 E21.10394
G1 X128.082 Y120.923 E21.13075
G1 X127.935 Y121.108 E21.15308
G1 X127.868 Y121.186 E21.16279
G1 X127.558 Y121.508 E21.20503
G1 X127.224 Y121.829 E21.24881
G1 X127.026 Y121.992 E21.27304
G1 X126.838 Y122.132 E21.29520
G1 X126.731 Y122.205 E21.30744
G1 X126.183 Y122.537 E21.36798
G1 X125.975 Y122.642 E21.39000
G1 X125.739 Y122.748 E21.41445
G1 X125.501 Y122.843 E21.43867
G1 X125.268 Y122.924 E21.46198
G1 X125.028 Y122.996 E21.48566
G1 X124.967 Y123.011 E21.49159
G1 X124.465 Y123.110 E21.53995
G1 X124.148 Y123.159 E21.57026
G1 X123.489 Y123.203 E21.63267
G1 X121.913 Y123.181 E21.78162
G1 X121.913 Y123.185 E21.78200
G1 X121.187 Y123.169 E21.85062
G1 X118.510 Y123.200 E22.10361
G1 X117.698 Y123.207 E22.18035
G1 X117.440 Y123.203 E22.20474
G1 X116.781 Y123.159 E22.26715
G1 X116.464 Y123.110 E22.29746
G1 X115.963 Y123.011 E22.34572
G1 X115.739 Y122.948 E22.36771
G1 X115.516 Y122.874 E22.38991
G1 X115.263 Y122.778 E22.41549
G1 X115.050 Y122.686 E22.43741
G1 X114.810 Y122.570 E22.46260
G1 X114.727 Y122.525 E22.47152
G1 X114.175 Y122.191 E22.53249
G1 X113.971 Y122.044 E22.55626
G1 X113.771 Y121.885 E22.58040
