;FLAVOR:UltiGCode
;TIME:1191
;MATERIAL:3985
;MATERIAL2:0
;NOZZLE_DIAMETER:0.4

;Generated with Cura_SteamEngine 2.1.3
;LAYER_COUNT:3
;LAYER:0
M107
G0 F9000.000000 X72.045 Y62.508 Z0.270
G0 X73.098 Y61.663
;TYPE:SKIRT
G1 F2400.000 X73.108 Y61.658 E0.00106
G1 X73.239 Y61.600 E0.01460
G1 X73.557 Y61.478 E0.04678
G1 X73.584 Y61.471 E0.04942
G1 X73.690 Y61.443 E0.05978
G1 X74.008 Y61.377 E0.09047
G1 X74.428 Y61.339 E0.13032
G1 X74.498 Y61.335 E0.13695
G1 X74.859 Y61.325 E0.17108
G1 X147.793 Y61.325 E7.06334
G1 X148.499 Y61.335 E7.13006
G1 X148.617 Y61.340 E7.14122
G1 X148.683 Y61.345 E7.14748
G1 X148.989 Y61.373 E7.17652
G1 X149.020 Y61.379 E7.17950
G1 X149.153 Y61.407 E7.19234
G1 X149.467 Y61.488 E7.22299
G1 X149.494 Y61.495 E7.22562
G1 X149.628 Y61.547 E7.23921
G1 X149.951 Y61.687 E7.27247
G1 X149.959 Y61.691 E7.27332
G1 X150.082 Y61.762 E7.28674
G1 X150.371 Y61.947 E7.31917
G1 X150.378 Y61.952 E7.31998
G1 X150.492 Y62.045 E7.33388
G1 X150.756 Y62.281 E7.36735
G1 X150.868 Y62.406 E7.38321
G1 X151.074 Y62.660 E7.41411
G1 X151.081 Y62.669 E7.41519
G1 X151.159 Y62.791 E7.42887
G1 X151.331 Y63.086 E7.46114
G1 X151.340 Y63.103 E7.46296
G1 X151.400 Y63.239 E7.47701
G1 X151.522 Y63.557 E7.50919
G1 X151.529 Y63.584 E7.51183
G1 X151.557 Y63.690 E7.52219
G1 X151.623 Y64.008 E7.55288
G1 X151.661 Y64.428 E7.59273
G1 X151.665 Y64.498 E7.59936
G1 X151.675 Y64.851 E7.63273
G1 X151.675 Y157.793 E16.41575
G1 X151.665 Y158.499 E16.48247
G1 X151.661 Y158.601 E16.49212
G1 X151.657 Y158.667 E16.49837
G1 X151.627 Y158.989 E16.52893
G1 X151.621 Y159.020 E16.53191
G1 X151.593 Y159.153 E16.54476
G1 X151.512 Y159.467 E16.57540
G1 X151.505 Y159.494 E16.57804
G1 X151.453 Y159.628 E16.59162
G1 X151.313 Y159.951 E16.62489
G1 X151.237 Y160.084 E16.63936
G1 X151.052 Y160.372 E16.67171
G1 X151.051 Y160.374 E16.67192
G1 X150.955 Y160.492 E16.68630
G1 X150.719 Y160.756 E16.71976
G1 X150.594 Y160.868 E16.73562
G1 X150.340 Y161.074 E16.76653
G1 X150.339 Y161.075 E16.76666
G1 X150.323 Y161.086 E16.76850
G1 X150.201 Y161.164 E16.78218
G1 X149.906 Y161.335 E16.81440
G1 X149.892 Y161.342 E16.81588
G1 X149.761 Y161.400 E16.82942
G1 X149.443 Y161.522 E16.86161
G1 X149.416 Y161.529 E16.86424
G1 X149.310 Y161.557 E16.87460
G1 X148.992 Y161.623 E16.90529
G1 X148.572 Y161.661 E16.94515
G1 X148.502 Y161.665 E16.95177
G1 X148.141 Y161.675 E16.98590
G1 X75.207 Y161.675 E23.87816
G1 X74.501 Y161.665 E23.94489
G1 X74.383 Y161.660 E23.95605
G1 X74.317 Y161.655 E23.96230
G1 X74.011 Y161.627 E23.99134
G1 X73.980 Y161.621 E23.99432
G1 X73.847 Y161.593 E24.00717
G1 X73.533 Y161.512 E24.03781
G1 X73.506 Y161.505 E24.04045
G1 X73.372 Y161.453 E24.05403
G1 X73.049 Y161.313 E24.08730
G1 X73.041 Y161.309 E24.08814
G1 X72.915 Y161.236 E24.10190
G1 X72.627 Y161.051 E24.13425
G1 X72.622 Y161.048 E24.13480
G1 X72.508 Y160.955 E24.14871
G1 X72.244 Y160.719 E24.18217
G1 X72.132 Y160.594 E24.19803
G1 X71.926 Y160.340 E24.22893
G1 X71.923 Y160.336 E24.22941
G1 X71.914 Y160.323 E24.23090
G1 X71.836 Y160.201 E24.24459
G1 X71.665 Y159.906 E24.27681
G1 X71.658 Y159.892 E24.27829
G1 X71.600 Y159.761 E24.29183
G1 X71.478 Y159.443 E24.32401
G1 X71.471 Y159.416 E24.32665
G1 X71.443 Y159.310 E24.33701
G1 X71.377 Y158.992 E24.36770
G1 X71.339 Y158.572 E24.40755
G1 X71.335 Y158.500 E24.41437
G1 X71.325 Y158.134 E24.44897
G1 X71.325 Y65.207 E33.23057
G1 X71.335 Y64.500 E33.29739
G1 X71.341 Y64.369 E33.30978
G1 X71.346 Y64.301 E33.31622
G1 X71.373 Y64.011 E33.34375
G1 X71.384 Y63.953 E33.34932
G1 X71.407 Y63.847 E33.35957
G1 X71.488 Y63.533 E33.39022
G1 X71.495 Y63.506 E33.39285
G1 X71.547 Y63.372 E33.40644
G1 X71.687 Y63.049 E33.43970
G1 X71.691 Y63.041 E33.44055
G1 X71.763 Y62.916 E33.45418
G1 X71.951 Y62.623 E33.48708
G1 X72.045 Y62.508 E33.50112
G1 X72.281 Y62.244 E33.53458
G1 X72.406 Y62.132 E33.55044
G1 X72.660 Y61.926 E33.58134
G1 X72.661 Y61.925 E33.58148
G1 X72.679 Y61.913 E33.58352
G1 X72.799 Y61.836 E33.59700
G1 X73.097 Y61.663 E33.62956
G1 X73.098 Y61.663 E33.62965
G10
G0 F9000.00000 X73.843 Y62.964
G0 X75.025 Y65.025
G0 X75.053 Y65.053
G0 X75.375 Y65.375
;TYPE:WALL-INNER
G11
G1 F2400.000 X147.625 Y65.375 E40.45728
G1 X147.625 Y157.625 E49.17490
G1 X75.375 Y157.625 E56.00253
G1 X75.375 Y65.375 E64.72015
G0 F9000.00000 X86.655 Y74.048
G1 F2400.000 X85.637 Y75.375 E64.87820
G1 X84.721 Y76.810 E65.03908
G1 X83.935 Y78.322 E65.20012
G1 X83.297 Y79.860 E65.35747
G1 X82.782 Y81.498 E65.51973
G1 X82.421 Y83.122 E65.67695
G1 X82.197 Y84.825 E65.83927
G1 X82.125 Y86.500 E65.99770
G1 X82.197 Y88.176 E66.15623
G1 X82.421 Y89.877 E66.31836
G1 X82.782 Y91.503 E66.47576
G1 X83.296 Y93.137 E66.63763
G1 X83.935 Y94.677 E66.79519
G1 X84.727 Y96.200 E66.95741
G1 X85.633 Y97.620 E67.11659
G1 X86.655 Y98.953 E67.27532
G1 X87.801 Y100.200 E67.43537
G1 X89.048 Y101.346 E67.59541
G1 X90.381 Y102.368 E67.75414
G1 X91.810 Y103.280 E67.91434
G1 X93.322 Y104.066 E68.07538
G1 X94.861 Y104.704 E68.23282
G1 X96.497 Y105.219 E68.39490
G1 X98.123 Y105.580 E68.55230
G1 X99.815 Y105.803 E68.71357
G1 X101.500 Y105.875 E68.87295
G1 X103.186 Y105.803 E69.03242
G1 X104.878 Y105.580 E69.19370
G1 X106.504 Y105.219 E69.35110
G1 X108.140 Y104.704 E69.51318
G1 X109.677 Y104.066 E69.67044
G1 X111.200 Y103.274 E69.83266
G1 X112.619 Y102.368 E69.99176
G1 X113.952 Y101.346 E70.15049
G1 X115.199 Y100.200 E70.31054
G1 X116.345 Y98.953 E70.47059
G1 X117.367 Y97.620 E70.62932
G1 X118.273 Y96.200 E70.78849
G1 X119.065 Y94.677 E70.95071
G1 X119.704 Y93.137 E71.10827
G1 X120.218 Y91.503 E71.27015
G1 X120.579 Y89.877 E71.42755
G1 X120.803 Y88.176 E71.58968
G1 X120.875 Y86.500 E71.74821
G1 X120.803 Y84.825 E71.90664
G1 X120.579 Y83.122 E72.06896
G1 X120.218 Y81.498 E72.22617
G1 X119.703 Y79.860 E72.38843
G1 X119.065 Y78.322 E72.54578
G1 X118.279 Y76.810 E72.70682
G1 X117.363 Y75.375 E72.86770
G1 X116.345 Y74.048 E73.02575
G1 X115.199 Y72.801 E73.18580
G1 X113.952 Y71.655 E73.34585
G1 X112.619 Y70.633 E73.50458
G1 X111.200 Y69.727 E73.66367
G1 X109.677 Y68.935 E73.82589
G1 X108.140 Y68.297 E73.98316
G1 X106.503 Y67.782 E74.14533
G1 X104.878 Y67.421 E74.30263
G1 X103.186 Y67.199 E74.46390
G1 X101.500 Y67.125 E74.62338
G1 X99.815 Y67.199 E74.78277
G1 X98.123 Y67.421 E74.94403
G1 X96.498 Y67.782 E75.10134
G1 X94.861 Y68.297 E75.26351
G1 X93.322 Y68.935 E75.42094
G1 X91.810 Y69.721 E75.58198
G1 X90.381 Y70.633 E75.74218
G1 X89.048 Y71.655 E75.90091
G1 X87.801 Y72.801 E76.06096
G1 X86.655 Y74.048 E76.22100
G0 F9000.00000 X86.925 Y74.272
G1 F2400.000 X85.920 Y75.582 E76.37703
G1 X85.024 Y76.986 E76.53443
G1 X84.255 Y78.465 E76.69196
G1 X83.624 Y79.987 E76.84766
G1 X83.122 Y81.583 E77.00576
G1 X82.765 Y83.190 E77.16133
G1 X82.547 Y84.849 E77.31945
G1 X82.475 Y86.500 E77.47562
G1 X82.547 Y88.152 E77.63188
G1 X82.765 Y89.810 E77.78991
G1 X83.122 Y91.418 E77.94556
G1 X83.624 Y93.014 E78.10367
G1 X84.255 Y94.535 E78.25928
G1 X85.027 Y96.019 E78.41736
G1 X85.918 Y97.416 E78.57395
G1 X86.925 Y98.729 E78.73031
G1 X88.048 Y99.953 E78.88729
G1 X89.272 Y101.076 E79.04426
G1 X90.585 Y102.083 E79.20063
G1 X91.986 Y102.977 E79.35769
G1 X93.465 Y103.746 E79.51522
G1 X94.987 Y104.377 E79.67092
G1 X96.582 Y104.879 E79.82893
G1 X98.190 Y105.236 E79.98459
G1 X99.844 Y105.454 E80.14224
G1 X101.500 Y105.525 E80.29888
G1 X103.157 Y105.454 E80.45561
G1 X104.811 Y105.236 E80.61326
G1 X106.419 Y104.879 E80.76892
G1 X108.014 Y104.377 E80.92694
G1 X109.535 Y103.746 E81.08255
G1 X111.019 Y102.974 E81.24063
G1 X112.415 Y102.083 E81.39713
G1 X113.728 Y101.076 E81.55350
G1 X114.952 Y99.953 E81.71047
G1 X116.075 Y98.729 E81.86745
G1 X117.082 Y97.416 E82.02382
G1 X117.973 Y96.019 E82.18040
G1 X118.745 Y94.535 E82.33848
G1 X119.376 Y93.014 E82.49409
G1 X119.878 Y91.418 E82.65220
G1 X120.235 Y89.810 E82.80785
G1 X120.453 Y88.152 E82.96588
G1 X120.525 Y86.500 E83.12215
G1 X120.453 Y84.849 E83.27831
G1 X120.235 Y83.190 E83.43644
G1 X119.878 Y81.583 E83.59200
G1 X119.376 Y79.987 E83.75011
G1 X118.745 Y78.465 E83.90581
G1 X117.976 Y76.986 E84.06334
G1 X117.080 Y75.582 E84.22073
G1 X116.075 Y74.272 E84.37676
G1 X114.952 Y73.048 E84.53373
G1 X113.728 Y71.925 E84.69071
G1 X112.415 Y70.918 E84.84708
G1 X111.019 Y70.027 E85.00358
G1 X109.535 Y69.255 E85.16166
G1 X108.014 Y68.624 E85.31727
G1 X106.419 Y68.122 E85.47529
G1 X104.811 Y67.765 E85.63095
G1 X103.157 Y67.548 E85.78859
G1 X101.500 Y67.475 E85.94533
G1 X99.844 Y67.548 E86.10197
G1 X98.190 Y67.765 E86.25961
G1 X96.582 Y68.122 E86.41527
G1 X94.987 Y68.624 E86.57329
G1 X93.465 Y69.255 E86.72899
G1 X91.986 Y70.024 E86.88651
G1 X90.585 Y70.918 E87.04357
G1 X89.272 Y71.925 E87.19994
G1 X88.048 Y73.048 E87.35691
G1 X86.925 Y74.272 E87.51389
G0 F9000.00000 X86.849 Y74.208
G0 X75.095 Y65.095
G0 X75.025 Y65.025
G1 F2400.000 X147.975 Y65.025 E94.40766
G1 X147.975 Y157.975 E103.19144
G1 X75.025 Y157.975 E110.08521
G1 X75.025 Y65.025 E118.86899
G0 F9000.00000 X74.675 Y64.675
;TYPE:WALL-OUTER
G1 F2400.000 X148.325 Y64.675 E125.82891
G1 X148.325 Y158.325 E134.67884
G1 X74.675 Y158.325 E141.63876
G1 X74.675 Y64.675 E150.48869
G0 F9000.00000 X75.125 Y65.095
G0 X86.839 Y74.222
G0 X87.195 Y74.496
G1 F2400.000 X86.203 Y75.789 E150.64269
G1 X85.327 Y77.162 E150.79660
G1 X84.575 Y78.608 E150.95062
G1 X83.951 Y80.113 E151.10458
G1 X83.462 Y81.667 E151.25854
G1 X83.109 Y83.258 E151.41254
G1 X82.897 Y84.873 E151.56647
G1 X82.825 Y86.500 E151.72037
G1 X82.897 Y88.128 E151.87437
G1 X83.109 Y89.743 E152.02829
G1 X83.462 Y91.334 E152.18230
G1 X83.951 Y92.888 E152.33625
G1 X84.575 Y94.393 E152.49021
G1 X85.327 Y95.838 E152.64415
G1 X86.203 Y97.212 E152.79814
G1 X87.195 Y98.505 E152.95215
G1 X88.295 Y99.706 E153.10605
G1 X89.496 Y100.806 E153.25995
G1 X90.789 Y101.798 E153.41396
G1 X92.162 Y102.674 E153.56787
G1 X93.608 Y103.426 E153.72189
G1 X95.113 Y104.050 E153.87585
G1 X96.667 Y104.539 E154.02980
G1 X98.258 Y104.892 E154.18381
G1 X99.873 Y105.105 E154.33775
G1 X101.500 Y105.175 E154.49164
G1 X103.128 Y105.105 E154.64563
G1 X104.743 Y104.892 E154.79957
G1 X106.334 Y104.539 E154.95358
G1 X107.888 Y104.050 E155.10753
G1 X109.393 Y103.426 E155.26149
G1 X110.838 Y102.674 E155.41543
G1 X112.211 Y101.798 E155.56933
G1 X113.504 Y100.806 E155.72334
G1 X114.705 Y99.706 E155.87725
G1 X115.805 Y98.505 E156.03115
G1 X116.797 Y97.212 E156.18516
G1 X117.673 Y95.838 E156.33914
G1 X118.425 Y94.393 E156.49308
G1 X119.049 Y92.888 E156.64704
G1 X119.538 Y91.334 E156.80100
G1 X119.891 Y89.743 E156.95500
G1 X120.103 Y88.128 E157.10893
G1 X120.175 Y86.500 E157.26292
G1 X120.103 Y84.873 E157.41683
G1 X119.891 Y83.258 E157.57075
G1 X119.538 Y81.667 E157.72476
G1 X119.049 Y80.113 E157.87871
G1 X118.425 Y78.608 E158.03267
G1 X117.673 Y77.162 E158.18669
G1 X116.797 Y75.789 E158.34060
G1 X115.805 Y74.496 E158.49461
G1 X114.705 Y73.295 E158.64851
G1 X113.504 Y72.195 E158.80242
G1 X112.211 Y71.203 E158.95642
G1 X110.838 Y70.327 E159.11033
G1 X109.393 Y69.575 E159.26427
G1 X107.888 Y68.951 E159.41823
G1 X106.334 Y68.462 E159.57218
G1 X104.743 Y68.109 E159.72619
G1 X103.128 Y67.897 E159.88012
G1 X101.500 Y67.825 E160.03411
G1 X99.873 Y67.897 E160.18801
G1 X98.258 Y68.109 E160.34194
G1 X96.667 Y68.462 E160.49595
G1 X95.113 Y68.951 E160.64990
G1 X93.608 Y69.575 E160.80386
G1 X92.162 Y70.327 E160.95788
G1 X90.789 Y71.203 E161.11179
G1 X89.496 Y72.195 E161.26580
G1 X88.295 Y73.295 E161.41970
G1 X87.195 Y74.496 E161.57361
G0 F9000.00000 X86.839 Y74.221
G0 X86.453 Y74.079
;TYPE:SKIN
G1 F2400.000 X77.889 Y65.514 E162.71819
G0 X77.828 Y65.453
G0 F9000.000 X77.394 Y65.514
G1 F2400.000 X86.238 Y74.359 E163.90020
G0 X86.299 Y74.420
G0 F9000.000 X86.024 Y74.640
G1 F2400.000 X76.899 Y65.514 E165.11976
G0 X76.838 Y65.453
G0 F9000.000 X76.404 Y65.514
G1 F2400.000 X85.809 Y74.920 E166.37674
G0 X85.870 Y74.981
G0 F9000.000 X85.594 Y75.200
G1 F2400.000 X75.909 Y65.514 E167.67114
G0 X75.848 Y65.453
G0 F9000.000 X75.514 Y65.615
G1 F2400.000 X85.393 Y75.494 E168.99140
G0 X85.454 Y75.555
G0 F9000.000 X85.200 Y75.796
G1 F2400.000 X75.514 Y66.110 E170.28587
G0 X75.453 Y66.049
G0 F9000.000 X75.514 Y66.605
G1 F2400.000 X85.007 Y76.098 E171.55455
G0 X85.068 Y76.159
G0 F9000.000 X84.815 Y76.400
G1 F2400.000 X75.514 Y67.100 E172.79749
G0 X75.453 Y67.039
G0 F9000.000 X75.514 Y67.595
G1 F2400.000 X84.622 Y76.702 E174.01465
G0 X84.683 Y76.763
G0 F9000.000 X84.449 Y77.025
G1 F2400.000 X75.514 Y68.090 E175.20875
G0 X75.453 Y68.029
G0 F9000.000 X75.514 Y68.585
G1 F2400.000 X84.280 Y77.351 E176.38027
G0 X84.341 Y77.412
G0 F9000.000 X84.111 Y77.677
G1 F2400.000 X75.514 Y69.080 E177.52920
G0 X75.453 Y69.019
G0 F9000.000 X75.514 Y69.575
G1 F2400.000 X83.942 Y78.003 E178.65554
G0 X84.003 Y78.064
G0 F9000.000 X83.778 Y78.333
G1 F2400.000 X75.514 Y70.070 E179.75990
G0 X75.453 Y70.009
G0 F9000.000 X75.514 Y70.565
G1 F2400.000 X83.633 Y78.683 E180.84489
G0 X83.694 Y78.744
G0 F9000.000 X83.488 Y79.033
G1 F2400.000 X75.514 Y71.059 E181.91056
G0 X75.453 Y70.998
G0 F9000.000 X75.514 Y71.554
G1 F2400.000 X83.342 Y79.382 E182.95672
G0 X83.403 Y79.443
G0 F9000.000 X83.197 Y79.732
G1 F2400.000 X75.514 Y72.049 E183.98350
G0 X75.453 Y71.988
G0 F9000.000 X75.514 Y72.544
G1 F2400.000 X83.073 Y80.103 E184.99370
G0 X83.134 Y80.164
G0 F9000.000 X82.954 Y80.480
G1 F2400.000 X75.514 Y73.039 E185.98808
G0 X75.453 Y72.978
G0 F9000.000 X75.514 Y73.534
G1 F2400.000 X82.836 Y80.856 E186.96661
G0 X82.897 Y80.917
G0 F9000.000 X82.718 Y81.233
G1 F2400.000 X75.514 Y74.029 E187.92938
G0 X75.453 Y73.968
G0 F9000.000 X75.514 Y74.524
G1 F2400.000 X82.610 Y81.620 E188.87771
G0 X82.671 Y81.681
G0 F9000.000 X82.520 Y82.025
G1 F2400.000 X75.514 Y75.019 E189.81401
G0 X75.453 Y74.958
G0 F9000.000 X75.514 Y75.514
G1 F2400.000 X82.430 Y82.430 E190.73829
G0 X82.491 Y82.491
G0 F9000.000 X82.341 Y82.836
G1 F2400.000 X75.514 Y76.009 E191.65067
G0 X75.453 Y75.948
G0 F9000.000 X75.514 Y76.504
G1 F2400.000 X82.262 Y83.252 E192.55250
G0 X82.323 Y83.313
G0 F9000.000 X82.205 Y83.690
G1 F2400.000 X75.514 Y76.999 E193.44670
G0 X75.453 Y76.938
G0 F9000.000 X75.514 Y77.494
G1 F2400.000 X82.147 Y84.127 E194.33316
G0 X82.208 Y84.188
G0 F9000.000 X82.090 Y84.565
G1 F2400.000 X75.514 Y77.989 E195.21200
G0 X75.453 Y77.928
G0 F9000.000 X75.514 Y78.484
G1 F2400.000 X82.048 Y85.018 E196.08522
G0 X82.109 Y85.079
G0 F9000.000 X82.027 Y85.492
G1 F2400.000 X75.514 Y78.979 E196.95564
G0 X75.453 Y78.918
G0 F9000.000 X75.514 Y79.474
G1 F2400.000 X82.008 Y85.967 E197.82345
G0 X82.069 Y86.028
G0 F9000.000 X81.987 Y86.442
G1 F2400.000 X75.514 Y79.969 E198.68852
G0 X75.453 Y79.908
G0 F9000.000 X75.514 Y80.464
G1 F2400.000 X82.004 Y86.954 E199.55587
G0 X82.065 Y87.015
G0 F9000.000 X82.026 Y87.471
G1 F2400.000 X75.514 Y80.959 E200.42615
G0 X75.453 Y80.898
G0 F9000.000 X75.514 Y81.454
G1 F2400.000 X82.049 Y87.988 E201.29944
G0 X82.110 Y88.049
G0 F9000.000 X82.103 Y88.538
G1 F2400.000 X75.514 Y81.949 E202.18002
G0 X75.453 Y81.888
G0 F9000.000 X75.514 Y82.444
G1 F2400.000 X82.179 Y89.108 E203.07068
G0 X82.240 Y89.169
G0 F9000.000 X82.254 Y89.678
G1 F2400.000 X75.514 Y82.939 E203.97137
G0 X75.453 Y82.878
G0 F9000.000 X75.514 Y83.434
G1 F2400.000 X82.369 Y90.289 E204.88749
G0 X82.430 Y90.350
G0 F9000.000 X82.510 Y90.925
G1 F2400.000 X75.514 Y83.929 E205.82246
G0 X75.453 Y83.868
G0 F9000.000 X75.514 Y84.424
G1 F2400.000 X82.655 Y91.564 E206.77674
G0 X82.716 Y91.625
G0 F9000.000 X82.882 Y92.286
G1 F2400.000 X75.514 Y84.919 E207.76136
G0 X75.453 Y84.858
G0 F9000.000 X75.514 Y85.414
G1 F2400.000 X83.109 Y93.008 E208.77631
G0 X83.170 Y93.069
G0 F9000.000 X83.429 Y93.823
G1 F2400.000 X75.514 Y85.909 E209.83403
G0 X75.453 Y85.848
G0 F9000.000 X75.514 Y86.404
G1 F2400.000 X83.780 Y94.669 E210.93866
G0 X83.841 Y94.730
G0 F9000.000 X84.301 Y95.685
G1 F2400.000 X75.514 Y86.899 E212.11291
G0 X75.453 Y86.838
G0 F9000.000 X75.514 Y87.394
G1 F2400.000 X84.985 Y96.864 E213.37858
G0 X85.046 Y96.925
G0 F9000.000 X86.153 Y98.527
G1 F2400.000 X75.514 Y87.889 E214.80034
G0 X75.453 Y87.828
G0 F9000.000 X75.514 Y88.384
G1 F2400.000 X144.614 Y157.483 E224.03502
G0 X144.675 Y157.544
G0 F9000.000 X144.119 Y157.483
G1 F2400.000 X75.514 Y88.879 E233.20354
G0 X75.453 Y88.818
G0 F9000.000 X75.514 Y89.374
