;FLAVOR:UltiGCode
;TIME:1238
;MATERIAL:4701
;MATERIAL2:0
;NOZZLE_DIAMETER:0.4

;Generated with Cura_SteamEngine 2.1.3
;LAYER_COUNT:3
;LAYER:0
M107
G0 F9000.000000 X72.045 Y62.508 Z0.270
G0 X73.098 Y61.663
;TYPE:SKIRT
G1 F3000.000 X73.108 Y61.658 E0.00106
G1 X73.239 Y61.600 E0.01460
G1 X73.557 Y61.478 E0.04678
G1 X73.584 Y61.471 E0.04942
G1 X73.690 Y61.443 E0.05978
G1 X74.008 Y61.377 E0.09047
G1 X74.428 Y61.339 E0.13032
G1 X74.498 Y61.335 E0.13695
G1 X74.859 Y61.325 E0.17108
G1 X147.793 Y61.325 E7.06334
G1 X148.499 Y61.335 E7.13006
G1 X148.617 Y61.340 E7.14122
G1 X148.683 Y61.345 E7.14748
G1 X148.989 Y61.373 E7.17652
G1 X149.020 Y61.379 E7.17950
G1 X149.153 Y61.407 E7.19234
G1 X149.467 Y61.488 E7.22299
G1 X149.494 Y61.495 E7.22562
G1 X149.628 Y61.547 E7.23921
G1 X149.951 Y61.687 E7.27247
G1 X149.959 Y61.691 E7.27332
G1 X150.082 Y61.762 E7.28674
G1 X150.371 Y61.947 E7.31917
G1 X150.378 Y61.952 E7.31998
G1 X150.492 Y62.045 E7.33388
G1 X150.756 Y62.281 E7.36735
G1 X150.868 Y62.406 E7.38321
G1 X151.074 Y62.660 E7.41411
G1 X151.081 Y62.669 E7.41519
G1 X151.159 Y62.791 E7.42887
G1 X151.331 Y63.086 E7.46114
G1 X151.340 Y63.103 E7.46296
G1 X151.400 Y63.239 E7.47701
G1 X151.522 Y63.557 E7.50919
G1 X151.529 Y63.584 E7.51183
G1 X151.557 Y63.690 E7.52219
G1 X151.623 Y64.008 E7.55288
G1 X151.661 Y64.428 E7.59273
G1 X151.665 Y64.498 E7.59936
G1 X151.675 Y64.851 E7.63273
G1 X151.675 Y157.793 E16.41575
G1 X151.665 Y158.499 E16.48247
G1 X151.661 Y158.601 E16.49212
G1 X151.657 Y158.667 E16.49837
G1 X151.627 Y158.989 E16.52893
G1 X151.621 Y159.020 E16.53191
G1 X151.593 Y159.153 E16.54476
G1 X151.512 Y159.467 E16.57540
G1 X151.505 Y159.494 E16.57804
G1 X151.453 Y159.628 E16.59162
G1 X151.313 Y159.951 E16.62489
G1 X151.237 Y160.084 E16.63936
G1 X151.052 Y160.372 E16.67171
G1 X151.051 Y160.374 E16.67192
G1 X150.955 Y160.492 E16.68630
G1 X150.719 Y160.756 E16.71976
G1 X150.594 Y160.868 E16.73562
G1 X150.340 Y161.074 E16.76653
G1 X150.339 Y161.075 E16.76666
G1 X150.323 Y161.086 E16.76850
G1 X150.201 Y161.164 E16.78218
G1 X149.906 Y161.335 E16.81440
G1 X149.892 Y161.342 E16.81588
G1 X149.761 Y161.400 E16.82942
G1 X149.443 Y161.522 E16.86161
G1 X149.416 Y161.529 E16.86424
G1 X149.310 Y161.557 E16.87460
G1 X148.992 Y161.623 E16.90529
G1 X148.572 Y161.661 E16.94515
G1 X148.502 Y161.665 E16.95177
G1 X148.141 Y161.675 E16.98590
G1 X75.207 Y161.675 E23.87816
G1 X74.501 Y161.665 E23.94489
G1 X74.383 Y161.660 E23.95605
G1 X74.317 Y161.655 E23.96230
G1 X74.011 Y161.627 E23.99134
G1 X73.980 Y161.621 E23.99432
G1 X73.847 Y161.593 E24.00717
G1 X73.533 Y161.512 E24.03781
G1 X73.506 Y161.505 E24.04045
G1 X73.372 Y161.453 E24.05403
G1 X73.049 Y161.313 E24.08730
G1 X73.041 Y161.309 E24.08814
G1 X72.915 Y161.236 E24.10190
G1 X72.627 Y161.051 E24.13425
G1 X72.622 Y161.048 E24.13480
G1 X72.508 Y160.955 E24.14871
G1 X72.244 Y160.719 E24.18217
G1 X72.132 Y160.594 E24.19803
G1 X71.926 Y160.340 E24.22893
G1 X71.923 Y160.336 E24.22941
G1 X71.914 Y160.323 E24.23090
G1 X71.836 Y160.201 E24.24459
G1 X71.665 Y159.906 E24.27681
G1 X71.658 Y159.892 E24.27829
G1 X71.600 Y159.761 E24.29183
G1 X71.478 Y159.443 E24.32401
G1 X71.471 Y159.416 E24.32665
G1 X71.443 Y159.310 E24.33701
G1 X71.377 Y158.992 E24.36770
G1 X71.339 Y158.572 E24.40755
G1 X71.335 Y158.500 E24.41437
G1 X71.325 Y158.134 E24.44897
G1 X71.325 Y65.207 E33.23057
G1 X71.335 Y64.500 E33.29739
G1 X71.341 Y64.369 E33.30978
G1 X71.346 Y64.301 E33.31622
G1 X71.373 Y64.011 E33.34375
G1 X71.384 Y63.953 E33.34932
G1 X71.407 Y63.847 E33.35957
G1 X71.488 Y63.533 E33.39022
G1 X71.495 Y63.506 E33.39285
G1 X71.547 Y63.372 E33.40644
G1 X71.687 Y63.049 E33.43970
G1 X71.691 Y63.041 E33.44055
G1 X71.763 Y62.916 E33.45418
G1 X71.951 Y62.623 E33.48708
G1 X72.045 Y62.508 E33.50112
G1 X72.281 Y62.244 E33.53458
G1 X72.406 Y62.132 E33.55044
G1 X72.660 Y61.926 E33.58134
G1 X72.661 Y61.925 E33.58148
G1 X72.679 Y61.913 E33.58352
G1 X72.799 Y61.836 E33.59700
G1 X73.097 Y61.663 E33.62956
G1 X73.098 Y61.663 E33.62965
G10
G0 F9000.00000 X73.843 Y62.964
G0 X75.025 Y65.025
G0 X75.053 Y65.053
G0 X75.375 Y65.375
;TYPE:WALL-INNER
G11
G1 F3000.000 X147.625 Y65.375 E40.45728
G1 X147.625 Y157.625 E49.17490
G1 X75.375 Y157.625 E56.00253
G1 X75.375 Y65.375 E64.72015
G0 F9000.00000 X75.025 Y65.025
G1 F3000.000 X147.975 Y65.025 E71.61393
G1 X147.975 Y157.975 E80.39770
G1 X75.025 Y157.975 E87.29148
G1 X75.025 Y65.025 E96.07525
G0 F9000.00000 X74.675 Y64.675
;TYPE:WALL-OUTER
G1 F3000.000 X148.325 Y64.675 E103.03518
G1 X148.325 Y158.325 E111.88510
G1 X74.675 Y158.325 E118.84503
G1 X74.675 Y64.675 E127.69495
G0 F9000.00000 X75.125 Y65.095
G0 X75.514 Y65.615
;TYPE:SKIN
G1 F3000.000 X147.484 Y137.585 E137.31325
G0 X147.545 Y137.646
G0 F9000.000 X147.484 Y138.080
G1 F3000.000 X75.514 Y66.110 E146.93155
G0 X75.453 Y66.049
G0 F9000.000 X75.514 Y66.605
G1 F3000.000 X147.484 Y138.575 E156.54985
G0 X147.545 Y138.636
G0 F9000.000 X147.484 Y139.070
G1 F3000.000 X75.514 Y67.100 E166.16815
G0 X75.453 Y67.039
G0 F9000.000 X75.514 Y67.595
G1 F3000.000 X147.484 Y139.565 E175.78645
G0 X147.545 Y139.626
G0 F9000.000 X147.484 Y140.060
G1 F3000.000 X75.514 Y68.090 E185.40475
G0 X75.453 Y68.029
G0 F9000.000 X75.514 Y68.585
G1 F3000.000 X147.484 Y140.555 E195.02305
G0 X147.545 Y140.616
G0 F9000.000 X147.484 Y141.050
G1 F3000.000 X75.514 Y69.080 E204.64135
G0 X75.453 Y69.019
G0 F9000.000 X75.514 Y69.575
G1 F3000.000 X147.484 Y141.545 E214.25965
G0 X147.545 Y141.606
G0 F9000.000 X147.484 Y142.040
G1 F3000.000 X75.514 Y70.070 E223.87795
G0 X75.453 Y70.009
G0 F9000.000 X75.514 Y70.565
G1 F3000.000 X147.484 Y142.535 E233.49625
G0 X147.545 Y142.596
G0 F9000.000 X147.484 Y143.030
G1 F3000.000 X75.514 Y71.059 E243.11462
G0 X75.453 Y70.998
G0 F9000.000 X75.514 Y71.554
G1 F3000.000 X147.484 Y143.524 E252.73292
G0 X147.545 Y143.585
G0 F9000.000 X147.484 Y144.019
G1 F3000.000 X75.514 Y72.049 E262.35122
G0 X75.453 Y71.988
G0 F9000.000 X75.514 Y72.544
G1 F3000.000 X147.484 Y144.514 E271.96952
G0 X147.545 Y144.575
G0 F9000.000 X147.484 Y145.009
G1 F3000.000 X75.514 Y73.039 E281.58782
G0 X75.453 Y72.978
G0 F9000.000 X75.514 Y73.534
G1 F3000.000 X147.484 Y145.504 E291.20612
G0 X147.545 Y145.565
G0 F9000.000 X147.484 Y145.999
G1 F3000.000 X75.514 Y74.029 E300.82442
G0 X75.453 Y73.968
G0 F9000.000 X75.514 Y74.524
G1 F3000.000 X147.484 Y146.494 E310.44272
G0 X147.545 Y146.555
G0 F9000.000 X147.484 Y146.989
G1 F3000.000 X75.514 Y75.019 E320.06102
G0 X75.453 Y74.958
G0 F9000.000 X75.514 Y75.514
G1 F3000.000 X147.484 Y147.484 E329.67932
G0 X147.545 Y147.545
G0 F9000.000 X147.484 Y147.979
G1 F3000.000 X75.514 Y76.009 E339.29762
G0 X75.453 Y75.948
G0 F9000.000 X75.514 Y76.504
G1 F3000.000 X147.484 Y148.474 E348.91592
G0 X147.545 Y148.535
G0 F9000.000 X147.484 Y148.969
G1 F3000.000 X75.514 Y76.999 E358.53421
G0 X75.453 Y76.938
G0 F9000.000 X75.514 Y77.494
G1 F3000.000 X147.484 Y149.464 E368.15251
G0 X147.545 Y149.525
G0 F9000.000 X147.484 Y149.959
G1 F3000.000 X75.514 Y77.989 E377.77081
G0 X75.453 Y77.928
G0 F9000.000 X75.514 Y78.484
G1 F3000.000 X147.484 Y150.454 E387.38911
G0 X147.545 Y150.515
G0 F9000.000 X147.484 Y150.949
G1 F3000.000 X75.514 Y78.979 E397.00741
G0 X75.453 Y78.918
G0 F9000.000 X75.514 Y79.474
G1 F3000.000 X147.484 Y151.444 E406.62571
G0 X147.545 Y151.505
G0 F9000.000 X147.484 Y151.939
G1 F3000.000 X75.514 Y79.969 E416.24401
G0 X75.453 Y79.908
G0 F9000.000 X75.514 Y80.464
G1 F3000.000 X147.484 Y152.434 E425.86231
G0 X147.545 Y152.495
G0 F9000.000 X147.484 Y152.929
G1 F3000.000 X75.514 Y80.959 E435.48061
G0 X75.453 Y80.898
G0 F9000.000 X75.514 Y81.454
G1 F3000.000 X147.484 Y153.424 E445.09891
G0 X147.545 Y153.485
G0 F9000.000 X147.484 Y153.919
G1 F3000.000 X75.514 Y81.949 E454.71721
G0 X75.453 Y81.888
G0 F9000.000 X75.514 Y82.444
G1 F3000.000 X147.484 Y154.414 E464.33551
G0 X147.545 Y154.475
G0 F9000.000 X147.484 Y154.909
G1 F3000.000 X75.514 Y82.939 E473.95381
G0 X75.453 Y82.878
G0 F9000.000 X75.514 Y83.434
G1 F3000.000 X147.484 Y155.404 E483.57211
G0 X147.545 Y155.465
G0 F9000.000 X147.484 Y155.899
G1 F3000.000 X75.514 Y83.929 E493.19041
G0 X75.453 Y83.868
G0 F9000.000 X75.514 Y84.424
G1 F3000.000 X147.484 Y156.394 E502.80871
G0 X147.545 Y156.455
G0 F9000.000 X147.484 Y156.889
G1 F3000.000 X75.514 Y84.919 E512.42701
G0 X75.453 Y84.858
G0 F9000.000 X75.514 Y85.414
G1 F3000.000 X147.484 Y157.384 E522.04531
G0 X147.545 Y157.445
G0 F9000.000 X147.089 Y157.483
G1 F3000.000 X75.514 Y85.909 E531.61076
G0 X75.453 Y85.848
G0 F9000.000 X75.514 Y86.404
G1 F3000.000 X146.594 Y157.483 E541.11005
G0 X146.655 Y157.544
G0 F9000.000 X146.099 Y157.483
G1 F3000.000 X75.514 Y86.899 E550.54318
G0 X75.453 Y86.838
G0 F9000.000 X75.514 Y87.394
G1 F3000.000 X145.604 Y157.483 E559.91017
G0 X145.665 Y157.544
G0 F9000.000 X145.109 Y157.483
G1 F3000.000 X75.514 Y87.889 E569.21100
G0 X75.453 Y87.828
G0 F9000.000 X75.514 Y88.384
G1 F3000.000 X144.614 Y157.483 E578.44567
G0 X144.675 Y157.544
G0 F9000.000 X144.119 Y157.483
G1 F3000.000 X75.514 Y88.879 E587.61420
G0 X75.453 Y88.818
G0 F9000.000 X75.514 Y89.374
G1 F3000.000 X143.624 Y157.483 E596.71657
G0 X143.685 Y157.544
G0 F9000.000 X143.129 Y157.483
G1 F3000.000 X75.514 Y89.869 E605.75278
G0 X75.453 Y89.808
G0 F9000.000 X75.514 Y90.364
G1 F3000.000 X142.634 Y157.483 E614.72285
G0 X142.695 Y157.544
G0 F9000.000 X142.139 Y157.483
G1 F3000.000 X75.514 Y90.858 E623.62683
G0 X75.453 Y90.797
G0 F9000.000 X75.514 Y91.353
G1 F3000.000 X141.644 Y157.483 E632.46465
G0 X141.705 Y157.544
G0 F9000.000 X141.149 Y157.483
G1 F3000.000 X75.514 Y91.848 E641.23632
G0 X75.453 Y91.787
G0 F9000.000 X75.514 Y92.343
G1 F3000.000 X140.654 Y157.483 E649.94184
G0 X140.715 Y157.544
G0 F9000.000 X140.159 Y157.483
G1 F3000.000 X75.514 Y92.838 E658.58120
G0 X75.453 Y92.777
G0 F9000.000 X75.514 Y93.333
G1 F3000.000 X139.664 Y157.483 E667.15441
G0 X139.725 Y157.544
G0 F9000.000 X139.169 Y157.483
G1 F3000.000 X75.514 Y93.828 E675.66147
G0 X75.453 Y93.767
G0 F9000.000 X75.514 Y94.323
G1 F3000.000 X138.674 Y157.483 E684.10237
G0 X138.735 Y157.544
G0 F9000.000 X138.179 Y157.483
G1 F3000.000 X75.514 Y94.818 E692.47712
G0 X75.453 Y94.757
G0 F9000.000 X75.514 Y95.313
G1 F3000.000 X137.685 Y157.483 E700.78578
G0 X137.746 Y157.544
G0 F9000.000 X137.190 Y157.483
G1 F3000.000 X75.514 Y95.808 E709.02829
G0 X75.453 Y95.747
G0 F9000.000 X75.514 Y96.303
G1 F3000.000 X136.695 Y157.483 E717.20465
G0 X136.756 Y157.544
G0 F9000.000 X136.200 Y157.483
G1 F3000.000 X75.514 Y96.798 E725.31485
G0 X75.453 Y96.737
G0 F9000.000 X75.514 Y97.293
G1 F3000.000 X135.705 Y157.483 E733.35890
G0 X135.766 Y157.544
G0 F9000.000 X135.210 Y157.483
G1 F3000.000 X75.514 Y97.788 E741.33680
G0 X75.453 Y97.727
G0 F9000.000 X75.514 Y98.283
G1 F3000.000 X134.715 Y157.483 E749.24854
G0 X134.776 Y157.544
G0 F9000.000 X134.220 Y157.483
G1 F3000.000 X75.514 Y98.778 E757.09413
G0 X75.453 Y98.717
G0 F9000.000 X75.514 Y99.273
G1 F3000.000 X133.725 Y157.483 E764.87357
G0 X133.786 Y157.544
G0 F9000.000 X133.230 Y157.483
G1 F3000.000 X75.514 Y99.768 E772.58685
G0 X75.453 Y99.707
G0 F9000.000 X75.514 Y100.263
G1 F3000.000 X132.735 Y157.483 E780.23398
G0 X132.796 Y157.544
G0 F9000.000 X132.240 Y157.483
G1 F3000.000 X75.514 Y100.758 E787.81496
G0 X75.453 Y100.697
G0 F9000.000 X75.514 Y101.253
G1 F3000.000 X131.745 Y157.483 E795.32978
G0 X131.806 Y157.544
G0 F9000.000 X131.250 Y157.483
G1 F3000.000 X75.514 Y101.748 E802.77845
G0 X75.453 Y101.687
G0 F9000.000 X75.514 Y102.243
G1 F3000.000 X130.755 Y157.483 E810.16097
G0 X130.816 Y157.544
G0 F9000.000 X130.260 Y157.483
G1 F3000.000 X75.514 Y102.738 E817.47733
G0 X75.453 Y102.677
G0 F9000.000 X75.514 Y103.233
G1 F3000.000 X129.765 Y157.483 E824.72754
G0 X129.826 Y157.544
G0 F9000.000 X129.270 Y157.483
G1 F3000.000 X75.514 Y103.728 E831.91160
G0 X75.453 Y103.667
G0 F9000.000 X75.514 Y104.223
G1 F3000.000 X128.775 Y157.483 E839.02950
G0 X128.836 Y157.544
G0 F9000.000 X128.280 Y157.483
G1 F3000.000 X75.514 Y104.718 E846.08125
G0 X75.453 Y104.657
G0 F9000.000 X75.514 Y105.213
G1 F3000.000 X127.785 Y157.483 E853.06684
G0 X127.846 Y157.544
G0 F9000.000 X127.290 Y157.483
G1 F3000.000 X75.514 Y105.708 E859.98629
G0 X75.453 Y105.647
G0 F9000.000 X75.514 Y106.203
G1 F3000.000 X126.795 Y157.483 E866.83957
G0 X126.856 Y157.544
G0 F9000.000 X126.300 Y157.483
G1 F3000.000 X75.514 Y106.698 E873.62671
G0 X75.453 Y106.637
G0 F9000.000 X75.514 Y107.193
G1 F3000.000 X125.805 Y157.483 E880.34769
G0 X125.866 Y157.544
G0 F9000.000 X125.310 Y157.483
G1 F3000.000 X75.514 Y107.688 E887.00252
G0 X75.453 Y107.627
G0 F9000.000 X75.514 Y108.183
G1 F3000.000 X124.815 Y157.483 E893.59120
G0 X124.876 Y157.544
G0 F9000.000 X124.320 Y157.483
G1 F3000.000 X75.514 Y108.678 E900.11372
G0 X75.453 Y108.617
G0 F9000.000 X75.514 Y109.173
G1 F3000.000 X123.825 Y157.483 E906.57009
G0 X123.886 Y157.544
G0 F9000.000 X123.330 Y157.483
G1 F3000.000 X75.514 Y109.668 E912.96030
G0 X75.453 Y109.607
G0 F9000.000 X75.514 Y110.162
G1 F3000.000 X122.835 Y157.483 E919.28443
G0 X122.896 Y157.544
G0 F9000.000 X122.340 Y157.483
G1 F3000.000 X75.514 Y110.657 E925.54241
G0 X75.453 Y110.596
G0 F9000.000 X75.514 Y111.152
G1 F3000.000 X121.845 Y157.483 E931.73423
G0 X121.906 Y157.544
G0 F9000.000 X121.350 Y157.483
G1 F3000.000 X75.514 Y111.647 E937.85990
G0 X75.453 Y111.586
G0 F9000.000 X75.514 Y112.142
G1 F3000.000 X120.855 Y157.483 E943.91942
G0 X120.916 Y157.544
G0 F9000.000 X120.360 Y157.483
G1 F3000.000 X75.514 Y112.637 E949.91278
G0 X75.453 Y112.576
G0 F9000.000 X75.514 Y113.132
G1 F3000.000 X119.865 Y157.483 E955.83999
G0 X119.926 Y157.544
G0 F9000.000 X119.370 Y157.483
G1 F3000.000 X75.514 Y113.627 E961.70104
G0 X75.453 Y113.566
G0 F9000.000 X75.514 Y114.122
G1 F3000.000 X118.875 Y157.483 E967.49594
G0 X118.936 Y157.544
G0 F9000.000 X118.380 Y157.483
G1 F3000.000 X75.514 Y114.617 E973.22469
G0 X75.453 Y114.556
G0 F9000.000 X75.514 Y115.112
G1 F3000.000 X117.886 Y157.483 E978.88735
G0 X117.947 Y157.544
G0 F9000.000 X117.391 Y157.483
G1 F3000.000 X75.514 Y115.607 E984.48386
G0 X75.453 Y115.546
G0 F9000.000 X75.514 Y116.102
G1 F3000.000 X116.896 Y157.483 E990.01422
G0 X116.957 Y157.544
G0 F9000.000 X116.401 Y157.483
G1 F3000.000 X75.514 Y116.597 E995.47842
G0 X75.453 Y116.536
G0 F9000.000 X75.514 Y117.092
G1 F3000.000 X115.906 Y157.483 E1000.87647
G0 X115.967 Y157.544
G0 F9000.000 X115.411 Y157.483
G1 F3000.000 X75.514 Y117.587 E1006.20836
G0 X75.453 Y117.526
G0 F9000.000 X75.514 Y118.082
G1 F3000.000 X114.916 Y157.483 E1011.47411
G0 X114.977 Y157.544
G0 F9000.000 X114.421 Y157.483
G1 F3000.000 X75.514 Y118.577 E1016.67369
G0 X75.453 Y118.516
G0 F9000.000 X75.514 Y119.072
G1 F3000.000 X113.926 Y157.483 E1021.80713
G0 X113.987 Y157.544
G0 F9000.000 X113.431 Y157.483
G1 F3000.000 X75.514 Y119.567 E1026.87441
G0 X75.453 Y119.506
G0 F9000.000 X75.514 Y120.062
G1 F3000.000 X112.936 Y157.483 E1031.87554
G0 X112.997 Y157.544
G0 F9000.000 X112.441 Y157.483
G1 F3000.000 X75.514 Y120.557 E1036.81051
G0 X75.453 Y120.496
G0 F9000.000 X75.514 Y121.052
G1 F3000.000 X111.946 Y157.483 E1041.67934
G0 X112.007 Y157.544
G0 F9000.000 X111.451 Y157.483
G1 F3000.000 X75.514 Y121.547 E1046.48200
G0 X75.453 Y121.486
G0 F9000.000 X75.514 Y122.042
G1 F3000.000 X110.956 Y157.483 E1051.21852
G0 X111.017 Y157.544
G0 F9000.000 X110.461 Y157.483
G1 F3000.000 X75.514 Y122.537 E1055.88888
G0 X75.453 Y122.476
G0 F9000.000 X75.514 Y123.032
G1 F3000.000 X109.966 Y157.483 E1060.49309
G0 X110.027 Y157.544
G0 F9000.000 X109.471 Y157.483
G1 F3000.000 X75.514 Y123.527 E1065.03114
G0 X75.453 Y123.466
G0 F9000.000 X75.514 Y124.022
G1 F3000.000 X108.976 Y157.483 E1069.50304
G0 X109.037 Y157.544
G0 F9000.000 X108.481 Y157.483
G1 F3000.000 X75.514 Y124.517 E1073.90879
G0 X75.453 Y124.456
G0 F9000.000 X75.514 Y125.012
G1 F3000.000 X107.986 Y157.483 E1078.24839
G0 X108.047 Y157.544
G0 F9000.000 X107.491 Y157.483
G1 F3000.000 X75.514 Y125.507 E1082.52183
G0 X75.453 Y125.446
G0 F9000.000 X75.514 Y126.002
G1 F3000.000 X106.996 Y157.483 E1086.72912
G0 X107.057 Y157.544
G0 F9000.000 X106.501 Y157.483
G1 F3000.000 X75.514 Y126.497 E1090.87025
G0 X75.453 Y126.436
G0 F9000.000 X75.514 Y126.992
