;FLAVOR:UltiGCode
;TIME:2048
;MATERIAL:1641
;MATERIAL2:0
;NOZZLE_DIAMETER:0.4

;Generated with Cura_SteamEngine 2.1.3
;LAYER_COUNT:58
;LAYER:0
M107
G10
G0 F7200.000000 X107.575 Y67.185 Z0.270
G0 X107.890 Y66.779
;TYPE:SKIRT
G11
G1 F1200.000 X108.280 Y66.407 E0.05093
G1 X108.706 Y66.110 E0.10001
G1 X109.194 Y65.869 E0.15144
G1 X109.662 Y65.719 E0.19788
G1 X109.675 Y65.716 E0.19914
G1 X110.394 Y65.623 E0.26765
G1 X110.496 Y65.613 E0.27734
G1 X110.657 Y65.607 E0.29257
G1 X111.031 Y65.603 E0.32791
G1 X111.753 Y65.602 E0.39614
G1 X113.325 Y65.624 E0.54471
G1 X116.154 Y65.622 E0.81205
G1 X116.309 Y65.618 E0.82670
G1 X117.630 Y65.603 E0.95154
G1 X118.418 Y65.602 E1.02601
G1 X119.079 Y65.611 E1.08848
G1 X119.254 Y65.619 E1.10503
G1 X119.577 Y65.648 E1.13568
G1 X120.040 Y65.745 E1.18038
G1 X120.061 Y65.750 E1.18242
G1 X120.581 Y65.944 E1.23487
G1 X121.027 Y66.192 E1.28310
G1 X121.459 Y66.527 E1.33476
G1 X121.813 Y66.899 E1.38328
G1 X121.815 Y66.901 E1.38355
G1 X122.115 Y67.330 E1.43302
G1 X122.121 Y67.339 E1.43404
G1 X122.345 Y67.790 E1.48163
G1 X122.354 Y67.808 E1.48353
G1 X122.514 Y68.309 E1.53323
G1 X122.533 Y68.376 E1.53981
G1 X122.663 Y69.044 E1.60412
G1 X122.920 Y70.477 E1.74170
G1 X123.498 Y73.245 E2.00892
G1 X124.044 Y75.552 E2.23296
G1 X124.056 Y75.608 E2.23837
G1 X124.059 Y75.632 E2.24065
G1 X124.085 Y75.879 E2.26412
G1 X124.108 Y76.175 E2.29218
G1 X124.125 Y77.101 E2.37970
G1 X124.125 Y153.515 E9.60082
G1 X124.115 Y154.249 E9.67019
G1 X124.108 Y154.406 E9.68505
G1 X124.081 Y154.714 E9.71426
G1 X123.972 Y155.232 E9.76429
G1 X123.971 Y155.235 E9.76458
G1 X123.797 Y155.702 E9.81168
G1 X123.794 Y155.710 E9.81249
G1 X123.517 Y156.208 E9.86634
G1 X123.499 Y156.237 E9.86956
G1 X123.500 Y156.237 E9.86966
G1 X123.499 Y156.238 E9.86979
G1 X123.450 Y156.302 E9.87741
G1 X123.322 Y156.460 E9.89663
G1 X123.150 Y156.661 E9.92162
G1 X122.526 Y157.306 E10.00643
G1 X122.078 Y157.742 E10.06551
G1 X121.971 Y157.839 E10.07916
G1 X121.737 Y158.035 E10.10800
G1 X121.280 Y158.333 E10.15956
G1 X120.824 Y158.541 E10.20692
G1 X120.815 Y158.545 E10.20785
G1 X120.306 Y158.689 E10.25784
G1 X120.232 Y158.707 E10.26504
G1 X120.231 Y158.708 E10.26517
G1 X120.165 Y158.716 E10.27145
G1 X119.966 Y158.737 E10.29036
G1 X119.667 Y158.760 E10.31870
G1 X118.768 Y158.775 E10.40367
G1 X117.316 Y158.775 E10.54088
G1 X116.050 Y158.757 E10.66053
G1 X112.911 Y158.762 E10.95717
G1 X112.154 Y158.775 E11.02872
G1 X110.707 Y158.775 E11.16546
G1 X110.001 Y158.765 E11.23218
G1 X109.844 Y158.758 E11.24703
G1 X109.536 Y158.731 E11.27625
G1 X109.018 Y158.622 E11.32627
G1 X109.015 Y158.621 E11.32657
G1 X108.537 Y158.442 E11.37481
G1 X108.038 Y158.164 E11.42879
G1 X108.013 Y158.150 E11.43149
G1 X107.995 Y158.136 E11.43365
G1 X107.912 Y158.072 E11.44355
G1 X107.801 Y157.981 E11.45712
G1 X107.593 Y157.804 E11.48293
G1 X106.932 Y157.167 E11.56968
G1 X106.512 Y156.734 E11.62668
G1 X106.401 Y156.613 E11.64220
G1 X106.202 Y156.374 E11.67159
G1 X105.956 Y155.996 E11.71421
G1 X105.922 Y155.940 E11.72040
G1 X105.706 Y155.466 E11.76962
G1 X105.562 Y154.958 E11.81952
G1 X105.543 Y154.882 E11.82692
G1 X105.529 Y154.770 E11.83759
G1 X105.513 Y154.618 E11.85203
G1 X105.493 Y154.352 E11.87724
G1 X105.475 Y153.366 E11.97043
G1 X105.475 Y76.957 E19.19108
G1 X105.485 Y76.250 E19.25790
G1 X105.492 Y76.094 E19.27266
G1 X105.519 Y75.786 E19.30188
G1 X105.629 Y75.267 E19.35201
G1 X106.261 Y72.522 E19.61820
G1 X106.984 Y68.832 E19.97354
G1 X106.984 Y68.830 E19.97373
G1 X107.128 Y68.146 E20.03978
G1 X107.129 Y68.143 E20.04008
G1 X107.308 Y67.665 E20.08831
G1 X107.575 Y67.185 E20.14022
G1 X107.888 Y66.781 E20.18851
G1 X107.890 Y66.779 E20.18878
G0 F7200.00000 X108.660 Y66.554
G1 F1200.000 X108.661 Y66.553 E20.18892
G1 X108.679 Y66.541 E20.19096
G1 X108.799 Y66.464 E20.20443
G1 X109.099 Y66.290 E20.23721
G1 X109.108 Y66.286 E20.23814
G1 X109.239 Y66.228 E20.25168
G1 X109.557 Y66.106 E20.28386
G1 X109.584 Y66.099 E20.28650
G1 X109.690 Y66.071 E20.29686
G1 X110.010 Y66.004 E20.32776
G1 X110.429 Y65.967 E20.36750
G1 X110.499 Y65.963 E20.37413
G1 X110.844 Y65.953 E20.40675
G1 X111.772 Y65.952 E20.49444
G1 X113.506 Y65.976 E20.65832
G1 X116.371 Y65.955 E20.92907
G1 X116.371 Y65.961 E20.92964
G1 X117.441 Y65.953 E21.03076
G1 X118.418 Y65.952 E21.12308
G1 X119.079 Y65.961 E21.18555
G1 X119.216 Y65.967 E21.19851
G1 X119.281 Y65.972 E21.20467
G1 X119.586 Y66.000 E21.23362
G1 X119.617 Y66.006 E21.23660
G1 X119.748 Y66.033 E21.24924
G1 X120.081 Y66.118 E21.28172
G1 X120.093 Y66.122 E21.28291
G1 X120.230 Y66.175 E21.29679
G1 X120.546 Y66.313 E21.32938
G1 X120.561 Y66.321 E21.33099
G1 X120.681 Y66.390 E21.34407
G1 X120.965 Y66.571 E21.37589
G1 X120.976 Y66.579 E21.37718
G1 X120.980 Y66.582 E21.37765
G1 X121.099 Y66.678 E21.39210
G1 X121.330 Y66.884 E21.42135
G1 X121.354 Y66.906 E21.42442
G1 X121.465 Y67.031 E21.44022
G1 X121.673 Y67.286 E21.47132
G1 X121.676 Y67.290 E21.47179
G1 X121.757 Y67.415 E21.48587
G1 X121.932 Y67.718 E21.51893
G1 X121.937 Y67.726 E21.51983
G1 X121.992 Y67.852 E21.53282
G1 X122.119 Y68.181 E21.56614
G1 X122.120 Y68.185 E21.56653
G1 X122.130 Y68.220 E21.56997
G1 X122.158 Y68.327 E21.58043
G1 X122.232 Y68.677 E21.61423
G1 X122.340 Y69.274 E21.67156
G1 X122.884 Y72.050 E21.93889
G1 X123.587 Y75.144 E22.23872
G1 X123.621 Y75.283 E22.25224
G1 X123.708 Y75.676 E22.29028
G1 X123.765 Y76.268 E22.34648
G1 X123.773 Y76.518 E22.37012
G1 X123.775 Y76.688 E22.38619
G1 X123.775 Y153.543 E29.64898
G1 X123.765 Y154.249 E29.71571
G1 X123.760 Y154.367 E29.72687
G1 X123.757 Y154.417 E29.73160
G1 X123.727 Y154.739 E29.76216
G1 X123.721 Y154.770 E29.76515
G1 X123.693 Y154.903 E29.77799
G1 X123.605 Y155.244 E29.81127
G1 X123.553 Y155.378 E29.82485
G1 X123.413 Y155.701 E29.85812
G1 X123.409 Y155.709 E29.85897
G1 X123.337 Y155.834 E29.87260
G1 X123.204 Y156.041 E29.89585
G1 X122.813 Y156.515 E29.95392
G1 X122.666 Y156.672 E29.97424
G1 X122.547 Y156.793 E29.99028
G1 X122.374 Y156.966 E30.01340
G1 X121.831 Y157.493 E30.08491
G1 X121.725 Y157.590 E30.09848
G1 X121.458 Y157.812 E30.13130
G1 X121.457 Y157.813 E30.13143
G1 X121.441 Y157.824 E30.13327
G1 X121.354 Y157.881 E30.14310
G1 X121.020 Y158.078 E30.17974
G1 X121.019 Y158.078 E30.17983
G1 X120.880 Y158.140 E30.19422
G1 X120.559 Y158.266 E30.22680
G1 X120.407 Y158.306 E30.24166
G1 X120.154 Y158.361 E30.26612
G1 X119.599 Y158.415 E30.31882
G1 X119.593 Y158.415 E30.31939
G1 X119.372 Y158.422 E30.34028
G1 X119.090 Y158.425 E30.36693
G1 X117.304 Y158.425 E30.53571
G1 X116.455 Y158.413 E30.61595
G1 X113.986 Y158.413 E30.84927
G1 X113.986 Y158.411 E30.84946
G1 X113.772 Y158.413 E30.86968
G1 X113.626 Y158.413 E30.88348
G1 X113.533 Y158.415 E30.89227
G1 X112.490 Y158.425 E30.99084
G1 X110.707 Y158.425 E31.15933
G1 X110.001 Y158.415 E31.22605
G1 X109.883 Y158.410 E31.23722
G1 X109.817 Y158.405 E31.24347
G1 X109.511 Y158.377 E31.27251
G1 X109.480 Y158.371 E31.27549
G1 X109.347 Y158.343 E31.28834
G1 X109.033 Y158.262 E31.31898
G1 X109.006 Y158.255 E31.32162
G1 X108.872 Y158.203 E31.33520
G1 X108.549 Y158.063 E31.36847
G1 X108.541 Y158.059 E31.36931
G1 X108.416 Y157.987 E31.38294
G1 X108.209 Y157.854 E31.40619
G1 X107.737 Y157.464 E31.46405
G1 X107.546 Y157.285 E31.48879
G1 X107.486 Y157.226 E31.49674
G1 X107.226 Y156.966 E31.53149
G1 X106.760 Y156.486 E31.59471
G1 X106.682 Y156.401 E31.60561
G1 X106.657 Y156.372 E31.60923
G1 X106.439 Y156.110 E31.64144
G1 X106.438 Y156.109 E31.64157
G1 X106.423 Y156.088 E31.64401
G1 X106.363 Y155.995 E31.65447
G1 X106.169 Y155.667 E31.69048
G1 X106.173 Y155.673 E31.69116
G1 X106.113 Y155.540 E31.70495
G1 X105.985 Y155.213 E31.73814
G1 X105.944 Y155.060 E31.75311
G1 X105.888 Y154.802 E31.77806
G1 X105.835 Y154.250 E31.83046
G1 X105.835 Y154.239 E31.83150
G1 X105.828 Y154.033 E31.85098
G1 X105.825 Y153.730 E31.87961
G1 X105.825 Y76.957 E39.13466
G1 X105.835 Y76.250 E39.20148
G1 X105.840 Y76.132 E39.21264
G1 X105.845 Y76.067 E39.21880
G1 X105.873 Y75.761 E39.24784
G1 X105.879 Y75.730 E39.25082
G1 X105.927 Y75.501 E39.27293
G1 X105.978 Y75.283 E39.29409
G1 X105.984 Y75.259 E39.29643
G1 X106.071 Y74.885 E39.33271
G1 X106.066 Y74.884 E39.33320
G1 X106.395 Y73.519 E39.46588
G1 X106.980 Y70.751 E39.73324
G1 X107.262 Y69.253 E39.87728
G1 X107.376 Y68.620 E39.93806
G1 X107.409 Y68.466 E39.95295
G1 X107.488 Y68.161 E39.98272
G1 X107.495 Y68.134 E39.98536
G1 X107.547 Y68.000 E39.99894
G1 X107.687 Y67.677 E40.03221
G1 X107.691 Y67.669 E40.03305
G1 X107.763 Y67.544 E40.04669
G1 X107.950 Y67.252 E40.07945
G1 X108.045 Y67.136 E40.09362
G1 X108.282 Y66.871 E40.12722
G1 X108.406 Y66.760 E40.14295
G1 X108.660 Y66.554 E40.17385
G10
G0 F7200.00000 X114.028 Y67.598
G0 X115.561 Y68.939
G0 X117.624 Y69.653
G0 X117.652 Y69.681
G0 X117.652 Y75.803
G0 X116.962 Y76.125
;TYPE:WALL-INNER
G11
G1 F1200.000 X119.236 Y76.125 E40.38874
G1 X119.725 Y76.613 E40.45403
G1 X119.725 Y84.031 E41.15503
G1 X119.533 Y84.110 E41.17465
G1 X119.277 Y83.852 E41.20900
G1 X119.010 Y83.666 E41.23975
G1 X118.733 Y83.537 E41.26862
G1 X118.411 Y83.448 E41.30019
G1 X118.099 Y83.420 E41.32979
G1 X117.788 Y83.448 E41.35930
G1 X117.466 Y83.537 E41.39087
G1 X117.189 Y83.666 E41.41975
G1 X116.922 Y83.852 E41.45050
G1 X116.666 Y84.110 E41.48484
G1 X116.474 Y84.031 E41.50446
G1 X116.474 Y76.613 E42.20547
G1 X116.962 Y76.125 E42.27068
G0 F7200.00000 X116.605 Y85.511
G0 X116.931 Y86.657
G1 F1200.000 X117.181 Y86.831 E42.29947
G1 X117.474 Y86.968 E42.33003
G1 X117.789 Y87.051 E42.36082
G1 X118.099 Y87.080 E42.39024
G1 X118.410 Y87.051 E42.41976
G1 X118.725 Y86.968 E42.45054
G1 X119.018 Y86.831 E42.48111
G1 X119.268 Y86.657 E42.50989
G1 X119.534 Y86.392 E42.54537
G1 X119.725 Y86.472 E42.56494
G1 X119.725 Y89.031 E42.80677
G1 X119.533 Y89.110 E42.82639
G1 X119.277 Y88.852 E42.86073
G1 X119.010 Y88.666 E42.89148
G1 X118.733 Y88.537 E42.92036
G1 X118.411 Y88.448 E42.95193
G1 X118.099 Y88.420 E42.98153
G1 X117.788 Y88.448 E43.01104
G1 X117.466 Y88.537 E43.04261
G1 X117.189 Y88.666 E43.07149
G1 X116.922 Y88.852 E43.10224
G1 X116.666 Y89.110 E43.13658
G1 X116.474 Y89.031 E43.15620
G1 X116.474 Y86.472 E43.39803
G1 X116.665 Y86.392 E43.41760
G1 X116.931 Y86.657 E43.45308
G0 F7200.00000 X116.581 Y90.250
G0 X116.922 Y91.649
G1 F1200.000 X117.189 Y91.835 E43.48383
G1 X117.466 Y91.964 E43.51271
G1 X117.788 Y92.053 E43.54428
G1 X118.099 Y92.081 E43.57378
G1 X118.411 Y92.053 E43.60339
G1 X118.733 Y91.964 E43.63496
G1 X119.010 Y91.835 E43.66383
G1 X119.277 Y91.649 E43.69458
G1 X119.533 Y91.391 E43.72893
G1 X119.725 Y91.470 E43.74855
G1 X119.725 Y94.031 E43.99056
G1 X119.533 Y94.110 E44.01018
G1 X119.277 Y93.852 E44.04453
G1 X119.010 Y93.666 E44.07528
G1 X118.733 Y93.537 E44.10416
G1 X118.411 Y93.448 E44.13573
G1 X118.099 Y93.420 E44.16533
G1 X117.788 Y93.448 E44.19484
G1 X117.466 Y93.537 E44.22641
G1 X117.189 Y93.666 E44.25528
G1 X116.922 Y93.852 E44.28603
G1 X116.666 Y94.110 E44.32038
G1 X116.474 Y94.031 E44.34000
G1 X116.474 Y91.470 E44.58201
G1 X116.666 Y91.391 E44.60163
G1 X116.922 Y91.649 E44.63598
G0 F7200.00000 X116.581 Y95.250
G0 X116.677 Y95.772
G0 X116.931 Y96.657
G1 F1200.000 X117.181 Y96.831 E44.66476
G1 X117.474 Y96.968 E44.69533
G1 X117.789 Y97.051 E44.72611
G1 X118.099 Y97.080 E44.75554
G1 X118.410 Y97.051 E44.78505
G1 X118.725 Y96.968 E44.81584
G1 X119.018 Y96.831 E44.84640
G1 X119.268 Y96.657 E44.87519
G1 X119.534 Y96.392 E44.91067
G1 X119.725 Y96.472 E44.93024
G1 X119.725 Y99.031 E45.17206
G1 X119.533 Y99.110 E45.19168
G1 X119.277 Y98.852 E45.22603
G1 X119.010 Y98.666 E45.25678
G1 X118.733 Y98.537 E45.28566
G1 X118.411 Y98.448 E45.31723
G1 X118.099 Y98.420 E45.34683
G1 X117.788 Y98.448 E45.37634
G1 X117.466 Y98.537 E45.40791
G1 X117.189 Y98.666 E45.43678
G1 X116.922 Y98.852 E45.46753
G1 X116.666 Y99.110 E45.50188
G1 X116.474 Y99.031 E45.52150
G1 X116.474 Y96.472 E45.76332
G1 X116.665 Y96.392 E45.78289
G1 X116.931 Y96.657 E45.81838
G0 F7200.00000 X116.581 Y100.250
G0 X116.677 Y100.772
G0 X116.931 Y101.657
G1 F1200.000 X117.184 Y101.833 E45.84750
G1 X117.474 Y101.968 E45.87773
G1 X117.783 Y102.052 E45.90799
G1 X118.099 Y102.081 E45.93798
G1 X118.416 Y102.052 E45.96806
G1 X118.725 Y101.968 E45.99832
G1 X119.015 Y101.833 E46.02855
G1 X119.268 Y101.657 E46.05767
G1 X119.534 Y101.392 E46.09315
G1 X119.725 Y101.471 E46.11269
G1 X119.725 Y104.031 E46.35461
G1 X119.533 Y104.110 E46.37423
G1 X119.277 Y103.852 E46.40857
G1 X119.010 Y103.666 E46.43932
G1 X118.733 Y103.537 E46.46820
G1 X118.411 Y103.448 E46.49977
G1 X118.099 Y103.420 E46.52937
G1 X117.788 Y103.448 E46.55888
G1 X117.466 Y103.537 E46.59045
G1 X117.189 Y103.666 E46.61933
G1 X116.922 Y103.852 E46.65008
G1 X116.666 Y104.110 E46.68442
G1 X116.474 Y104.031 E46.70404
G1 X116.474 Y101.471 E46.94596
G1 X116.665 Y101.392 E46.96549
G1 X116.931 Y101.657 E47.00098
G0 F7200.00000 X116.581 Y105.250
G0 X116.677 Y105.772
G0 X116.931 Y106.657
G1 F1200.000 X117.184 Y106.833 E47.03010
G1 X117.474 Y106.968 E47.06033
G1 X117.783 Y107.052 E47.09059
G1 X118.099 Y107.081 E47.12058
G1 X118.416 Y107.052 E47.15066
G1 X118.725 Y106.968 E47.18092
G1 X119.015 Y106.833 E47.21115
G1 X119.268 Y106.657 E47.24027
G1 X119.534 Y106.392 E47.27576
G1 X119.725 Y106.471 E47.29529
G1 X119.725 Y109.030 E47.53711
G1 X119.534 Y109.109 E47.55665
G1 X119.268 Y108.844 E47.59213
G1 X119.015 Y108.668 E47.62125
G1 X118.725 Y108.533 E47.65148
G1 X118.416 Y108.449 E47.68174
G1 X118.099 Y108.420 E47.71182
G1 X117.783 Y108.449 E47.74181
G1 X117.474 Y108.533 E47.77207
G1 X117.184 Y108.668 E47.80230
G1 X116.931 Y108.844 E47.83143
G1 X116.665 Y109.109 E47.86691
G1 X116.474 Y109.030 E47.88644
G1 X116.474 Y106.471 E48.12827
G1 X116.665 Y106.392 E48.14780
G1 X116.931 Y106.657 E48.18328
G0 F7200.00000 X116.581 Y110.250
G0 X116.921 Y111.649
G1 F1200.000 X117.188 Y111.834 E48.21398
G1 X117.473 Y111.967 E48.24370
G1 X117.791 Y112.052 E48.27480
G1 X118.099 Y112.080 E48.30403
G1 X118.408 Y112.052 E48.33335
G1 X118.726 Y111.967 E48.36446
G1 X119.011 Y111.834 E48.39418
G1 X119.278 Y111.649 E48.42487
G1 X119.533 Y111.391 E48.45915
G1 X119.725 Y111.470 E48.47877
G1 X119.725 Y114.030 E48.72069
G1 X119.533 Y114.109 E48.74031
G1 X119.277 Y113.851 E48.77466
G1 X119.010 Y113.665 E48.80541
G1 X118.733 Y113.536 E48.83429
G1 X118.411 Y113.447 E48.86586
G1 X118.099 Y113.419 E48.89546
G1 X117.788 Y113.447 E48.92497
G1 X117.466 Y113.536 E48.95654
G1 X117.189 Y113.665 E48.98541
G1 X116.922 Y113.851 E49.01616
G1 X116.666 Y114.109 E49.05051
G1 X116.474 Y114.030 E49.07013
G1 X116.474 Y111.470 E49.31205
G1 X116.666 Y111.391 E49.33167
G1 X116.921 Y111.649 E49.36595
G0 F7200.00000 X116.581 Y115.250
G0 X116.677 Y115.771
G0 X116.931 Y116.656
G1 F1200.000 X117.184 Y116.832 E49.39507
G1 X117.474 Y116.967 E49.42530
G1 X117.783 Y117.051 E49.45556
G1 X118.099 Y117.080 E49.48555
G1 X118.416 Y117.051 E49.51563
G1 X118.725 Y116.967 E49.54589
G1 X119.015 Y116.832 E49.57612
G1 X119.268 Y116.656 E49.60525
G1 X119.534 Y116.391 E49.64073
G1 X119.725 Y116.470 E49.66026
G1 X119.725 Y119.030 E49.90218
G1 X119.533 Y119.109 E49.92180
G1 X119.277 Y118.851 E49.95615
G1 X119.010 Y118.665 E49.98690
G1 X118.733 Y118.536 E50.01577
G1 X118.411 Y118.447 E50.04734
G1 X118.099 Y118.419 E50.07694
G1 X117.788 Y118.447 E50.10645
G1 X117.466 Y118.536 E50.13802
G1 X117.189 Y118.665 E50.16690
G1 X116.922 Y118.851 E50.19765
G1 X116.666 Y119.109 E50.23200
G1 X116.474 Y119.030 E50.25162
G1 X116.474 Y116.470 E50.49354
G1 X116.665 Y116.391 E50.51307
G1 X116.931 Y116.656 E50.54855
G0 F7200.00000 X116.581 Y120.250
G0 X116.677 Y120.771
G0 X116.931 Y121.656
G1 F1200.000 X117.184 Y121.832 E50.57768
G1 X117.474 Y121.967 E50.60790
G1 X117.783 Y122.051 E50.63816
G1 X118.099 Y122.080 E50.66815
G1 X118.416 Y122.051 E50.69823
G1 X118.725 Y121.967 E50.72849
G1 X119.015 Y121.832 E50.75872
G1 X119.268 Y121.656 E50.78785
G1 X119.534 Y121.391 E50.82333
G1 X119.725 Y121.470 E50.84286
G1 X119.725 Y124.029 E51.08469
G1 X119.534 Y124.108 E51.10422
G1 X119.268 Y123.843 E51.13970
G1 X119.015 Y123.667 E51.16883
G1 X118.725 Y123.532 E51.19906
G1 X118.416 Y123.448 E51.22932
G1 X118.099 Y123.419 E51.25940
G1 X117.783 Y123.448 E51.28938
G1 X117.474 Y123.532 E51.31965
