;FLAVOR:UltiGCode
;TIME:964
;MATERIAL:646
;MATERIAL2:0
;NOZZLE_DIAMETER:0.4

;Generated with Cura_SteamEngine 2.1.3
;LAYER_COUNT:58
;LAYER:0
M107
G10
G0 F7200.000000 X105.035 Y102.910 Z0.270
G0 X105.035 Y102.911
;TYPE:SKIRT
G11
G1 F1200.000 X105.035 Y102.910 E0.00009
G1 X105.070 Y102.878 E0.00458
G1 X105.089 Y102.861 E0.00699
G1 X105.224 Y102.751 E0.02344
G1 X105.489 Y102.544 E0.05522
G1 X105.592 Y102.477 E0.06683
G1 X105.672 Y102.428 E0.07570
G1 X105.992 Y102.243 E0.11063
G1 X106.122 Y102.182 E0.12420
G1 X106.168 Y102.162 E0.12894
G1 X106.523 Y102.016 E0.16521
G1 X106.569 Y102.002 E0.16975
G1 X106.768 Y101.946 E0.18929
G1 X107.082 Y101.866 E0.21991
G1 X107.086 Y101.865 E0.22030
G1 X107.211 Y101.848 E0.23222
G1 X107.417 Y101.825 E0.25181
G1 X107.726 Y101.799 E0.28111
G1 X108.922 Y101.775 E0.39416
G1 X114.422 Y101.775 E0.91391
G1 X114.781 Y101.780 E0.94784
G1 X116.919 Y101.774 E1.14988
G1 X116.919 Y101.775 E1.14997
G1 X123.412 Y101.775 E1.76356
G1 X123.812 Y101.781 E1.80137
G1 X124.680 Y101.823 E1.88349
G1 X124.689 Y101.824 E1.88434
G1 X124.702 Y101.826 E1.88559
G1 X124.802 Y101.843 E1.89517
G1 X124.921 Y101.866 E1.90663
G1 X125.236 Y101.937 E1.93714
G1 X125.271 Y101.946 E1.94055
G1 X125.348 Y101.970 E1.94818
G1 X125.453 Y102.006 E1.95867
G1 X125.802 Y102.136 E1.99386
G1 X125.819 Y102.144 E1.99564
G1 X125.830 Y102.149 E1.99678
G1 X125.882 Y102.173 E2.00219
G1 X126.003 Y102.234 E2.01500
G1 X126.322 Y102.407 E2.04929
G1 X126.325 Y102.408 E2.04959
G1 X126.393 Y102.453 E2.05729
G1 X126.522 Y102.543 E2.07216
G1 X126.794 Y102.743 E2.10406
G1 X126.905 Y102.840 E2.11799
G1 X126.923 Y102.857 E2.12033
G1 X127.209 Y103.134 E2.15796
G1 X127.241 Y103.169 E2.16244
G1 X127.244 Y103.172 E2.16284
G1 X127.364 Y103.317 E2.18063
G1 X127.575 Y103.588 E2.21308
G1 X127.636 Y103.682 E2.22367
G1 X127.688 Y103.766 E2.23301
G1 X127.874 Y104.088 E2.26815
G1 X127.876 Y104.091 E2.26849
G1 X127.937 Y104.221 E2.28206
G1 X127.957 Y104.267 E2.28680
G1 X128.103 Y104.622 E2.32307
G1 X128.117 Y104.668 E2.32762
G1 X128.169 Y104.852 E2.34569
G1 X128.253 Y105.181 E2.37777
G1 X128.254 Y105.185 E2.37816
G1 X128.271 Y105.310 E2.39009
G1 X128.294 Y105.516 E2.40967
G1 X128.320 Y105.825 E2.43898
G1 X128.344 Y107.021 E2.55202
G1 X128.344 Y115.513 E3.35452
G1 X128.338 Y115.913 E3.39232
G1 X128.296 Y116.778 E3.47416
G1 X128.296 Y116.783 E3.47463
G1 X128.295 Y116.790 E3.47530
G1 X128.294 Y116.800 E3.47625
G1 X128.276 Y116.903 E3.48613
G1 X128.253 Y117.022 E3.49758
G1 X128.182 Y117.337 E3.52810
G1 X128.174 Y117.370 E3.53131
G1 X128.154 Y117.434 E3.53764
G1 X128.110 Y117.563 E3.55052
G1 X127.983 Y117.903 E3.58482
G1 X127.978 Y117.915 E3.58605
G1 X127.945 Y117.984 E3.59328
G1 X127.890 Y118.094 E3.60490
G1 X127.716 Y118.417 E3.63957
G1 X127.672 Y118.485 E3.64722
G1 X127.580 Y118.618 E3.66251
G1 X127.383 Y118.886 E3.69394
G1 X127.373 Y118.899 E3.69549
G1 X127.279 Y119.006 E3.70895
G1 X127.262 Y119.024 E3.71129
G1 X126.991 Y119.304 E3.74811
G1 X126.959 Y119.334 E3.75226
G1 X126.931 Y119.359 E3.75580
G1 X126.796 Y119.469 E3.77226
G1 X126.531 Y119.676 E3.80404
G1 X126.428 Y119.743 E3.81565
G1 X126.351 Y119.790 E3.82417
G1 X126.028 Y119.977 E3.85944
G1 X125.903 Y120.036 E3.87251
G1 X125.852 Y120.058 E3.87775
G1 X125.497 Y120.204 E3.91403
G1 X125.451 Y120.218 E3.91857
G1 X125.252 Y120.274 E3.93811
G1 X124.938 Y120.354 E3.96873
G1 X124.934 Y120.355 E3.96912
G1 X124.809 Y120.372 E3.98104
G1 X124.603 Y120.395 E4.00063
G1 X124.294 Y120.421 E4.02993
G1 X123.098 Y120.445 E4.14298
G1 X122.779 Y120.445 E4.17312
G1 X122.201 Y120.437 E4.22775
G1 X119.491 Y120.445 E4.48384
G1 X117.596 Y120.445 E4.66292
G1 X117.237 Y120.440 E4.69685
G1 X115.099 Y120.446 E4.89889
G1 X115.099 Y120.445 E4.89899
G1 X113.761 Y120.445 E5.02543
G1 X113.183 Y120.437 E5.08005
G1 X110.473 Y120.445 E5.33615
G1 X108.608 Y120.445 E5.51239
G1 X108.208 Y120.439 E5.55020
G1 X107.343 Y120.397 E5.63204
G1 X107.338 Y120.397 E5.63251
G1 X107.331 Y120.396 E5.63318
G1 X107.318 Y120.394 E5.63442
G1 X107.218 Y120.377 E5.64400
G1 X107.099 Y120.354 E5.65546
G1 X106.784 Y120.283 E5.68597
G1 X106.749 Y120.274 E5.68939
G1 X106.672 Y120.250 E5.69701
G1 X106.558 Y120.211 E5.70840
G1 X106.218 Y120.084 E5.74269
G1 X106.201 Y120.076 E5.74447
G1 X106.190 Y120.071 E5.74561
G1 X106.137 Y120.046 E5.75115
G1 X106.017 Y119.986 E5.76383
G1 X105.698 Y119.813 E5.79812
G1 X105.685 Y119.805 E5.79956
G1 X105.627 Y119.767 E5.80612
G1 X105.488 Y119.670 E5.82213
G1 X105.228 Y119.478 E5.85268
G1 X105.222 Y119.474 E5.85336
G1 X105.115 Y119.380 E5.86682
G1 X105.097 Y119.363 E5.86916
G1 X104.808 Y119.083 E5.90718
G1 X104.772 Y119.043 E5.91227
G1 X104.762 Y119.032 E5.91367
G1 X104.652 Y118.897 E5.93013
G1 X104.444 Y118.631 E5.96204
G1 X104.378 Y118.529 E5.97352
G1 X104.322 Y118.437 E5.98370
G1 X104.144 Y118.129 E6.01732
G1 X104.080 Y117.992 E6.03161
G1 X104.063 Y117.953 E6.03563
G1 X103.917 Y117.598 E6.07190
G1 X103.903 Y117.552 E6.07644
G1 X103.847 Y117.353 E6.09598
G1 X103.767 Y117.039 E6.12660
G1 X103.766 Y117.035 E6.12699
G1 X103.746 Y116.885 E6.14129
G1 X103.726 Y116.704 E6.15850
G1 X103.700 Y116.395 E6.18780
G1 X103.676 Y115.199 E6.30085
G1 X103.676 Y106.707 E7.10334
G1 X103.682 Y106.307 E7.14115
G1 X103.724 Y105.442 E7.22298
G1 X103.726 Y105.420 E7.22507
G1 X103.727 Y105.417 E7.22537
G1 X103.744 Y105.317 E7.23496
G1 X103.770 Y105.183 E7.24786
G1 X103.838 Y104.883 E7.27692
G1 X103.847 Y104.848 E7.28034
G1 X103.874 Y104.761 E7.28895
G1 X103.910 Y104.657 E7.29935
G1 X104.042 Y104.305 E7.33487
G1 X104.045 Y104.300 E7.33543
G1 X104.050 Y104.289 E7.33657
G1 X104.075 Y104.236 E7.34210
G1 X104.135 Y104.116 E7.35478
G1 X104.312 Y103.790 E7.38984
G1 X104.354 Y103.726 E7.39707
G1 X104.444 Y103.597 E7.41194
G1 X104.643 Y103.327 E7.44363
G1 X104.651 Y103.317 E7.44484
G1 X104.741 Y103.214 E7.45777
G1 X104.758 Y103.196 E7.46011
G1 X105.035 Y102.911 E7.49767
G0 F7200.00000 X105.377 Y103.075
G1 F1200.000 X105.402 Y103.054 E7.50075
G1 X105.597 Y102.905 E7.52394
G1 X105.821 Y102.744 E7.55001
G1 X105.826 Y102.740 E7.55062
G1 X106.113 Y102.580 E7.58167
G1 X106.292 Y102.487 E7.60073
G1 X106.299 Y102.483 E7.60149
G1 X106.651 Y102.349 E7.63708
G1 X106.821 Y102.290 E7.65409
G1 X107.178 Y102.210 E7.68866
G1 X107.386 Y102.170 E7.70868
G1 X107.502 Y102.158 E7.71970
G1 X107.575 Y102.152 E7.72662
G1 X107.619 Y102.150 E7.73078
G1 X108.868 Y102.125 E7.84884
G1 X114.392 Y102.125 E8.37086
G1 X114.746 Y102.130 E8.40431
G1 X116.919 Y102.124 E8.60966
G1 X116.919 Y102.125 E8.60976
G1 X123.412 Y102.125 E9.22334
G1 X124.118 Y102.135 E9.29007
G1 X124.295 Y102.143 E9.30681
G1 X124.661 Y102.174 E9.34152
G1 X124.994 Y102.242 E9.37364
G1 X125.195 Y102.289 E9.39315
G1 X125.532 Y102.409 E9.42695
G1 X125.727 Y102.486 E9.44676
G1 X125.741 Y102.492 E9.44820
G1 X125.983 Y102.621 E9.47412
G1 X126.193 Y102.740 E9.49693
G1 X126.203 Y102.746 E9.49803
G1 X126.485 Y102.952 E9.53103
G1 X126.643 Y103.075 E9.54995
G1 X126.930 Y103.357 E9.58798
G1 X127.033 Y103.464 E9.60201
G1 X127.040 Y103.471 E9.60295
G1 X127.065 Y103.501 E9.60664
G1 X127.214 Y103.696 E9.62983
G1 X127.375 Y103.920 E9.65590
G1 X127.379 Y103.925 E9.65650
G1 X127.539 Y104.212 E9.68755
G1 X127.627 Y104.381 E9.70556
G1 X127.636 Y104.398 E9.70738
G1 X127.770 Y104.750 E9.74297
G1 X127.829 Y104.920 E9.75998
G1 X127.904 Y105.254 E9.79233
G1 X127.949 Y105.484 E9.81447
G1 X127.961 Y105.601 E9.82559
G1 X127.967 Y105.674 E9.83251
G1 X127.969 Y105.707 E9.83563
G1 X127.994 Y106.967 E9.95473
G1 X127.994 Y115.513 E10.76232
G1 X127.984 Y116.219 E10.82905
G1 X127.976 Y116.396 E10.84579
G1 X127.945 Y116.762 E10.88050
G1 X127.878 Y117.093 E10.91242
G1 X127.830 Y117.296 E10.93213
G1 X127.710 Y117.632 E10.96584
G1 X127.633 Y117.828 E10.98574
G1 X127.628 Y117.839 E10.98689
G1 X127.498 Y118.084 E11.01310
G1 X127.390 Y118.275 E11.03383
G1 X127.373 Y118.304 E11.03701
G1 X127.167 Y118.586 E11.07001
G1 X127.044 Y118.744 E11.08893
G1 X126.762 Y119.031 E11.12695
G1 X126.654 Y119.135 E11.14112
G1 X126.644 Y119.144 E11.14239
G1 X126.618 Y119.166 E11.14561
G1 X126.423 Y119.315 E11.16880
G1 X126.205 Y119.472 E11.19419
G1 X126.194 Y119.480 E11.19548
G1 X125.907 Y119.640 E11.22653
G1 X125.728 Y119.733 E11.24559
G1 X125.721 Y119.737 E11.24635
G1 X125.369 Y119.871 E11.28195
G1 X125.199 Y119.930 E11.29895
G1 X124.842 Y120.010 E11.33352
G1 X124.634 Y120.050 E11.35354
G1 X124.518 Y120.062 E11.36456
G1 X124.445 Y120.068 E11.37148
G1 X124.401 Y120.070 E11.37564
G1 X123.152 Y120.095 E11.49370
G1 X122.811 Y120.095 E11.52592
G1 X122.241 Y120.087 E11.57979
G1 X119.248 Y120.095 E11.86263
G1 X117.626 Y120.095 E12.01591
G1 X117.272 Y120.090 E12.04937
G1 X115.099 Y120.096 E12.25472
G1 X115.099 Y120.095 E12.25481
G1 X113.791 Y120.095 E12.37842
G1 X113.221 Y120.087 E12.43229
G1 X110.226 Y120.095 E12.71532
G1 X108.608 Y120.095 E12.86822
G1 X107.902 Y120.085 E12.93494
G1 X107.725 Y120.077 E12.95169
G1 X107.359 Y120.046 E12.98640
G1 X107.026 Y119.978 E13.01851
G1 X106.825 Y119.931 E13.03802
G1 X106.484 Y119.809 E13.07225
G1 X106.293 Y119.734 E13.09164
G1 X106.279 Y119.728 E13.09308
G1 X106.028 Y119.594 E13.11996
G1 X105.827 Y119.480 E13.14180
G1 X105.817 Y119.474 E13.14290
G1 X105.535 Y119.268 E13.17591
G1 X105.377 Y119.145 E13.19483
G1 X105.090 Y118.863 E13.23285
G1 X104.973 Y118.741 E13.24882
G1 X104.955 Y118.719 E13.25151
G1 X104.806 Y118.524 E13.27470
G1 X104.645 Y118.300 E13.30077
G1 X104.641 Y118.294 E13.30145
G1 X104.480 Y118.007 E13.33255
G1 X104.388 Y117.829 E13.35148
G1 X104.384 Y117.822 E13.35225
G1 X104.250 Y117.470 E13.38784
G1 X104.191 Y117.300 E13.40484
G1 X104.111 Y116.943 E13.43942
G1 X104.071 Y116.735 E13.45943
G1 X104.059 Y116.619 E13.47045
G1 X104.052 Y116.533 E13.47861
G1 X104.050 Y116.482 E13.48343
G1 X104.026 Y115.253 E13.59959
G1 X104.026 Y106.688 E14.40899
G1 X104.036 Y106.000 E14.47401
G1 X104.044 Y105.824 E14.49066
G1 X104.075 Y105.458 E14.52537
G1 X104.143 Y105.125 E14.55749
G1 X104.190 Y104.924 E14.57699
G1 X104.311 Y104.586 E14.61092
G1 X104.389 Y104.387 E14.63112
G1 X104.392 Y104.381 E14.63175
G1 X104.393 Y104.378 E14.63205
G1 X104.532 Y104.118 E14.65991
G1 X104.641 Y103.926 E14.68078
G1 X104.647 Y103.916 E14.68188
G1 X104.853 Y103.634 E14.71488
G1 X104.976 Y103.476 E14.73380
G1 X105.258 Y103.189 E14.77182
G1 X105.373 Y103.078 E14.78693
G1 X105.377 Y103.075 E14.78740
G0 F7200.00000 X105.291 Y103.651
G1 F1200.000 X105.681 Y103.279 E14.83833
G1 X106.107 Y102.982 E14.88741
G1 X106.595 Y102.741 E14.93884
G1 X107.063 Y102.591 E14.98528
G1 X107.076 Y102.588 E14.98654
G1 X107.798 Y102.494 E15.05535
G1 X107.890 Y102.486 E15.06408
G1 X108.068 Y102.479 E15.08091
G1 X108.444 Y102.475 E15.11644
G1 X114.379 Y102.475 E15.67730
G1 X114.447 Y102.476 E15.68373
G1 X117.112 Y102.480 E15.93557
G1 X117.530 Y102.475 E15.97507
G1 X123.412 Y102.475 E16.53092
G1 X124.118 Y102.485 E16.59765
G1 X124.275 Y102.492 E16.61250
G1 X124.583 Y102.519 E16.64172
G1 X125.101 Y102.628 E16.69174
G1 X125.104 Y102.629 E16.69204
G1 X125.582 Y102.808 E16.74027
G1 X126.062 Y103.075 E16.79218
G1 X126.462 Y103.385 E16.84000
G1 X126.468 Y103.390 E16.84074
G1 X126.840 Y103.780 E16.89167
G1 X127.137 Y104.206 E16.94075
G1 X127.372 Y104.680 E16.99074
G1 X127.377 Y104.691 E16.99188
G1 X127.524 Y105.149 E17.03734
G1 X127.531 Y105.175 E17.03988
G1 X127.625 Y105.897 E17.10869
G1 X127.633 Y105.989 E17.11742
G1 X127.640 Y106.167 E17.13425
G1 X127.644 Y106.543 E17.16978
G1 X127.644 Y115.513 E18.01745
G1 X127.634 Y116.219 E18.08417
G1 X127.627 Y116.376 E18.09902
G1 X127.600 Y116.684 E18.12824
G1 X127.491 Y117.202 E18.17826
G1 X127.490 Y117.205 E18.17856
G1 X127.311 Y117.683 E18.22680
G1 X127.044 Y118.163 E18.27870
G1 X126.734 Y118.563 E18.32653
G1 X126.731 Y118.567 E18.32700
G1 X126.339 Y118.941 E18.37820
G1 X125.913 Y119.238 E18.42727
G1 X125.425 Y119.479 E18.47871
G1 X124.957 Y119.629 E18.52515
G1 X124.944 Y119.632 E18.52641
G1 X124.222 Y119.726 E18.59521
G1 X124.130 Y119.734 E18.60394
G1 X123.952 Y119.741 E18.62077
G1 X123.576 Y119.745 E18.65631
G1 X122.832 Y119.745 E18.72662
G1 X122.550 Y119.741 E18.75327
G1 X119.977 Y119.738 E18.99642
G1 X119.371 Y119.745 E19.05369
G1 X117.639 Y119.745 E19.21736
G1 X117.571 Y119.744 E19.22379
G1 X114.906 Y119.740 E19.47563
G1 X114.488 Y119.745 E19.51513
G1 X113.815 Y119.745 E19.57873
G1 X113.533 Y119.741 E19.60538
G1 X110.958 Y119.738 E19.84872
G1 X110.352 Y119.745 E19.90599
G1 X108.608 Y119.745 E20.07080
G1 X107.902 Y119.735 E20.13752
G1 X107.745 Y119.728 E20.15238
G1 X107.437 Y119.701 E20.18159
G1 X106.919 Y119.592 E20.23162
G1 X106.916 Y119.591 E20.23192
G1 X106.438 Y119.412 E20.28015
G1 X105.958 Y119.145 E20.33205
G1 X105.558 Y118.835 E20.37988
G1 X105.552 Y118.830 E20.38062
G1 X105.180 Y118.440 E20.43155
G1 X104.883 Y118.014 E20.48062
G1 X104.642 Y117.526 E20.53206
G1 X104.492 Y117.058 E20.57850
G1 X104.489 Y117.045 E20.57976
G1 X104.395 Y116.323 E20.64856
G1 X104.386 Y116.220 E20.65833
G1 X104.380 Y116.053 E20.67413
G1 X104.376 Y115.677 E20.70966
G1 X104.376 Y106.707 E21.55733
G1 X104.386 Y106.000 E21.62414
G1 X104.393 Y105.844 E21.63890
G1 X104.420 Y105.536 E21.66812
G1 X104.529 Y105.018 E21.71814
G1 X104.530 Y105.015 E21.71844
G1 X104.709 Y104.537 E21.76667
G1 X104.976 Y104.057 E21.81858
G1 X105.289 Y103.653 E21.86687
G1 X105.291 Y103.651 E21.86714
G0 F7200.00000 X106.499 Y103.163
G1 F1200.000 X106.509 Y103.158 E21.86820
G1 X106.640 Y103.100 E21.88174
G1 X106.958 Y102.978 E21.91392
G1 X106.985 Y102.971 E21.91656
G1 X107.091 Y102.943 E21.92692
G1 X107.409 Y102.877 E21.95761
G1 X107.829 Y102.839 E21.99746
G1 X107.899 Y102.835 E22.00409
G1 X108.260 Y102.825 E22.03822
G1 X114.621 Y102.825 E22.63933
G1 X116.490 Y102.831 E22.81595
G1 X117.281 Y102.825 E22.89070
G1 X123.412 Y102.825 E23.47008
G1 X124.118 Y102.835 E23.53681
G1 X124.236 Y102.840 E23.54797
G1 X124.302 Y102.845 E23.55422
G1 X124.608 Y102.873 E23.58326
G1 X124.639 Y102.879 E23.58625
G1 X124.772 Y102.907 E23.59909
G1 X125.086 Y102.988 E23.62973
G1 X125.113 Y102.995 E23.63237
G1 X125.247 Y103.047 E23.64595
G1 X125.570 Y103.187 E23.67922
G1 X125.578 Y103.191 E23.68007
G1 X125.701 Y103.262 E23.69349
G1 X125.990 Y103.447 E23.72591
G1 X125.997 Y103.452 E23.72673
G1 X126.111 Y103.545 E23.74063
G1 X126.375 Y103.781 E23.77409
G1 X126.487 Y103.906 E23.78995
G1 X126.693 Y104.160 E23.82086
G1 X126.700 Y104.169 E23.82194
G1 X126.778 Y104.291 E23.83562
G1 X126.950 Y104.586 E23.86789
G1 X126.959 Y104.603 E23.86971
G1 X127.019 Y104.739 E23.88375
G1 X127.141 Y105.057 E23.91594
G1 X127.148 Y105.084 E23.91858
G1 X127.176 Y105.190 E23.92894
G1 X127.242 Y105.508 E23.95963
G1 X127.280 Y105.928 E23.99948
G1 X127.284 Y105.998 E24.00611
G1 X127.294 Y106.351 E24.03948
G1 X127.294 Y115.513 E24.90529
G1 X127.284 Y116.219 E24.97201
G1 X127.280 Y116.321 E24.98166
G1 X127.276 Y116.387 E24.98791
G1 X127.246 Y116.709 E25.01847
G1 X127.240 Y116.740 E25.02145
G1 X127.212 Y116.873 E25.03429
G1 X127.131 Y117.187 E25.06494
G1 X127.124 Y117.214 E25.06757
G1 X127.072 Y117.348 E25.08116
G1 X126.932 Y117.671 E25.11443
G1 X126.856 Y117.804 E25.12890
G1 X126.671 Y118.092 E25.16125
G1 X126.670 Y118.094 E25.16146
G1 X126.574 Y118.212 E25.17583
G1 X126.338 Y118.476 E25.20930
G1 X126.213 Y118.588 E25.22516
G1 X125.959 Y118.794 E25.25606
G1 X125.958 Y118.795 E25.25620
G1 X125.942 Y118.806 E25.25803
G1 X125.820 Y118.884 E25.27172
G1 X125.525 Y119.055 E25.30394
G1 X125.511 Y119.062 E25.30542
G1 X125.380 Y119.120 E25.31896
G1 X125.062 Y119.242 E25.35114
G1 X125.035 Y119.249 E25.35378
G1 X124.929 Y119.277 E25.36414
G1 X124.611 Y119.343 E25.39483
G1 X124.191 Y119.381 E25.43468
G1 X124.121 Y119.385 E25.44131
G1 X123.760 Y119.395 E25.47544
G1 X122.862 Y119.395 E25.56030
G1 X122.792 Y119.394 E25.56691
G1 X120.587 Y119.387 E25.77529
G1 X119.544 Y119.395 E25.87385
G1 X117.397 Y119.395 E26.07674
G1 X115.528 Y119.389 E26.25337
G1 X114.737 Y119.395 E26.32812
G1 X113.842 Y119.395 E26.41269
G1 X113.772 Y119.394 E26.41931
G1 X111.566 Y119.387 E26.62778
G1 X110.524 Y119.395 E26.72625
G1 X108.608 Y119.395 E26.90731
G1 X107.902 Y119.385 E26.97404
G1 X107.784 Y119.380 E26.98520
G1 X107.718 Y119.375 E26.99145
G1 X107.412 Y119.347 E27.02049
