;FLAVOR:UltiGCode
;TIME:1662
;MATERIAL:1277
;MATERIAL2:0
;NOZZLE_DIAMETER:0.4

;Generated with Cura_SteamEngine 2.1.3
;LAYER_COUNT:48
;LAYER:0
M107
G10
G0 F7200.000000 X110.929 Y96.873 Z0.270
G0 X111.329 Y96.473
;TYPE:SKIRT
G11
G1 F1200.000 X111.355 Y96.451 E0.00322
G1 X111.550 Y96.302 E0.02641
G1 X111.774 Y96.141 E0.05248
G1 X111.779 Y96.137 E0.05308
G1 X112.066 Y95.977 E0.08413
G1 X112.245 Y95.884 E0.10320
G1 X112.252 Y95.880 E0.10396
G1 X112.604 Y95.746 E0.13955
G1 X112.774 Y95.687 E0.15656
G1 X113.131 Y95.607 E0.19113
G1 X113.339 Y95.567 E0.21115
G1 X113.455 Y95.555 E0.22217
G1 X113.528 Y95.549 E0.22909
G1 X113.572 Y95.547 E0.23325
G1 X114.821 Y95.522 E0.35130
G1 X139.147 Y95.522 E2.65011
G1 X139.853 Y95.532 E2.71684
G1 X140.030 Y95.540 E2.73358
G1 X140.396 Y95.571 E2.76829
G1 X140.729 Y95.639 E2.80041
G1 X140.930 Y95.686 E2.81991
G1 X141.267 Y95.806 E2.85372
G1 X141.462 Y95.883 E2.87353
G1 X141.476 Y95.889 E2.87497
G1 X141.718 Y96.018 E2.90089
G1 X141.928 Y96.137 E2.92370
G1 X141.938 Y96.143 E2.92480
G1 X142.220 Y96.349 E2.95780
G1 X142.378 Y96.472 E2.97672
G1 X142.665 Y96.754 E3.01475
G1 X142.768 Y96.861 E3.02878
G1 X142.775 Y96.868 E3.02972
G1 X142.800 Y96.898 E3.03341
G1 X142.949 Y97.093 E3.05660
G1 X143.110 Y97.317 E3.08267
G1 X143.114 Y97.322 E3.08327
G1 X143.274 Y97.609 E3.11432
G1 X143.367 Y97.788 E3.13338
G1 X143.371 Y97.795 E3.13415
G1 X143.505 Y98.147 E3.16974
G1 X143.564 Y98.317 E3.18674
G1 X143.639 Y98.651 E3.21909
G1 X143.684 Y98.881 E3.24124
G1 X143.696 Y98.998 E3.25236
G1 X143.702 Y99.071 E3.25928
G1 X143.704 Y99.115 E3.26344
G1 X143.729 Y100.364 E3.38149
G1 X143.729 Y101.667 E3.50463
G1 X143.719 Y102.396 E3.57352
G1 X143.711 Y102.573 E3.59027
G1 X143.680 Y102.939 E3.62498
G1 X143.613 Y103.271 E3.65698
G1 X143.565 Y103.473 E3.67661
G1 X143.445 Y103.809 E3.71032
G1 X143.368 Y104.005 E3.73022
G1 X143.363 Y104.016 E3.73136
G1 X143.233 Y104.261 E3.75757
G1 X143.114 Y104.471 E3.78038
G1 X143.108 Y104.481 E3.78149
G1 X142.434 Y105.404 E3.88949
G1 X141.755 Y106.302 E3.99588
G1 X140.115 Y108.606 E4.26313
G1 X138.541 Y110.956 E4.53042
G1 X137.033 Y113.349 E4.79771
G1 X135.427 Y116.077 E5.09686
G1 X135.107 Y116.641 E5.15814
G1 X134.902 Y116.922 E5.19101
G1 X134.779 Y117.080 E5.20993
G1 X134.497 Y117.367 E5.24796
G1 X134.382 Y117.478 E5.26306
G1 X134.379 Y117.480 E5.26340
G1 X134.353 Y117.502 E5.26662
G1 X134.158 Y117.651 E5.28981
G1 X133.934 Y117.812 E5.31588
G1 X133.929 Y117.816 E5.31649
G1 X133.642 Y117.976 E5.34754
G1 X133.463 Y118.069 E5.36660
G1 X133.456 Y118.073 E5.36736
G1 X133.104 Y118.207 E5.40295
G1 X132.934 Y118.266 E5.41996
G1 X132.577 Y118.346 E5.45453
G1 X132.369 Y118.386 E5.47455
G1 X131.214 Y118.575 E5.58515
G1 X130.697 Y118.652 E5.63454
G1 X127.913 Y119.147 E5.90176
G1 X125.143 Y119.722 E6.16910
G1 X122.391 Y120.374 E6.43637
G1 X119.658 Y121.104 E6.70369
G1 X118.593 Y121.422 E6.80872
G1 X117.602 Y121.705 E6.90612
G1 X117.223 Y121.790 E6.94282
G1 X117.015 Y121.830 E6.96284
G1 X116.899 Y121.842 E6.97386
G1 X116.826 Y121.848 E6.98078
G1 X116.782 Y121.850 E6.98494
G1 X115.533 Y121.875 E7.10300
G1 X107.207 Y121.875 E7.88980
G1 X106.501 Y121.865 E7.95653
G1 X106.324 Y121.857 E7.97327
G1 X105.958 Y121.826 E8.00798
G1 X105.625 Y121.758 E8.04010
G1 X105.424 Y121.711 E8.05960
G1 X105.083 Y121.589 E8.09383
G1 X104.892 Y121.514 E8.11322
G1 X104.878 Y121.508 E8.11466
G1 X104.627 Y121.374 E8.14155
G1 X104.426 Y121.260 E8.16339
G1 X104.416 Y121.254 E8.16449
G1 X104.134 Y121.048 E8.19749
G1 X103.976 Y120.925 E8.21641
G1 X103.689 Y120.643 E8.25443
G1 X103.572 Y120.521 E8.27041
G1 X103.554 Y120.499 E8.27309
G1 X103.405 Y120.304 E8.29629
G1 X103.244 Y120.080 E8.32235
G1 X103.240 Y120.074 E8.32304
G1 X103.079 Y119.787 E8.35413
G1 X102.987 Y119.609 E8.37307
G1 X102.983 Y119.602 E8.37383
G1 X102.849 Y119.250 E8.40942
G1 X102.790 Y119.080 E8.42643
G1 X102.705 Y118.698 E8.46341
G1 X102.670 Y118.515 E8.48102
G1 X102.657 Y118.390 E8.49289
G1 X102.652 Y118.321 E8.49943
G1 X102.649 Y118.262 E8.50501
G1 X102.625 Y117.028 E8.62165
G1 X102.625 Y112.113 E9.08612
G1 X102.635 Y111.406 E9.15293
G1 X102.643 Y111.230 E9.16958
G1 X102.674 Y110.864 E9.20429
G1 X102.742 Y110.531 E9.23641
G1 X102.789 Y110.330 E9.25592
G1 X102.910 Y109.992 E9.28984
G1 X102.988 Y109.793 E9.31004
G1 X102.991 Y109.787 E9.31068
G1 X102.992 Y109.784 E9.31098
G1 X103.121 Y109.542 E9.33689
G1 X103.765 Y108.408 E9.46013
G1 X104.103 Y107.832 E9.52324
G1 X105.467 Y105.354 E9.79054
G1 X106.138 Y104.045 E9.92955
G1 X106.621 Y103.136 E10.02682
G1 X106.740 Y102.926 E10.04963
G1 X106.750 Y102.910 E10.05142
G1 X107.083 Y102.454 E10.10477
G1 X108.719 Y100.147 E10.37204
G1 X110.362 Y97.681 E10.65206
G1 X110.593 Y97.323 E10.69233
G1 X110.806 Y97.031 E10.72648
G1 X110.929 Y96.873 E10.74540
G1 X111.211 Y96.586 E10.78343
G1 X111.326 Y96.475 E10.79853
G1 X111.329 Y96.473 E10.79887
G0 F7200.00000 X111.244 Y97.048
G1 F1200.000 X111.634 Y96.676 E10.84980
G1 X112.060 Y96.379 E10.89888
G1 X112.548 Y96.138 E10.95031
G1 X113.016 Y95.988 E10.99675
G1 X113.029 Y95.985 E10.99801
G1 X113.751 Y95.891 E11.06682
G1 X113.843 Y95.883 E11.07555
G1 X114.021 Y95.876 E11.09238
G1 X114.397 Y95.872 E11.12791
G1 X139.147 Y95.872 E13.46679
G1 X139.853 Y95.882 E13.53351
G1 X140.010 Y95.889 E13.54836
G1 X140.318 Y95.916 E13.57758
G1 X140.836 Y96.025 E13.62760
G1 X140.839 Y96.026 E13.62790
G1 X141.317 Y96.205 E13.67614
G1 X141.797 Y96.472 E13.72804
G1 X142.197 Y96.782 E13.77587
G1 X142.203 Y96.787 E13.77660
G1 X142.575 Y97.177 E13.82754
G1 X142.872 Y97.603 E13.87661
G1 X143.107 Y98.077 E13.92661
G1 X143.112 Y98.088 E13.92775
G1 X143.259 Y98.546 E13.97320
G1 X143.266 Y98.572 E13.97575
G1 X143.360 Y99.294 E14.04455
G1 X143.368 Y99.386 E14.05328
G1 X143.375 Y99.564 E14.07011
G1 X143.379 Y99.940 E14.10565
G1 X143.379 Y101.690 E14.27102
G1 X143.369 Y102.396 E14.33775
G1 X143.362 Y102.553 E14.35260
G1 X143.335 Y102.861 E14.38182
G1 X143.226 Y103.379 E14.43184
G1 X143.225 Y103.382 E14.43214
G1 X143.046 Y103.860 E14.48037
G1 X142.771 Y104.355 E14.53388
G1 X142.753 Y104.384 E14.53711
G1 X142.754 Y104.384 E14.53720
G1 X142.745 Y104.395 E14.53855
G1 X141.350 Y106.249 E14.75781
G1 X139.714 Y108.556 E15.02507
G1 X138.144 Y110.909 E15.29238
G1 X136.641 Y113.305 E15.55967
G1 X134.830 Y116.415 E15.89976
G1 X134.783 Y116.494 E15.90845
G1 X134.469 Y116.899 E15.95687
G1 X134.466 Y116.903 E15.95735
G1 X134.074 Y117.277 E16.00855
G1 X133.648 Y117.574 E16.05762
G1 X133.160 Y117.815 E16.10905
G1 X132.692 Y117.965 E16.15550
G1 X132.604 Y117.990 E16.16414
G1 X132.191 Y118.058 E16.20370
G1 X131.150 Y118.208 E16.30309
G1 X128.363 Y118.690 E16.57037
G1 X125.591 Y119.251 E16.83763
G1 X122.835 Y119.889 E17.10496
G1 X120.099 Y120.606 E17.37224
G1 X118.591 Y121.055 E17.52093
G1 X118.590 Y121.053 E17.52114
G1 X117.325 Y121.412 E17.64541
G1 X116.603 Y121.506 E17.71421
G1 X116.511 Y121.514 E17.72294
G1 X116.333 Y121.521 E17.73977
G1 X115.957 Y121.525 E17.77531
G1 X107.207 Y121.525 E18.60218
G1 X106.501 Y121.515 E18.66891
G1 X106.344 Y121.508 E18.68376
G1 X106.036 Y121.481 E18.71297
G1 X105.518 Y121.372 E18.76300
G1 X105.515 Y121.371 E18.76330
G1 X105.037 Y121.192 E18.81153
G1 X104.557 Y120.925 E18.86344
G1 X104.157 Y120.615 E18.91126
G1 X104.151 Y120.610 E18.91200
G1 X103.779 Y120.220 E18.96293
G1 X103.482 Y119.794 E19.01200
G1 X103.241 Y119.306 E19.06344
G1 X103.091 Y118.838 E19.10988
G1 X103.088 Y118.825 E19.11114
G1 X102.994 Y118.103 E19.17994
G1 X102.985 Y118.000 E19.18972
G1 X102.979 Y117.833 E19.20551
G1 X102.975 Y117.457 E19.24104
G1 X102.975 Y112.113 E19.74605
G1 X102.985 Y111.406 E19.81287
G1 X102.992 Y111.250 E19.82762
G1 X103.019 Y110.942 E19.85684
G1 X103.128 Y110.424 E19.90686
G1 X103.129 Y110.421 E19.90716
G1 X103.308 Y109.943 E19.95540
G1 X103.942 Y108.805 E20.07850
G1 X104.487 Y107.870 E20.18077
G1 X106.340 Y104.433 E20.54977
G1 X106.719 Y103.696 E20.62808
G1 X107.086 Y103.038 E20.69928
G1 X107.099 Y103.015 E20.70178
G1 X107.720 Y102.158 E20.80179
G1 X109.346 Y99.844 E21.06905
G1 X110.901 Y97.494 E21.33534
G1 X110.915 Y97.471 E21.33789
G1 X111.242 Y97.050 E21.38826
G1 X111.244 Y97.048 E21.38853
G0 F7200.00000 X112.014 Y96.823
G1 F1200.000 X112.015 Y96.822 E21.38866
G1 X112.033 Y96.810 E21.39071
G1 X112.153 Y96.733 E21.40418
G1 X112.451 Y96.560 E21.43675
G1 X112.462 Y96.555 E21.43789
G1 X112.593 Y96.497 E21.45143
G1 X112.911 Y96.375 E21.48361
G1 X112.938 Y96.368 E21.48625
G1 X113.044 Y96.340 E21.49661
G1 X113.362 Y96.274 E21.52730
G1 X113.782 Y96.236 E21.56715
G1 X113.852 Y96.232 E21.57378
G1 X114.213 Y96.222 E21.60791
G1 X139.147 Y96.222 E23.96417
G1 X139.853 Y96.232 E24.03089
G1 X139.971 Y96.237 E24.04205
G1 X140.037 Y96.242 E24.04831
G1 X140.343 Y96.270 E24.07735
G1 X140.374 Y96.276 E24.08033
G1 X140.507 Y96.304 E24.09317
G1 X140.821 Y96.385 E24.12382
G1 X140.848 Y96.392 E24.12645
G1 X140.982 Y96.444 E24.14004
G1 X141.305 Y96.584 E24.17330
G1 X141.313 Y96.588 E24.17415
G1 X141.438 Y96.660 E24.18778
G1 X141.725 Y96.844 E24.22000
G1 X141.732 Y96.849 E24.22081
G1 X141.846 Y96.942 E24.23471
G1 X142.110 Y97.178 E24.26818
G1 X142.222 Y97.303 E24.28404
G1 X142.422 Y97.549 E24.31400
G1 X142.428 Y97.557 E24.31494
G1 X142.435 Y97.566 E24.31602
G1 X142.513 Y97.688 E24.32970
G1 X142.688 Y97.989 E24.36261
G1 X142.694 Y98.000 E24.36379
G1 X142.754 Y98.136 E24.37784
G1 X142.876 Y98.454 E24.41003
G1 X142.883 Y98.481 E24.41266
G1 X142.911 Y98.587 E24.42302
G1 X142.977 Y98.905 E24.45371
G1 X143.015 Y99.325 E24.49357
G1 X143.019 Y99.395 E24.50019
G1 X143.029 Y99.756 E24.53432
G1 X143.029 Y101.690 E24.71708
G1 X143.019 Y102.396 E24.78381
G1 X143.014 Y102.514 E24.79497
G1 X143.011 Y102.564 E24.79970
G1 X142.981 Y102.886 E24.83026
G1 X142.975 Y102.917 E24.83324
G1 X142.947 Y103.050 E24.84609
G1 X142.866 Y103.364 E24.87673
G1 X142.859 Y103.391 E24.87937
G1 X142.807 Y103.525 E24.89295
G1 X142.667 Y103.848 E24.92622
G1 X142.663 Y103.856 E24.92706
G1 X142.591 Y103.981 E24.94070
G1 X142.405 Y104.270 E24.97317
G1 X142.283 Y104.440 E24.99295
G1 X140.831 Y106.388 E25.22255
G1 X139.205 Y108.702 E25.48981
G1 X137.646 Y111.062 E25.75709
G1 X136.153 Y113.464 E26.02436
G1 X135.182 Y115.114 E26.20528
G1 X134.594 Y116.135 E26.31662
G1 X134.405 Y116.429 E26.34965
G1 X134.402 Y116.434 E26.35020
G1 X134.309 Y116.548 E26.36410
G1 X134.073 Y116.812 E26.39757
G1 X133.948 Y116.924 E26.41343
G1 X133.694 Y117.130 E26.44433
G1 X133.693 Y117.131 E26.44447
G1 X133.677 Y117.142 E26.44630
G1 X133.555 Y117.220 E26.45998
G1 X133.260 Y117.391 E26.49221
G1 X133.246 Y117.398 E26.49369
G1 X133.115 Y117.456 E26.50722
G1 X132.797 Y117.578 E26.53941
G1 X132.770 Y117.585 E26.54205
G1 X132.664 Y117.613 E26.55241
G1 X132.283 Y117.692 E26.58918
G1 X132.287 Y117.692 E26.58956
G1 X131.788 Y117.767 E26.63724
G1 X128.998 Y118.229 E26.90449
G1 X126.222 Y118.770 E27.17175
G1 X123.462 Y119.389 E27.43905
G1 X120.721 Y120.086 E27.70632
G1 X118.785 Y120.638 E27.89656
G1 X118.784 Y120.634 E27.89695
G1 X117.416 Y121.029 E28.03151
G1 X117.310 Y121.057 E28.04187
G1 X116.992 Y121.123 E28.07256
G1 X116.572 Y121.161 E28.11241
G1 X116.502 Y121.165 E28.11904
G1 X116.141 Y121.175 E28.15317
G1 X107.207 Y121.175 E28.99743
G1 X106.501 Y121.165 E29.06416
G1 X106.383 Y121.160 E29.07532
G1 X106.317 Y121.155 E29.08157
G1 X106.011 Y121.127 E29.11061
G1 X105.980 Y121.121 E29.11359
G1 X105.847 Y121.093 E29.12644
G1 X105.533 Y121.012 E29.15708
G1 X105.506 Y121.005 E29.15972
G1 X105.372 Y120.953 E29.17330
G1 X105.049 Y120.813 E29.20657
G1 X105.041 Y120.809 E29.20741
G1 X104.916 Y120.737 E29.22104
G1 X104.627 Y120.551 E29.25352
G1 X104.622 Y120.548 E29.25407
G1 X104.508 Y120.455 E29.26798
G1 X104.244 Y120.219 E29.30144
G1 X104.132 Y120.094 E29.31730
G1 X103.926 Y119.840 E29.34820
G1 X103.923 Y119.836 E29.34868
G1 X103.914 Y119.823 E29.35017
G1 X103.836 Y119.701 E29.36386
G1 X103.665 Y119.406 E29.39608
G1 X103.660 Y119.397 E29.39705
G1 X103.600 Y119.261 E29.41110
G1 X103.478 Y118.943 E29.44328
G1 X103.471 Y118.916 E29.44592
G1 X103.443 Y118.810 E29.45628
G1 X103.377 Y118.492 E29.48697
G1 X103.339 Y118.068 E29.52720
G1 X103.335 Y117.990 E29.53458
G1 X103.325 Y117.640 E29.56767
G1 X103.325 Y112.113 E30.08997
G1 X103.335 Y111.406 E30.15679
G1 X103.340 Y111.289 E30.16786
G1 X103.346 Y111.207 E30.17563
G1 X103.373 Y110.917 E30.20315
G1 X103.379 Y110.886 E30.20613
G1 X103.407 Y110.753 E30.21898
G1 X103.488 Y110.439 E30.24962
G1 X103.495 Y110.412 E30.25226
G1 X103.547 Y110.278 E30.26584
G1 X103.687 Y109.955 E30.29911
G1 X103.691 Y109.947 E30.29995
G1 X104.362 Y108.781 E30.42708
G1 X104.467 Y108.605 E30.44645
G1 X105.843 Y106.134 E30.71372
G1 X107.162 Y103.600 E30.98368
G1 X107.195 Y103.535 E30.99057
G1 X107.263 Y103.416 E31.00353
G1 X107.445 Y103.133 E31.03532
G1 X108.059 Y102.285 E31.13426
G1 X109.686 Y99.971 E31.40157
G1 X111.287 Y97.549 E31.67594
G1 X111.307 Y97.517 E31.67950
G1 X111.399 Y97.405 E31.69320
G1 X111.635 Y97.141 E31.72666
G1 X111.760 Y97.029 E31.74252
G1 X112.014 Y96.823 E31.77343
G10
G0 F7200.00000 X112.808 Y97.864
G0 X114.379 Y99.922
G0 X114.407 Y99.950
G0 X114.729 Y100.272
;TYPE:WALL-INNER
G11
G1 F1200.000 X138.979 Y100.272 E34.06505
G1 X138.979 Y101.522 E34.18318
G1 X133.314 Y101.522 E34.71852
G1 X130.979 Y106.192 E35.21193
G1 X130.979 Y113.681 E35.91964
G1 X129.229 Y113.682 E36.08501
G1 X129.229 Y105.899 E36.82051
G1 X124.479 Y105.899 E37.26938
G1 X124.479 Y113.681 E38.00478
G1 X122.729 Y113.682 E38.17015
G1 X122.729 Y106.192 E38.87796
G1 X120.394 Y101.522 E39.37137
G1 X114.729 Y101.522 E39.90671
G1 X114.729 Y100.272 E40.02483
G0 F7200.00000 X114.379 Y99.922
G1 F1200.000 X139.329 Y99.922 E42.38261
G1 X139.329 Y101.872 E42.56688
G1 X133.530 Y101.872 E43.11489
G1 X131.329 Y106.274 E43.57998
G1 X131.329 Y114.031 E44.31301
G1 X128.879 Y114.032 E44.54454
G1 X128.879 Y106.249 E45.28003
G1 X124.829 Y106.249 E45.66276
G1 X124.829 Y114.031 E46.39816
G1 X122.379 Y114.032 E46.62968
G1 X122.379 Y106.274 E47.36281
G1 X120.178 Y101.872 E47.82790
G1 X114.379 Y101.872 E48.37591
G1 X114.379 Y99.922 E48.56018
G0 F7200.00000 X114.029 Y99.572
;TYPE:WALL-OUTER
G1 F1200.000 X139.679 Y99.572 E50.98411
G1 X139.679 Y102.222 E51.23453
G1 X133.746 Y102.222 E51.79520
G1 X131.679 Y106.356 E52.23198
G1 X131.679 Y114.381 E52.99034
G1 X128.529 Y114.382 E53.28801
G1 X128.529 Y106.599 E54.02351
G1 X125.179 Y106.599 E54.34008
G1 X125.179 Y114.381 E55.07548
G1 X122.029 Y114.382 E55.37316
G1 X122.029 Y106.356 E56.13161
G1 X119.962 Y102.222 E56.56839
G1 X114.029 Y102.222 E57.12906
G1 X114.029 Y99.572 E57.37948
G0 F7200.00000 X114.479 Y99.992
G0 X114.868 Y100.513
;TYPE:SKIN
G1 F1200.000 X115.736 Y101.382 E57.49555
G0 X115.797 Y101.443
G0 F7200.000 X116.231 Y101.382
G1 F1200.000 X115.261 Y100.412 E57.62518
G0 X115.200 Y100.351
G0 F7200.000 X115.756 Y100.412
G1 F1200.000 X116.726 Y101.382 E57.75482
G0 X116.787 Y101.443
G0 F7200.000 X117.221 Y101.382
G1 F1200.000 X116.251 Y100.412 E57.88445
G0 X116.190 Y100.351
G0 F7200.000 X116.746 Y100.412
G1 F1200.000 X117.716 Y101.382 E58.01409
G0 X117.777 Y101.443
G0 F7200.000 X118.211 Y101.382
G1 F1200.000 X117.241 Y100.412 E58.14372
G0 X117.180 Y100.351
G0 F7200.000 X117.736 Y100.412
G1 F1200.000 X118.706 Y101.382 E58.27335
G0 X118.767 Y101.443
G0 F7200.000 X119.201 Y101.382
G1 F1200.000 X118.231 Y100.412 E58.40299
G0 X118.170 Y100.351
G0 F7200.000 X118.726 Y100.412
G1 F1200.000 X119.696 Y101.382 E58.53262
G0 X119.757 Y101.443
G0 F7200.000 X120.191 Y101.382
G1 F1200.000 X119.221 Y100.412 E58.66226
G0 X119.160 Y100.351
G0 F7200.000 X119.716 Y100.412
G1 F1200.000 X125.062 Y105.758 E59.37671
G0 X125.123 Y105.819
G0 F7200.000 X124.567 Y105.758
G1 F1200.000 X120.768 Y101.959 E59.88442
G0 X120.707 Y101.898
G0 F7200.000 X121.263 Y102.949
G1 F1200.000 X124.338 Y106.024 E60.29538
G0 X124.399 Y106.085
G0 F7200.000 X124.338 Y106.519
G1 F1200.000 X121.758 Y103.939 E60.64017
G0 X121.697 Y103.878
G0 F7200.000 X122.253 Y104.928
G1 F1200.000 X124.338 Y107.014 E60.91889
G0 X124.399 Y107.075
G0 F7200.000 X124.338 Y107.509
G1 F1200.000 X122.748 Y105.918 E61.13145
G0 X122.687 Y105.857
G0 F7200.000 X122.868 Y106.534
G1 F1200.000 X124.338 Y108.004 E61.32790
G0 X124.399 Y108.065
