;FLAVOR:UltiGCode
;TIME:4531
;MATERIAL:4288
;MATERIAL2:0
;NOZZLE_DIAMETER:0.4

;Generated with Cura_SteamEngine 2.1.3
;LAYER_COUNT:158
;LAYER:0
M107
G10
G0 F7200.000000 X96.212 Y70.209 Z0.270
G0 X96.427 Y69.960
;TYPE:SKIRT
G11
G1 F1200.000 X96.658 Y69.716 E0.03175
G1 X96.873 Y69.507 E0.06009
G1 X97.130 Y69.278 E0.09262
G1 X97.244 Y69.185 E0.10652
G1 X97.908 Y68.698 E0.18434
G1 X98.188 Y68.524 E0.21549
G1 X98.483 Y68.360 E0.24738
G1 X98.769 Y68.216 E0.27764
G1 X99.078 Y68.077 E0.30966
G1 X99.374 Y67.960 E0.33974
G1 X99.488 Y67.920 E0.35116
G1 X100.332 Y67.673 E0.43426
G1 X100.650 Y67.607 E0.46495
G1 X100.963 Y67.557 E0.49491
G1 X101.279 Y67.520 E0.52497
G1 X101.549 Y67.501 E0.55055
G1 X102.916 Y67.476 E0.67975
G1 X120.453 Y67.479 E2.33700
G1 X121.250 Y67.490 E2.41232
G1 X121.610 Y67.511 E2.44640
G1 X121.922 Y67.542 E2.47603
G1 X122.241 Y67.588 E2.50649
G1 X122.557 Y67.649 E2.53690
G1 X122.700 Y67.683 E2.55079
G1 X123.527 Y67.924 E2.63219
G1 X123.838 Y68.043 E2.66366
G1 X124.125 Y68.166 E2.69317
G1 X124.404 Y68.301 E2.72246
G1 X124.721 Y68.471 E2.75645
G1 X124.987 Y68.629 E2.78569
G1 X125.108 Y68.709 E2.79939
G1 X125.775 Y69.199 E2.87761
G1 X125.777 Y69.201 E2.87787
G1 X126.035 Y69.423 E2.91004
G1 X126.279 Y69.653 E2.94173
G1 X126.493 Y69.873 E2.97073
G1 X126.720 Y70.127 E3.00292
G1 X126.794 Y70.217 E3.01393
G1 X127.310 Y70.921 E3.09642
G1 X127.482 Y71.199 E3.12731
G1 X127.637 Y71.476 E3.15730
G1 X127.783 Y71.766 E3.18799
G1 X127.917 Y72.064 E3.21886
G1 X128.040 Y72.374 E3.25038
G1 X128.080 Y72.488 E3.26180
G1 X128.325 Y73.326 E3.34430
G1 X128.393 Y73.650 E3.37559
G1 X128.443 Y73.958 E3.40508
G1 X128.478 Y74.265 E3.43428
G1 X128.496 Y74.513 E3.45777
G1 X128.525 Y76.004 E3.59870
G1 X128.525 Y76.787 E3.67269
G1 X128.565 Y79.615 E3.93997
G1 X128.685 Y82.441 E4.20726
G1 X128.885 Y85.262 E4.47452
G1 X129.164 Y88.077 E4.74184
G1 X129.523 Y90.882 E5.00907
G1 X129.962 Y93.676 E5.27634
G1 X130.479 Y96.457 E5.54365
G1 X131.074 Y99.222 E5.81093
G1 X131.748 Y101.969 E6.07822
G1 X132.498 Y104.696 E6.34549
G1 X133.249 Y107.160 E6.58891
G1 X133.406 Y107.652 E6.63771
G1 X133.412 Y107.675 E6.63996
G1 X133.506 Y108.397 E6.70876
G1 X133.514 Y108.489 E6.71749
G1 X133.521 Y108.667 E6.73433
G1 X133.525 Y109.043 E6.76986
G1 X133.525 Y113.793 E7.21873
G1 X133.515 Y114.499 E7.28546
G1 X133.508 Y114.656 E7.30031
G1 X133.481 Y114.964 E7.32953
G1 X133.372 Y115.482 E7.37955
G1 X133.371 Y115.485 E7.37985
G1 X133.192 Y115.963 E7.42808
G1 X132.917 Y116.458 E7.48159
G1 X132.899 Y116.487 E7.48482
G1 X132.900 Y116.487 E7.48491
G1 X132.819 Y116.598 E7.49790
G1 X131.624 Y118.185 E7.68563
G1 X129.987 Y120.492 E7.95295
G1 X128.416 Y122.844 E8.22024
G1 X127.642 Y124.059 E8.35638
G1 X126.999 Y125.024 E8.46596
G1 X126.999 Y125.025 E8.46605
G1 X126.802 Y125.275 E8.49613
G1 X126.594 Y125.517 E8.52629
G1 X126.346 Y125.780 E8.56045
G1 X126.134 Y125.986 E8.58838
G1 X125.871 Y126.221 E8.62171
G1 X125.788 Y126.289 E8.63185
G1 X125.093 Y126.802 E8.71348
G1 X124.813 Y126.976 E8.74464
G1 X124.531 Y127.133 E8.77514
G1 X124.407 Y127.195 E8.78824
G1 X123.899 Y127.419 E8.84070
G1 X123.423 Y127.605 E8.88900
G1 X122.673 Y127.825 E8.96286
G1 X122.548 Y127.851 E8.97492
G1 X121.723 Y127.978 E9.05380
G1 X121.450 Y127.998 E9.07967
G1 X120.087 Y128.023 E9.20850
G1 X102.862 Y128.021 E10.83626
G1 X101.413 Y127.992 E10.97322
G1 X101.411 Y127.991 E10.97343
G1 X101.092 Y127.960 E11.00372
G1 X100.768 Y127.913 E11.03465
G1 X100.438 Y127.851 E11.06639
G1 X100.099 Y127.771 E11.09930
G1 X99.818 Y127.692 E11.12688
G1 X99.510 Y127.590 E11.15755
G1 X99.167 Y127.459 E11.19224
G1 X99.074 Y127.420 E11.20177
G1 X98.295 Y127.037 E11.28380
G1 X98.174 Y126.966 E11.29706
G1 X97.708 Y126.654 E11.35006
G1 X97.216 Y126.295 E11.40761
G1 X97.126 Y126.217 E11.41887
G1 X96.725 Y125.834 E11.47127
G1 X96.281 Y125.372 E11.53182
G1 X96.206 Y125.281 E11.54297
G1 X95.692 Y124.583 E11.62488
G1 X95.515 Y124.298 E11.65659
G1 X95.366 Y124.030 E11.68556
G1 X95.312 Y123.923 E11.69689
G1 X95.076 Y123.387 E11.75223
G1 X94.895 Y122.923 E11.79930
G1 X94.675 Y122.173 E11.87316
G1 X94.648 Y122.040 E11.88599
G1 X94.521 Y121.218 E11.96459
G1 X94.521 Y121.216 E11.96477
G1 X94.505 Y121.005 E11.98477
G1 X94.476 Y119.509 E12.12617
G1 X94.478 Y103.048 E13.68173
G1 X94.493 Y102.011 E13.77974
G1 X94.507 Y101.614 E13.81728
G1 X94.504 Y101.614 E13.81756
G1 X94.575 Y99.117 E14.05363
G1 X94.575 Y96.289 E14.32087
G1 X94.530 Y94.787 E14.46288
G1 X94.475 Y92.009 E14.72545
G1 X94.479 Y75.520 E16.28366
G1 X94.488 Y74.890 E16.34320
G1 X94.540 Y74.100 E16.41802
G1 X94.542 Y74.081 E16.41982
G1 X94.588 Y73.759 E16.45056
G1 X94.649 Y73.440 E16.48125
G1 X94.683 Y73.300 E16.49487
G1 X94.924 Y72.473 E16.57627
G1 X95.047 Y72.151 E16.60884
G1 X95.161 Y71.886 E16.63610
G1 X95.311 Y71.575 E16.66873
G1 X95.461 Y71.298 E16.69850
G1 X95.623 Y71.027 E16.72834
G1 X95.707 Y70.898 E16.74288
G1 X96.212 Y70.209 E16.82361
G1 X96.427 Y69.960 E16.85470
G0 F7200.00000 X96.686 Y70.195
G1 F1200.000 X96.909 Y69.960 E16.88531
G1 X97.110 Y69.764 E16.91184
G1 X97.360 Y69.540 E16.94357
G1 X97.581 Y69.361 E16.97044
G1 X97.684 Y69.284 E16.98259
G1 X98.389 Y68.812 E17.06277
G1 X98.636 Y68.674 E17.08951
G1 X98.928 Y68.527 E17.12040
G1 X99.207 Y68.402 E17.14929
G1 X99.315 Y68.359 E17.16028
G1 X100.109 Y68.091 E17.23947
G1 X100.397 Y68.018 E17.26754
G1 X100.697 Y67.955 E17.29651
G1 X100.815 Y67.936 E17.30781
G1 X101.598 Y67.851 E17.38224
G1 X102.942 Y67.826 E17.50927
G1 X120.438 Y67.829 E19.16264
G1 X121.235 Y67.840 E19.23796
G1 X121.377 Y67.848 E19.25140
G1 X122.204 Y67.939 E19.33002
G1 X122.483 Y67.991 E19.35684
G1 X122.826 Y68.073 E19.39017
G1 X122.899 Y68.093 E19.39732
G1 X123.705 Y68.366 E19.47774
G1 X123.978 Y68.483 E19.50581
G1 X124.248 Y68.614 E19.53417
G1 X124.539 Y68.770 E19.56537
G1 X124.626 Y68.822 E19.57495
G1 X125.328 Y69.292 E19.65478
G1 X125.555 Y69.471 E19.68210
G1 X125.805 Y69.686 E19.71326
G1 X126.040 Y69.909 E19.74388
G1 X126.236 Y70.110 E19.77041
G1 X126.456 Y70.356 E19.80159
G1 X126.514 Y70.427 E19.81026
G1 X127.024 Y71.123 E19.89180
G1 X127.178 Y71.373 E19.91954
G1 X127.335 Y71.654 E19.94996
G1 X127.472 Y71.927 E19.97883
G1 X127.594 Y72.196 E20.00674
G1 X127.640 Y72.313 E20.01862
G1 X127.909 Y73.109 E20.09802
G1 X127.978 Y73.378 E20.12427
G1 X128.045 Y73.696 E20.15498
G1 X128.071 Y73.860 E20.17067
G1 X128.147 Y74.555 E20.23674
G1 X128.175 Y75.996 E20.37294
G1 X128.175 Y76.800 E20.44891
G1 X128.215 Y79.628 E20.71619
G1 X128.335 Y82.454 E20.98349
G1 X128.535 Y85.275 E21.25074
G1 X128.814 Y88.090 E21.51806
G1 X129.173 Y90.895 E21.78529
G1 X129.612 Y93.689 E22.05257
G1 X130.129 Y96.470 E22.31987
G1 X130.724 Y99.235 E22.58715
G1 X131.398 Y101.982 E22.85444
G1 X132.148 Y104.709 E23.12171
G1 X132.918 Y107.232 E23.37099
G1 X133.018 Y107.544 E23.40195
G1 X133.029 Y107.584 E23.40587
G1 X133.057 Y107.690 E23.41623
G1 X133.123 Y108.008 E23.44692
G1 X133.161 Y108.428 E23.48677
G1 X133.165 Y108.498 E23.49340
G1 X133.175 Y108.859 E23.52753
G1 X133.175 Y113.793 E23.99379
G1 X133.165 Y114.499 E24.06051
G1 X133.160 Y114.617 E24.07168
G1 X133.157 Y114.667 E24.07641
G1 X133.127 Y114.989 E24.10697
G1 X133.121 Y115.020 E24.10995
G1 X133.093 Y115.153 E24.12280
G1 X133.012 Y115.467 E24.15344
G1 X133.005 Y115.494 E24.15608
G1 X132.953 Y115.628 E24.16966
G1 X132.813 Y115.951 E24.20293
G1 X132.809 Y115.959 E24.20377
G1 X132.737 Y116.084 E24.21741
G1 X132.551 Y116.373 E24.24988
G1 X132.401 Y116.581 E24.27412
G1 X131.004 Y118.455 E24.49500
G1 X129.378 Y120.769 E24.76226
G1 X127.600 Y123.492 E25.06959
G1 X126.870 Y124.586 E25.19387
G1 X126.513 Y125.075 E25.25109
G1 X126.343 Y125.273 E25.27575
G1 X126.095 Y125.537 E25.30998
G1 X125.894 Y125.732 E25.33644
G1 X125.650 Y125.950 E25.36736
G1 X125.574 Y126.012 E25.37663
G1 X124.892 Y126.514 E25.45666
G1 X124.624 Y126.681 E25.48650
G1 X124.377 Y126.819 E25.51323
G1 X124.261 Y126.877 E25.52549
G1 X123.490 Y127.217 E25.60512
G1 X123.485 Y127.219 E25.60563
G1 X123.241 Y127.304 E25.63005
G1 X122.909 Y127.404 E25.66281
G1 X122.608 Y127.480 E25.69215
G1 X122.509 Y127.501 E25.70171
G1 X121.656 Y127.633 E25.78328
G1 X121.466 Y127.647 E25.80128
G1 X120.062 Y127.673 E25.93399
G1 X102.877 Y127.671 E27.55797
G1 X101.439 Y127.642 E27.69389
G1 X101.330 Y127.631 E27.70424
G1 X100.499 Y127.505 E27.78367
G1 X100.190 Y127.433 E27.81365
G1 X100.111 Y127.410 E27.82142
G1 X99.300 Y127.136 E27.90232
G1 X99.187 Y127.087 E27.91396
G1 X98.493 Y126.747 E27.98699
G1 X98.457 Y126.727 E27.99088
G1 X98.358 Y126.668 E28.00177
G1 X97.948 Y126.394 E28.04837
G1 X97.421 Y126.010 E28.10999
G1 X97.350 Y125.949 E28.11884
G1 X96.764 Y125.388 E28.19550
G1 X96.559 Y125.160 E28.22448
G1 X96.352 Y124.906 E28.25544
G1 X96.167 Y124.659 E28.28460
G1 X95.994 Y124.405 E28.31364
G1 X95.823 Y124.128 E28.34441
G1 X95.671 Y123.858 E28.37369
G1 X95.621 Y123.759 E28.38417
G1 X95.287 Y123.000 E28.46253
G1 X95.281 Y122.985 E28.46406
G1 X95.190 Y122.724 E28.49018
G1 X95.096 Y122.409 E28.52124
G1 X95.020 Y122.108 E28.55058
G1 X94.999 Y122.009 E28.56014
G1 X94.907 Y121.415 E28.61695
G1 X94.853 Y120.933 E28.66278
G1 X94.826 Y119.516 E28.79671
G1 X94.828 Y103.064 E30.35143
G1 X94.843 Y102.027 E30.44943
G1 X94.857 Y101.630 E30.48697
G1 X94.854 Y101.630 E30.48726
G1 X94.926 Y99.133 E30.72332
G1 X94.926 Y96.305 E30.99057
G1 X94.878 Y94.794 E31.13343
G1 X94.825 Y92.013 E31.39628
G1 X94.828 Y75.554 E32.95166
G1 X94.839 Y74.745 E33.02811
G1 X94.850 Y74.575 E33.04421
G1 X94.933 Y73.829 E33.11514
G1 X94.934 Y73.819 E33.11609
G1 X94.991 Y73.517 E33.14514
G1 X95.073 Y73.174 E33.17846
G1 X95.095 Y73.095 E33.18621
G1 X95.366 Y72.295 E33.26603
G1 X95.482 Y72.025 E33.29380
G1 X95.620 Y71.739 E33.32381
G1 X95.764 Y71.473 E33.35240
G1 X95.920 Y71.211 E33.38121
G1 X95.994 Y71.099 E33.39390
G1 X96.487 Y70.426 E33.47273
G1 X96.686 Y70.195 E33.50155
G10
G0 F7200.00000 X97.699 Y71.513
G0 X126.525 Y109.025
G0 X126.553 Y109.053
G0 X126.875 Y109.375
;TYPE:WALL-INNER
G11
G1 F1200.000 X129.125 Y109.375 E33.71417
G1 X129.125 Y111.025 E33.87010
G1 X128.680 Y110.771 E33.91852
G1 X128.432 Y110.679 E33.94351
G1 X128.136 Y110.627 E33.97191
G1 X127.863 Y110.627 E33.99771
G1 X127.567 Y110.679 E34.02611
G1 X127.314 Y110.773 E34.05162
G1 X126.875 Y111.026 E34.09950
G1 X126.875 Y109.375 E34.25552
G0 F7200.00000 X127.637 Y110.921
G0 X127.663 Y111.017
G1 F1200.000 X127.464 Y111.091 E34.27558
G1 X127.265 Y111.205 E34.29726
G1 X127.097 Y111.347 E34.31804
G1 X126.955 Y111.515 E34.33883
G1 X126.841 Y111.714 E34.36050
G1 X126.780 Y111.879 E34.37713
G1 X126.525 Y111.833 E34.40161
G1 X126.525 Y109.025 E34.66697
G1 X129.475 Y109.025 E34.94574
G1 X129.475 Y111.836 E35.21138
G1 X129.220 Y111.881 E35.23585
G1 X129.158 Y111.714 E35.25269
G1 X129.044 Y111.515 E35.27436
G1 X128.902 Y111.347 E35.29515
G1 X128.734 Y111.205 E35.31594
G1 X128.535 Y111.091 E35.33761
G1 X128.336 Y111.017 E35.35767
G1 X128.108 Y110.977 E35.37955
G1 X127.891 Y110.977 E35.40005
G1 X127.663 Y111.017 E35.42193
G10
G0 F7200.00000 X127.637 Y110.921
G0 X127.069 Y111.319
G0 X126.761 Y111.845
G0 X126.780 Y111.879
G0 X126.780 Y112.620
G0 X126.761 Y112.654
G0 X126.751 Y112.827
G0 X126.841 Y112.785
G11
G1 F1200.000 X126.954 Y112.983 E35.44347
G1 X127.097 Y113.154 E35.46454
G1 X127.275 Y113.301 E35.48635
G1 X127.459 Y113.406 E35.50637
G1 X127.663 Y113.482 E35.52694
G1 X127.888 Y113.522 E35.54854
G1 X128.105 Y113.523 E35.56905
G1 X128.326 Y113.484 E35.59025
G1 X128.532 Y113.410 E35.61094
G1 X128.730 Y113.297 E35.63248
G1 X128.898 Y113.158 E35.65309
G1 X129.046 Y112.983 E35.67475
G1 X129.157 Y112.787 E35.69603
G1 X129.220 Y112.617 E35.71317
G1 X129.475 Y112.662 E35.73764
G1 X129.475 Y113.975 E35.86171
G1 X126.525 Y113.975 E36.14049
G1 X126.525 Y112.666 E36.26419
G1 X126.780 Y112.620 E36.28868
G1 X126.841 Y112.785 E36.30530
G0 F7200.00000 X127.105 Y112.490
;TYPE:WALL-OUTER
G1 F1200.000 X127.161 Y112.640 E36.32043
G1 X127.241 Y112.780 E36.33567
G1 X127.345 Y112.905 E36.35104
G1 X127.473 Y113.010 E36.36668
G1 X127.609 Y113.088 E36.38150
G1 X127.759 Y113.144 E36.39663
G1 X127.918 Y113.172 E36.41188
G1 X128.077 Y113.173 E36.42691
G1 X128.236 Y113.145 E36.44217
G1 X128.386 Y113.091 E36.45723
G1 X128.528 Y113.010 E36.47268
G1 X128.650 Y112.909 E36.48765
G1 X128.758 Y112.781 E36.50347
G1 X128.838 Y112.640 E36.51879
G1 X128.894 Y112.490 E36.53392
G1 X128.922 Y112.330 E36.54927
G1 X128.922 Y112.169 E36.56449
G1 X128.894 Y112.009 E36.57984
G1 X128.838 Y111.859 E36.59497
G1 X128.758 Y111.719 E36.61021
G1 X128.654 Y111.595 E36.62550
G1 X128.530 Y111.491 E36.64079
G1 X128.390 Y111.411 E36.65603
G1 X128.240 Y111.355 E36.67116
G1 X128.080 Y111.327 E36.68651
G1 X127.919 Y111.327 E36.70173
G1 X127.759 Y111.355 E36.71708
G1 X127.609 Y111.411 E36.73221
G1 X127.469 Y111.491 E36.74744
G1 X127.345 Y111.595 E36.76274
G1 X127.241 Y111.719 E36.77803
G1 X127.161 Y111.859 E36.79327
G1 X127.105 Y112.009 E36.80840
G1 X127.077 Y112.169 E36.82375
G1 X127.077 Y112.330 E36.83896
G1 X127.105 Y112.490 E36.85431
G0 F7200.00000 X126.733 Y112.730
G0 X126.595 Y113.905
G0 X126.175 Y114.325
G1 F1200.000 X126.175 Y108.675 E37.38824
G1 X129.825 Y108.675 E37.73316
G1 X129.825 Y114.325 E38.26709
G1 X126.175 Y114.325 E38.61201
G10
G0 F7200.00000 X126.595 Y113.875
G0 X126.761 Y112.654
G0 X126.780 Y112.620
G0 X126.780 Y111.879
G0 X126.761 Y111.845
G0 X127.079 Y110.745
G0 X127.046 Y110.712
G11
G1 F8051.118 X127.214 Y110.384 E38.64316
G0 F7200.00000 X127.014 Y109.689
;TYPE:SKIN
G1 F1200.000 X127.815 Y110.491 E38.75027
G0 X127.876 Y110.552
G0 F7200.000 X128.338 Y110.519
G1 F1200.000 X127.333 Y109.514 E38.88458
G0 X127.272 Y109.453
G0 F7200.000 X127.828 Y109.514
G1 F1200.000 X128.984 Y110.670 E39.03908
G0 X129.045 Y110.731
G0 F7200.000 X128.984 Y110.175
G1 F1200.000 X128.323 Y109.514 E39.12741
G0 X128.262 Y109.453
G0 F7200.000 X128.818 Y109.514
G1 F1200.000 X128.984 Y109.680 E39.14960
G0 F7200.00000 X129.292 Y111.767
G0 X129.505 Y112.181
G1 F6412.214 X129.190 Y112.360 E39.18804
G1 F9000.00000 X129.288 Y112.954 E39.20852
G1 X129.186 Y113.347 E39.23155
G1 F5466.37744 X128.976 Y113.632 E39.27561
G1 F7058.82353 X128.561 Y113.712 E39.31635
G1 F9000.00000 X128.103 Y113.749 E39.34153
G1 X127.544 Y113.685 E39.37025
G1 F8025.47771 X126.931 Y113.567 E39.42317
G0 F1200.00000 X126.612 Y113.248
G0 F7200.000 X126.358 Y112.499
G1 F6445.013 X126.568 Y112.214 E39.46054
G1 F6980.60942 X126.909 Y112.060 E39.49701
G0 F7200.00000 X126.875 Y111.576
G10
G0 X126.824 Y111.545
G0 X126.553 Y109.053
G0 X126.525 Y109.025
G0 X122.191 Y96.265
G0 X122.178 Y96.228
G0 X122.069 Y95.936
;TYPE:WALL-INNER
G11
G1 F1200.000 X121.803 Y96.020 E39.52337
G1 X121.558 Y96.074 E39.54708
G1 X121.271 Y96.112 E39.57444
G1 X120.955 Y96.125 E39.60433
G1 X102.045 Y96.125 E41.39132
G1 X101.729 Y96.112 E41.42121
G1 X101.442 Y96.074 E41.44857
G1 X101.197 Y96.020 E41.47228
G1 X100.931 Y95.936 E41.49864
G1 X100.674 Y95.830 E41.52491
G1 X100.423 Y95.699 E41.55166
G1 X100.224 Y95.571 E41.57402
G1 X99.995 Y95.396 E41.60126
G1 X99.785 Y95.203 E41.62821
G1 X99.605 Y95.008 E41.65329
G1 X99.444 Y94.797 E41.67837
G1 X99.286 Y94.548 E41.70624
G1 X99.171 Y94.325 E41.72995
G1 X99.066 Y94.076 E41.75549
G1 X98.982 Y93.806 E41.78221
G1 X98.927 Y93.556 E41.80640
G1 X98.886 Y93.246 E41.83595
G1 X98.875 Y93.008 E41.85846
G1 X98.875 Y75.001 E43.56012
G1 X98.886 Y74.753 E43.58358
G1 X98.925 Y74.449 E43.61255
G1 X98.982 Y74.192 E43.63742
G1 X99.064 Y73.931 E43.66328
G1 X99.175 Y73.667 E43.69034
G1 X99.292 Y73.443 E43.71422
G1 X99.444 Y73.204 E43.74099
G1 X99.602 Y72.998 E43.76552
G1 X99.791 Y72.792 E43.79194
G1 X99.995 Y72.605 E43.81809
G1 X100.224 Y72.430 E43.84533
G1 X100.423 Y72.302 E43.86769
G1 X100.674 Y72.171 E43.89444
G1 X100.931 Y72.065 E43.92071
G1 X101.197 Y71.981 E43.94708
G1 X101.442 Y71.927 E43.97078
G1 X101.729 Y71.889 E43.99814
G1 X102.045 Y71.876 E44.02803
G1 X120.955 Y71.876 E45.81502
G1 X121.271 Y71.889 E45.84491
G1 X121.558 Y71.927 E45.87227
G1 X121.803 Y71.981 E45.89598
G1 X122.069 Y72.065 E45.92234
G1 X122.326 Y72.171 E45.94861
G1 X122.577 Y72.302 E45.97537
G1 X122.776 Y72.430 E45.99772
G1 X123.005 Y72.605 E46.02496
G1 X123.209 Y72.792 E46.05111
G1 X123.398 Y72.998 E46.07753
